tud-amr/mobile-manipulator-compliance/recordings/2023-12-14/compliant.csv
__time,/record/cur_comp.0,/record/cur_comp.1,/record/cur_comp.2,/record/cur_comp.3,/record/cur_comp.4,/record/cur_comp.5,/record/cur_fb.0,/record/cur_fb.1,/record/cur_fb.2,/record/cur_fb.3,/record/cur_fb.4,/record/cur_fb.5,/record/cur_fric.0,/record/cur_fric.1,/record/cur_fric.2,/record/cur_fric.3,/record/cur_fric.4,/record/cur_fric.5,/record/cur_null.0,/record/cur_null.1,/record/cur_null.2,/record/cur_null.3,/record/cur_null.4,/record/cur_null.5,/record/pos_q.0,/record/pos_q.1,/record/pos_q.2,/record/pos_q.3,/record/pos_q.4,/record/pos_q.5,/record/pos_t.0,/record/pos_t.1,/record/pos_t.2,/record/pos_x.0,/record/pos_x.1,/record/pos_x.2
1702560114.536366,-0.180938215,-0.005236242,0.028593292,-0.234438740,-0.051536696,0.000000000,-0.621618807,2.871294022,-2.325030327,-1.467470884,-0.564229012,0.323086679,-0.586449945,0.613682843,0.734300809,-0.517898048,0.021102518,0.595007242,-0.046449945,-0.043965176,0.044300809,-0.223315481,-0.048921091,0.005007242,-0.814766439,-0.379005640,1.767103790,-1.731394528,-1.094999162,-0.012653744,0.105104481,-0.296558345,0.122047138,0.123614401,-0.281772698,0.120519597
1702560114.547195,-0.229972748,-0.010973569,0.062373618,-0.281111331,-0.092299193,-0.000000000,-0.635632157,2.481142044,-2.296207428,-1.485270143,-0.155484602,0.316510886,-0.656209347,0.986114311,0.762995249,-0.564426418,0.085114592,0.594755242,-0.116209347,-0.050201926,0.072995249,-0.271659087,-0.089586295,0.005046526,-0.818526822,-0.377762476,1.767232687,-1.731365233,-1.095443378,-0.012661200,0.105104481,-0.296558345,0.122047138,0.122543263,-0.282227110,0.120865608
1702560114.557892,-0.232449035,-0.003004988,0.012287245,-0.316861341,-0.039458399,-0.000000000,-0.639009774,2.775511026,-2.302249670,-1.508445382,-0.086321145,0.339724869,-0.663263248,-0.000800233,0.725252032,-0.543138007,-0.439170883,0.593901181,-0.123263248,-0.010343034,0.035252032,-0.305803162,-0.039170883,0.005065647,-0.821270411,-0.376660993,1.767315777,-1.731098917,-1.095228727,-0.012661200,0.105104481,-0.296558345,0.122047138,0.121913119,-0.282625659,0.121142731
1702560114.569565,-0.223953328,0.002919156,-0.045340370,-0.341545755,0.037090577,0.000000000,-0.691168368,1.427176356,-2.359508038,-1.507742763,-0.592766464,0.322317004,-0.657310594,1.084928533,-0.586374714,-0.638276310,-0.365621838,0.594468877,-0.117310594,0.034928533,-0.006438168,-0.328276310,0.034378162,0.005052436,-0.823648614,-0.375992540,1.767512851,-1.731198519,-1.096353113,-0.012657472,0.101993223,-0.297642716,0.122047138,0.121018634,-0.282738911,0.121337572
1702560114.580655,-0.160034128,0.001135959,-0.093621329,-0.280633093,0.138629859,-0.000000000,-0.615999460,2.875558376,-3.788199186,-1.542367816,-0.519395471,0.322471082,-0.578587636,1.144279492,-0.715882697,-0.572449849,-0.268771473,0.595033792,-0.038587636,0.094279492,-0.025882697,-0.262449849,0.131228527,0.005033792,-0.826462510,-0.375616501,1.767303527,-1.731413170,-1.099885530,-0.012664929,0.101993223,-0.297642716,0.122047138,0.119611501,-0.282583710,0.121598584
1702560114.592408,-0.113573224,0.013393121,-0.206199800,-0.287781927,0.289252132,0.000000000,-0.530561090,2.929187059,-3.781023979,-1.450480700,-0.363415569,0.310809404,-0.525283591,1.174949360,-0.580545642,-0.536778707,-0.119528428,0.595030297,0.014716409,0.124949360,-0.129814022,-0.267972859,0.280471572,0.005030297,-0.829330201,-0.374914492,1.766835876,-1.731184138,-1.104734614,-0.012657472,0.097827540,-0.299037751,0.122047138,0.118093448,-0.282213671,0.122006267
1702560114.603702,-0.190270125,0.000628111,-0.115345008,-0.340932172,0.176207443,0.000000000,-0.587435007,2.989831448,-3.613996983,-1.548036695,-0.350047380,0.345332533,-0.608893928,1.130981298,-0.744181310,-0.629800311,-0.230138549,0.594753597,-0.068893928,0.080981298,-0.054181310,-0.323615344,0.169861451,0.005045047,-0.832888717,-0.373774659,1.766721892,-1.731072818,-1.112317166,-0.012657472,0.097827540,-0.299037751,0.122047138,0.115801162,-0.281389164,0.122568624
1702560114.614882,-0.212423528,0.000596079,-0.103340234,-0.367000134,0.152474369,0.000000000,-0.639708996,2.926636219,-3.769427061,-1.640111804,-0.421512872,0.345476359,-0.644083515,1.113459820,-0.709533003,-0.661791306,-0.252502621,0.593902219,-0.104083515,0.063459820,-0.052533802,-0.351791306,0.147497379,0.005068665,-0.834098858,-0.372752005,1.766728817,-1.731198519,-1.115608833,-0.012661200,0.097827540,-0.299037751,0.122047138,0.114908531,-0.281052112,0.122969901
1702560114.626633,-0.207180819,0.011757729,-0.228065692,-0.441944431,0.323964033,0.000000000,-0.581940830,2.928621531,-3.752132177,-1.646671295,-0.459299177,0.334567934,-0.640087885,1.214660928,-0.823548096,-0.731602508,-0.087696018,0.594470490,-0.100087885,0.164660928,-0.142307172,-0.421602508,0.312303982,0.005052394,-0.835851218,-0.372132021,1.766741067,-1.731265631,-1.121830510,-0.012657472,0.094690718,-0.300045783,0.122047138,0.113291543,-0.280200420,0.123345530
1702560114.638572,-0.194910038,0.003247165,-0.200402397,-0.408136468,0.315994320,0.000000000,-0.594997048,3.061523438,-3.861861467,-1.709168434,-0.328423977,0.311235338,-0.623293783,1.182507190,-0.814028393,-0.698924815,-0.093837847,0.595017591,-0.083293783,0.132507190,-0.124028393,-0.388924815,0.306162153,0.005017591,-0.838441408,-0.371162098,1.766646259,-1.731568699,-1.130067667,-0.012661200,0.094690718,-0.300045783,0.122047138,0.111094561,-0.279179716,0.123934233
1702560114.649801,-0.182416738,0.003570029,-0.217410083,-0.402958050,0.346937845,0.000000000,-0.603150904,2.972145081,-3.890206337,-1.622837543,-0.236575231,0.276766658,-0.607238219,1.177318231,-0.830270120,-0.664740514,-0.062446030,0.594212621,-0.067238219,0.127318231,-0.143048414,-0.383805217,0.337553970,0.005065176,-0.840785522,-0.370003623,1.766665433,-1.731483477,-1.135553247,-0.012672386,0.094690718,-0.300045783,0.122047138,0.109521783,-0.278530611,0.124439835
1702560114.661983,-0.206909125,-0.000828642,-0.198971888,-0.429371729,0.332264807,0.000000000,-0.598742247,3.023754835,-3.821153641,-1.519644499,-0.282920420,0.345332533,-0.632721687,1.163072297,-0.812814643,-0.720941021,-0.076337184,0.595036190,-0.092721687,0.113072297,-0.129396340,-0.410941021,0.323662816,0.005036190,-0.843679846,-0.368052058,1.766680347,-1.731273088,-1.143028740,-0.012668125,0.091543511,-0.301020913,0.122047138,0.107514168,-0.277621694,0.125234723
1702560114.673882,-0.203073497,-0.010461337,-0.170776177,-0.404348880,0.328242886,-0.000000000,-0.617073834,2.993185759,-3.849940538,-1.709168434,-0.270717710,0.339968473,-0.629501510,1.142279513,-0.795142799,-0.696627312,-0.079505484,0.595040642,-0.089501510,0.092279513,-0.106019521,-0.386627312,0.320494516,0.005040642,-0.845456707,-0.366490381,1.766677684,-1.731357776,-1.146871681,-0.012664929,0.091543511,-0.301020913,0.122047138,0.106425083,-0.277269071,0.125818627
1702560114.685228,-0.141537285,0.000931704,-0.265383724,-0.378147662,0.452053921,0.000000000,-0.632079363,2.860871553,-3.752251387,-1.691894531,-0.374721706,0.357952446,-0.556885983,1.182799836,-0.877107980,-0.667915473,0.042205672,0.594753758,-0.016885983,0.132799836,-0.187863533,-0.357915473,0.442205672,0.005045042,-0.847542495,-0.364652800,1.766685141,-1.731531947,-1.152711994,-0.012657472,0.091543511,-0.301020913,0.122047138,0.104892530,-0.276619886,0.126561204
1702560114.696558,-0.192086258,-0.004139965,-0.191690682,-0.408679793,0.338746986,0.000000000,-0.594997048,2.885101318,-3.913242340,-1.663210392,-0.238457561,0.322471082,-0.604570104,1.121076540,-0.824799437,-0.701346089,-0.066973822,0.593359668,-0.064570104,0.071076540,-0.134799437,-0.391346089,0.333026178,0.005085573,-0.849227211,-0.363119884,1.766672890,-1.731602254,-1.157269195,-0.012668125,0.088386266,-0.301963031,0.122047138,0.103704506,-0.276116318,0.127168430
1702560114.707691,-0.186782591,-0.015637603,-0.133481278,-0.359695822,0.290242674,-0.000000000,-0.632419884,2.894275427,-3.855746746,-1.703442812,-0.305055678,0.293491900,-0.592701494,1.075774467,-0.777491396,-0.653687194,-0.113046635,0.595017579,-0.052701494,0.025774467,-0.087491396,-0.343687194,0.286953365,0.005017579,-0.851722592,-0.361276977,1.766661172,-1.731620364,-1.158826611,-0.012661200,0.088386266,-0.301963031,0.122047138,0.102872316,-0.276256937,0.127740711
1702560114.718817,-0.187990970,-0.014635786,-0.117282344,-0.352153354,0.256544556,-0.000000000,-0.592515051,2.828179598,-3.907474756,-1.674719334,-0.230261639,0.310756147,-0.592020562,1.051401378,-0.768726851,-0.621141654,0.491411623,0.594212613,-0.052020562,0.001401378,-0.080112939,-0.337338729,0.255085065,0.005065176,-0.854774575,-0.359356837,1.766675553,-1.731461640,-1.159747533,-0.012672386,0.088386266,-0.301963031,0.122047138,0.102025063,-0.276533977,0.128290330
1702560114.730763,-0.258547915,-0.023088582,-0.044131528,-0.409370788,0.157204516,-0.000000000,-0.624409556,2.746556520,-3.780870438,-1.594230056,0.247453958,0.362594485,-0.660990948,1.018526754,-0.700600185,-0.601672014,0.557504135,0.595039158,-0.120990948,-0.031473246,-0.015453086,-0.395757039,0.157504135,0.005039158,-0.856955704,-0.357192753,1.766741067,-1.731176681,-1.159015163,-0.012661200,0.084161588,-0.303167662,0.122047138,0.101740401,-0.277006341,0.128824597
1702560114.742639,-0.231341821,-0.035797113,0.002379848,-0.332957225,0.137665464,-0.000000000,-0.703162730,2.190804243,-3.475941181,-1.726768255,0.368707985,0.316563189,-0.634457160,1.013848875,0.165948893,-0.628943695,0.537387544,0.595022912,-0.094457160,-0.036151125,0.033944536,-0.318943695,0.137387544,0.005022912,-0.859935249,-0.355024940,1.766884878,-1.731372690,-1.158327002,-0.012657472,0.084161588,-0.303167662,0.122047138,0.101137779,-0.277618022,0.129387541
1702560114.754310,-0.265333411,-0.034374363,0.003528460,-0.383725438,0.124482735,0.000000000,-0.657276332,2.807282686,-2.871622562,-1.628958344,0.311607510,0.316563189,-0.678833823,1.000432321,0.717329482,-0.634050965,0.525303160,0.595034706,-0.138833823,-0.049567679,0.027329482,-0.371392126,0.125303160,0.005034706,-0.863004808,-0.353043548,1.766784743,-1.731335938,-1.157550425,-0.012650015,0.084161588,-0.303167662,0.122047138,0.100601184,-0.278263687,0.129921996
1702560114.765540,-0.288737628,-0.027009145,-0.019761037,-0.434855989,0.127613971,0.000000000,-0.633440137,2.728215694,-2.376708984,-1.634438276,0.362959653,0.328020364,-0.703329190,1.009695027,0.694555378,-0.695167366,0.528302011,0.594994833,-0.163329190,-0.040304973,0.004555378,-0.422521641,0.128302011,0.004994833,-0.864431197,-0.351306102,1.766848126,-1.731250717,-1.154446777,-0.012642558,0.080982267,-0.304032361,0.122047138,0.100887656,-0.279097828,0.130274174
1702560114.776702,-0.239695801,-0.024678331,-0.059397588,-0.387136177,0.193639643,-0.000000000,-0.695943356,2.515217781,-3.246409655,-1.668964744,0.328827053,0.311235338,-0.643942893,1.050019133,-0.708598897,-0.681759210,0.205950113,0.594471326,-0.103942893,0.000019133,-0.018598897,-0.371759210,0.191553646,0.005053895,-0.866726842,-0.349565459,1.767390878,-1.731476021,-1.155234540,-0.012679843,0.080982267,-0.304032361,0.122047138,0.100068253,-0.279217976,0.130704907
1702560114.790155,-0.245600232,-0.020957852,-0.074200703,-0.406623056,0.201834394,-0.000000000,-0.676837087,2.766475677,-2.497883558,-1.623000979,0.282041132,0.293999225,-0.656280154,0.041896396,-0.163637240,-0.671261457,0.601379019,0.593645116,-0.116280154,-0.018534403,-0.043095982,-0.393002159,0.201379019,0.005079905,-0.870774847,-0.347273543,1.767442011,-1.731032338,-1.155153580,-0.012672386,0.080982267,-0.304032361,0.122047138,0.099167943,-0.279736571,0.131293460
1702560114.802374,-0.307072106,-0.034245229,0.001947741,-0.445887066,0.121175240,-0.000000000,-0.685273707,2.537945986,-2.417430401,-1.709245801,0.351227969,0.335013062,-0.717722062,0.752707836,0.725644123,-0.656097728,0.484154736,0.594212613,-0.177722062,-0.024876292,0.035644123,-0.431870487,0.120218376,0.005065176,-0.872590590,-0.345733703,1.767184217,-1.730806502,-1.155101382,-0.012672386,0.077794065,-0.304863720,0.122047138,0.098874071,-0.280090453,0.131748609
1702560114.815601,-0.284926756,-0.030412007,-0.024216037,-0.430667264,0.152596694,0.000000000,-0.748116612,2.302357674,-2.365542412,-1.795562983,0.248522311,0.312085420,-0.704755794,0.344352771,0.697034655,-0.727469431,0.511783322,0.593646374,-0.164755794,-0.022012004,0.007034655,-0.417469431,0.151732966,0.005081177,-0.874396746,-0.344561912,1.767410586,-1.731069622,-1.155638275,-0.012661200,0.077794065,-0.304863720,0.122047138,0.098263891,-0.280251072,0.132072479
1702560114.827321,-0.329266617,-0.031910121,0.000315569,-0.481485343,0.110438327,-0.000000000,-0.681493819,2.101616144,-2.394222260,-1.674640059,0.207888842,0.305218488,-0.744905650,0.025089467,0.722193467,-0.762801136,0.509636779,0.595039158,-0.204905650,-0.024504780,0.032193467,-0.467997032,0.109636779,0.005039158,-0.875720870,-0.343900916,1.767534689,-1.731024881,-1.155619633,-0.012661200,0.074597333,-0.305661647,0.122047138,0.097919689,-0.280396961,0.132229234
1702560114.838601,-0.305469144,-0.029047180,-0.014745824,-0.456148589,0.126677415,-0.000000000,-0.760170877,1.266880274,-2.365647554,-1.726576447,0.305489630,0.293999225,-0.717872544,-0.683839585,0.709561023,-0.752136924,0.484361671,0.595019986,-0.177872544,-0.017193443,0.019561023,-0.442136924,0.125546234,0.005019986,-0.879116933,-0.343221810,1.767636955,-1.731106374,-1.155530683,-0.012650015,0.074597333,-0.305661647,0.122047138,0.096994600,-0.280787974,0.132402889
1702560114.849729,-0.326538575,-0.026271329,-0.018226835,-0.491223004,0.117169160,-0.000000000,-0.703233361,0.730920374,-2.416992188,-1.749678493,0.276287615,0.340746909,-0.749281422,-1.062243010,0.704462766,-0.787972344,0.489274923,0.595030310,-0.209281422,-0.012243010,0.014462766,-0.477972344,0.115906013,0.005030310,-0.880674349,-0.343360294,1.767680630,-1.731057904,-1.155563706,-0.012653744,0.074597333,-0.305661647,0.122047138,0.096538106,-0.280899206,0.132353534
1702560114.863042,-0.357173615,-0.019639458,-0.028602677,-0.546719891,0.100485283,0.000000000,-0.704433203,0.633126378,-2.428508520,-1.766743541,0.305055678,0.305001378,-0.774481046,-1.057569995,0.694614195,-0.837880176,0.499350389,0.595021461,-0.234481046,-0.007569995,0.004614195,-0.533123031,0.099350389,0.005021461,-0.882135359,-0.344035672,1.767863323,-1.731080275,-1.155493399,-0.012653744,0.070322358,-0.306673393,0.122047138,0.096045694,-0.280946549,0.132131647
1702560114.874608,-0.310330327,-0.018972965,-0.045701866,-0.487372049,0.133627623,0.000000000,-0.736809433,0.662695646,-2.532087088,-1.795516729,0.270534128,0.305055678,-0.711687528,-1.059895628,-0.589950843,-0.778749625,0.529073084,0.593073133,-0.171687528,-0.009895628,-0.009906914,-0.472552529,0.132670431,0.005094750,-0.884036324,-0.345219181,1.767917119,-1.731072818,-1.155500856,-0.012672386,0.070322358,-0.306673393,0.122047138,0.095414918,-0.281008414,0.131792566
1702560114.886140,-0.348549754,-0.018501775,-0.025002636,-0.532136061,0.089664288,-0.000000000,-0.720171154,0.673526227,-3.700317860,-1.772470236,0.322317004,0.310969204,-0.763793308,-1.051738107,0.418028084,-0.824265958,0.488184004,0.591941505,-0.223793308,-0.001738107,0.010364771,-0.518070222,0.088184004,0.005130209,-0.885983627,-0.346160342,1.767617780,-1.731047252,-1.155397525,-0.012687299,0.070322358,-0.306673393,0.122047138,0.094894038,-0.281214235,0.131580246
1702560114.897555,-0.390506011,-0.014400812,-0.021794609,-0.595777821,0.059331161,0.000000000,-0.767994165,0.650693297,-3.718102932,-1.766940475,0.305218488,0.276467353,-0.808679789,-1.044171154,0.311696052,-0.872492237,0.457606340,0.595017542,-0.268679789,0.005828846,0.014096194,-0.581842448,0.057606340,0.005017542,-0.888230270,-0.348150788,1.767943751,-1.730969487,-1.155456647,-0.012661200,0.067107085,-0.307392979,0.122047138,0.094045138,-0.281133564,0.130963912
1702560114.909803,-0.364440315,0.000357495,-0.102671243,-0.613548063,0.137049459,-0.000000000,-0.806978285,0.662420690,-3.746337891,-1.881836176,0.277185142,0.357211500,-0.785872461,-1.037682466,-0.167255828,-0.902484604,0.529680903,0.593646184,-0.245872461,0.012317534,-0.070641408,-0.600337729,0.135930154,0.005084227,-0.889656659,-0.350441639,1.767906999,-1.731021153,-1.155538140,-0.012657472,0.067107085,-0.307392979,0.122047138,0.093468505,-0.281071630,0.130342282
1702560114.921616,-0.379901756,-0.015034320,-0.030276139,-0.585510305,0.078753634,0.000000000,-0.785685778,1.020927787,-3.792533159,-1.864545822,0.270717710,0.293491900,-0.801022298,-0.076457272,0.566966752,-0.882016268,0.461228998,0.595036190,-0.261022298,0.002265299,0.003738519,-0.572016268,0.077245945,0.005036190,-0.890609005,-0.351972957,1.767709925,-1.731002511,-1.155619633,-0.012653744,0.067107085,-0.307392979,0.122047138,0.093126885,-0.281064621,0.129954930
1702560114.933491,-0.372369200,-0.001460024,-0.084711125,-0.614144926,0.112509129,-0.000000000,-0.879553735,1.576810241,-2.395141840,-1.916467667,0.230261639,0.316563189,-0.784764869,-1.040081484,-0.372428439,-0.910228934,0.511407171,0.593365587,-0.244764869,0.009918516,-0.050901743,-0.600228934,0.111407171,0.005091509,-0.892645791,-0.353955947,1.767675837,-1.731080275,-1.155475290,-0.012683038,0.063884452,-0.308078855,0.122047138,0.092434918,-0.281129851,0.129412819
1702560114.944881,-0.415020941,-0.000807509,-0.071093309,-0.670661693,0.079826066,0.000000000,-0.851779819,0.758797348,-2.684697151,-1.881836176,0.247453958,0.316981375,-0.842695842,-1.034919034,-0.458482344,-0.964231345,0.478434625,0.594756889,-0.302695842,0.015080966,-0.039212524,-0.657830092,0.078434625,0.005048006,-0.893342474,-0.355854248,1.767722176,-1.730906637,-1.155393797,-0.012653744,0.063884452,-0.308078855,0.122047138,0.092131838,-0.280995950,0.128862103
1702560114.956015,-0.402720794,-0.005060705,-0.045403986,-0.634732003,0.055547470,0.000000000,-0.811500490,1.202961564,-3.309697866,-1.933593750,0.264780730,0.316720068,-0.820481358,-1.033135062,-0.699053302,-0.930739443,0.450719833,0.594753758,-0.280481358,0.016864938,-0.009053302,-0.620739443,0.053693984,0.005045042,-0.893965654,-0.357198079,1.767690218,-1.731002511,-1.155408711,-0.012642558,0.063884452,-0.308078855,0.122047138,0.091851262,-0.280957157,0.128504335
1702560114.967974,-0.427017275,-0.006024397,-0.034844140,-0.664960029,0.038214181,-0.000000000,-0.836043537,1.077843547,-2.532616615,-1.922222137,0.207888842,0.310756147,-0.842231430,-0.999619390,0.407850971,-0.960910215,0.433804579,0.593904790,-0.302231430,0.013159996,0.001029289,-0.650910215,0.036551834,0.005068598,-0.895769146,-0.359333402,1.767651868,-1.731047252,-1.155549325,-0.012664929,0.060654814,-0.308730947,0.122047138,0.091168933,-0.280923141,0.127929789
1702560114.980224,-0.418890155,-0.004381350,-0.048644204,-0.662506151,0.056035280,0.000000000,-0.851721406,0.682003856,-3.567945480,-1.939382553,0.259219080,0.322727710,-0.835048489,-0.486249649,-0.704267263,-0.957325507,0.454615070,0.595016095,-0.295048489,0.011471402,-0.014267263,-0.648763295,0.054615070,0.005016095,-0.897290344,-0.360875372,1.767722176,-1.731021153,-1.155441734,-0.012657472,0.060654814,-0.308730947,0.122047138,0.090636322,-0.280917327,0.127485238
1702560114.991251,-0.491172108,-0.002579783,-0.027542751,-0.760137908,0.000812262,0.000000000,-0.817355931,1.203236818,-3.769637823,-1.939382553,0.213624254,0.294393241,-0.917542993,-1.033450944,0.679705378,-1.057092523,-0.400820462,0.595012613,-0.377542993,0.016549056,0.005651413,-0.747092523,-0.000820462,0.005012613,-0.897920981,-0.362464214,1.767553864,-1.731065361,-1.155589805,-0.012650015,0.056338345,-0.309547727,0.122047138,0.090351776,-0.280859768,0.127085677
1702560115.002058,-0.482240345,-0.006240522,-0.017056587,-0.738996011,0.000511617,0.000000000,-0.881678522,0.684911191,-3.758063316,-2.025874138,0.038603991,0.328070819,-0.904052341,-0.218506566,0.615731981,-1.035637563,-0.401037677,0.595043610,-0.364052341,0.011573420,0.016653965,-0.725637563,-0.001037677,0.005043610,-0.898169187,-0.364005119,1.767624704,-1.731050980,-1.155626557,-0.012672386,0.056338345,-0.309547727,0.122047138,0.090149362,-0.280711345,0.126648411
1702560115.013723,-0.444885225,0.000165455,-0.060018081,-0.713191835,0.051416787,0.000000000,-0.931664348,1.365633488,-3.378078461,-2.014160156,-0.057834450,0.305001378,-0.857741946,-0.497775244,-0.712981269,-1.008870541,0.300180530,0.593360395,-0.317741946,0.021513234,-0.022981269,-0.698870541,0.049590259,0.005087294,-0.899435254,-0.365134299,1.768316061,-1.731224618,-1.155937614,-0.012672386,0.056338345,-0.309547727,0.122047138,0.089469811,-0.280489014,0.126241965
1702560115.024863,-0.512230340,-0.005454155,-0.017631383,-0.786505192,-0.005957774,-0.000000000,-0.880644917,0.754486144,-2.313585758,-1.968534350,0.057547431,0.340746909,-0.935807442,0.167345835,0.706981371,-1.080935529,-0.407770743,0.593924644,-0.395807442,0.016074361,0.016981371,-0.773092685,-0.007770743,0.005070910,-0.900421156,-0.365869864,1.768323517,-1.730939660,-1.155553054,-0.012668125,0.053093739,-0.310120717,0.122047138,0.089246215,-0.280529541,0.126000199
1702560115.036622,-0.521570506,-0.009416877,-0.000647589,-0.789186012,-0.018669205,0.000000000,-0.985423148,1.931271672,-2.365206480,-2.071715593,-0.581342995,0.345332533,-0.948263711,0.884768025,0.722102108,-1.086227874,-0.420249459,0.595030289,-0.408263711,0.009011026,0.032102108,-0.776227874,-0.020249459,0.005030289,-0.900425950,-0.366232587,1.768871063,-1.730950845,-1.155711778,-0.012657472,0.053093739,-0.310120717,0.122047138,0.089060463,-0.280305753,0.125811850
1702560115.047709,-0.496407402,0.006401132,-0.100671166,-0.822501510,0.087838495,-0.000000000,-0.995836675,2.645035505,-2.233767033,-2.117940903,-0.650922239,0.316981375,-0.932417271,-0.898615273,0.610304934,-1.121784594,0.488189344,0.595008677,-0.392417271,-0.001545340,-0.079695066,-0.811784594,0.088189344,0.005008677,-0.900530346,-0.366167073,1.770239396,-1.731313568,-1.156344545,-0.012657472,0.053093739,-0.310120717,0.122047138,0.088551336,-0.279859169,0.125645575
1702560115.060493,-0.547048899,-0.005105680,-0.029248100,-0.850018184,0.008425497,0.000000000,-0.944409311,0.941001654,-2.474599838,-2.071907520,0.225612342,0.316720068,-0.969140441,1.050974775,0.690103541,-1.016901695,0.349471740,0.595012576,-0.429140441,0.000974775,0.000103541,-0.837347333,0.007728389,0.005012576,-0.900591598,-0.365837374,1.771258854,-1.731502120,-1.155663841,-0.012650015,0.049843310,-0.310659699,0.122047138,0.088408422,-0.279756288,0.125546077
1702560115.071761,-0.499321336,0.001448584,-0.073217042,-0.810220583,0.061622829,0.000000000,-0.964911044,2.424086094,-2.994678974,-2.042941809,0.035004739,0.322317004,-0.919326488,1.059402088,0.241243070,-1.107245235,0.331665459,0.594476090,-0.379326488,0.009402088,-0.042712917,-0.797245235,0.060788414,0.005059643,-0.901489616,-0.366122332,1.773111348,-1.731464835,-1.156004193,-0.012675582,0.049843310,-0.310659699,0.122047138,0.087646933,-0.279186248,0.125157488
1702560115.083368,-0.509009866,-0.001870115,-0.067914387,-0.820994464,0.066763699,0.000000000,-0.917606413,2.814728260,-2.808320761,-2.071707487,0.092792444,0.310809404,-0.928344591,1.057283191,0.302041098,-1.061330048,0.257017738,0.594189376,-0.388344591,0.007283191,-0.036812932,-0.807888422,0.065843034,0.005062735,-0.902772195,-0.365603016,1.774092457,-1.731306111,-1.155871035,-0.012664929,0.049843310,-0.310659699,0.122047138,0.087142306,-0.279051099,0.125111500
1702560115.094534,-0.572616861,0.005652600,-0.074517253,-0.928291681,0.034471776,-0.000000000,-0.933404505,2.759169817,-2.452844143,-2.031424284,0.120986551,0.310756147,-1.002362036,-0.809102684,0.637060455,-1.154345503,0.434984930,0.593642629,-0.462362036,-0.004648896,-0.052939545,-0.917121888,0.034984930,0.005078229,-0.903001227,-0.365189693,1.776599557,-1.731102645,-1.155652656,-0.012672386,0.045500965,-0.311325338,0.122047138,0.086586427,-0.278366863,0.124766315
1702560115.105625,-0.554000380,0.008574658,-0.093941626,-0.916157774,0.057053999,0.000000000,-1.024748325,2.756924629,-2.765727520,-2.106243849,0.150065333,0.293548316,-0.993147451,0.636029190,0.600739391,-1.214853807,0.338087223,0.594189376,-0.453147451,0.015067038,-0.068305003,-0.904853807,0.056379024,0.005062735,-0.903074197,-0.365306872,1.778651789,-1.731461640,-1.155538140,-0.012664929,0.045500965,-0.311325338,0.122047138,0.086041588,-0.277836302,0.124405582
1702560115.117222,-0.520711665,0.012513194,-0.130097423,-0.891087799,0.106816095,0.000000000,-0.991169989,2.382470608,-2.617617607,-2.129262686,0.075032666,0.316720068,-0.931354565,1.056727829,0.587561731,-1.054975014,0.469900782,0.595011711,-0.391354565,0.006727829,-0.102438269,-0.878073274,0.106960285,0.005011711,-0.903948247,-0.365307937,1.779900279,-1.731435541,-1.155656384,-0.012664929,0.045500965,-0.311325338,0.122047138,0.085488288,-0.277510689,0.124194535
1702560115.128369,-0.568858177,0.005594166,-0.076010701,-0.929892241,0.037083714,-0.000000000,-0.939451933,2.797018528,-2.423430204,-2.043225527,0.259027362,0.282217205,-0.990960893,1.053605442,0.442416222,-1.225715333,0.436983551,0.595027185,-0.450960893,0.003605442,-0.049569571,-0.917622849,0.036983551,0.005027185,-0.905537621,-0.365108733,1.781533862,-1.731420627,-1.155449191,-0.012668125,0.042238339,-0.311784745,0.122047138,0.084715669,-0.277212633,0.123959632
1702560115.139273,-0.534173223,0.015487101,-0.141660131,-0.924833830,0.110783583,0.000000000,-1.053259492,2.912718773,-2.561953306,-2.175361395,0.184511110,0.339724869,-0.956349045,1.052712257,0.570829553,-1.223173546,0.511463803,0.594991046,-0.416349045,0.002712257,-0.119170447,-0.913173546,0.111463803,0.004991046,-0.906630583,-0.364935095,1.783824713,-1.731561242,-1.155301651,-0.012650015,0.042238339,-0.311784745,0.122047138,0.083892090,-0.276687747,0.123621761
1702560115.151042,-0.558152979,0.010934805,-0.109890377,-0.943144793,0.072496855,-0.000000000,-0.939451933,2.785319328,-2.422808409,-2.140957832,0.218755960,0.333973497,-0.982163895,1.059573279,0.341383703,-1.224148899,0.472361811,0.594471648,-0.442163895,0.009573279,-0.083606944,-0.930970544,0.072361811,0.005053886,-0.907833266,-0.364809393,1.786438872,-1.731579884,-1.155286738,-0.012661200,0.042238339,-0.311784745,0.122047138,0.082954715,-0.276020701,0.123214139
1702560115.162242,-0.584018173,0.021957724,-0.167852982,-1.026992344,0.119281852,0.000000000,-0.990885913,2.877377510,-2.357092381,-2.163791180,0.241699219,0.322471082,-1.016779783,1.058606783,0.542016117,-1.293634192,0.520032606,0.594752435,-0.476779783,0.008606783,-0.147983883,-1.016221842,0.120032606,0.005043554,-0.908030340,-0.364754000,1.787641555,-1.731587341,-1.155297390,-0.012653744,0.038971080,-0.312209960,0.122047138,0.082619025,-0.275679707,0.123027424
1702560115.173573,-0.547164590,0.024535691,-0.205754923,-0.999058741,0.178602504,-0.000000000,-0.973385513,2.837695360,-2.456042051,-2.244357347,0.237064689,0.351463616,-0.975295059,1.060190177,0.504842368,-1.297951918,0.476990174,0.595012473,-0.435295059,0.010190177,-0.185157632,-0.987951918,0.179416715,0.005012473,-0.908573092,-0.364347069,1.790649862,-1.731690671,-1.155612176,-0.012668125,0.038971080,-0.312209960,0.122047138,0.081723888,-0.274815062,0.122653916
1702560115.184662,-0.528391442,0.017366392,-0.169623325,-0.946379606,0.150658960,0.000000000,-1.001920462,2.825180531,-2.512260199,-2.232959032,0.207170755,0.356979668,-0.945350161,0.362331056,0.540073287,-1.244825891,0.552140711,0.595031781,-0.405350161,-0.006552737,-0.149926713,-0.934825891,0.152140711,0.005031781,-0.910953426,-0.363444790,1.793705041,-1.731779621,-1.155260639,-0.012661200,0.038971080,-0.312209960,0.122047138,0.080467000,-0.274255452,0.122375747
1702560115.196369,-0.573561404,0.021340964,-0.174283677,-1.026248973,0.133261472,-0.000000000,-0.870869696,1.790650129,-2.513354063,-2.123570442,0.247453958,0.328222215,-0.991796728,1.057378618,0.538809467,-1.311578785,0.534033659,0.595034533,-0.451796728,0.007378618,-0.151190533,-1.014234848,0.134033659,0.005034533,-0.913385424,-0.362486052,1.796818276,-1.731665105,-1.155223887,-0.012668125,0.034608150,-0.312723648,0.122047138,0.079165605,-0.273585372,0.122102585
1702560115.207905,-0.553800185,0.025375262,-0.205676171,-1.020243440,0.171694179,-0.000000000,-0.953986466,2.738949299,-2.482456446,-2.250575542,0.253208697,0.333824724,-0.970299209,1.059544939,0.507156618,-1.311602143,0.572599653,0.594493747,-0.430299209,0.009544939,-0.182843382,-1.008162854,0.172599653,0.005056140,-0.914899698,-0.362167538,1.799206066,-1.731720499,-1.155212702,-0.012668125,0.034608150,-0.312723648,0.122047138,0.078210600,-0.273022684,0.121796066
1702560115.219060,-0.558884139,0.033917446,-0.264125557,-1.074314186,0.232774821,0.000000000,-0.903513014,2.792669773,-2.509866476,-2.296207428,0.333824724,0.356979668,-0.993469591,1.059814188,0.441529435,-1.374226622,0.634317077,0.595033792,-0.453469591,0.009814188,-0.248470565,-1.064226622,0.234317077,0.005033792,-0.915751377,-0.361409602,1.802545670,-1.731897865,-1.155182874,-0.012664929,0.034608150,-0.312723648,0.122047138,0.077232871,-0.272184308,0.121459330
1702560115.230033,-0.549189010,0.035470469,-0.272714837,-1.069311481,0.240920226,-0.000000000,-0.980132639,2.750935793,-2.525335789,-2.307910442,0.356840491,0.356840491,-0.969714315,1.059927194,0.435707476,-1.368089475,0.640273319,0.595027342,-0.429714315,0.009927194,-0.254292524,-1.058089475,0.242538204,0.005027342,-0.916800662,-0.360756595,1.805523084,-1.732019838,-1.155227083,-0.012650015,0.031331477,-0.313068910,0.122047138,0.076274835,-0.271434661,0.121155678
1702560115.241717,-0.506106234,0.029559678,-0.257895533,-0.991709438,0.248294237,-0.000000000,-0.968508124,2.842895508,-2.536170959,-2.336425781,0.374235332,0.305489630,-0.908700361,1.055850341,0.455472068,-1.288814720,0.649745386,0.594778429,-0.368700361,0.005850341,-0.234527932,-0.978814720,0.249745386,0.005048752,-0.919392983,-0.359496387,1.808697040,-1.732470978,-1.155164232,-0.012668125,0.031331477,-0.313068910,0.122047138,0.074868787,-0.270877333,0.121001062
1702560115.253533,-0.511946831,0.033977163,-0.272690260,-1.016269338,0.251432315,-0.000000000,-0.938993514,2.801443100,-2.470883369,-2.250222206,0.356794089,0.340746909,-0.909362658,1.053848151,0.439541834,-1.227028841,0.653338247,0.594759854,-0.369362658,0.003848151,-0.250458166,-1.003265636,0.253338247,0.005050974,-0.922360277,-0.358573868,1.811791100,-1.732330895,-1.154794586,-0.012672386,0.031331477,-0.313068910,0.122047138,0.073497205,-0.270286482,0.120711294
1702560115.265072,-0.576469663,0.027017851,-0.240123363,-1.098663226,0.218775533,0.000000000,-0.909413278,2.836901665,-2.490208387,-2.181055307,0.368303567,0.339529842,-0.993305100,1.055899973,0.470922307,-1.346404313,0.587578958,0.594189376,-0.453305100,0.005899973,-0.219077693,-1.086804683,0.220079150,0.005062735,-0.923643388,-0.357309932,1.814237480,-1.732034752,-1.154775943,-0.012664929,0.028051369,-0.313379841,0.122047138,0.072723220,-0.269703629,0.120620497
1702560115.277241,-0.517495981,0.034908224,-0.301933573,-1.052572312,0.296653010,-0.000000000,-0.921208441,2.811708927,-2.641533852,-2.417820930,0.345284581,0.369918525,-0.974161950,1.064142210,0.400051727,-1.354119978,0.634538306,0.595017591,-0.434161950,0.014142210,-0.289948273,-1.044119978,0.298012836,0.005017591,-0.925714795,-0.355716296,1.818025028,-1.732719184,-1.155016693,-0.012661200,0.028051369,-0.313379841,0.122047138,0.071262910,-0.268920255,0.120489078
1702560115.289685,-0.406122084,0.021920209,-0.247361994,-0.833114653,0.276391838,0.000000000,-0.941476703,2.703118801,-2.511403084,-2.163201809,0.339968473,0.316720068,-0.907163247,1.066406973,0.450048573,-1.137637021,0.664970212,0.594997703,-0.367163247,0.016406973,-0.239951427,-0.827637021,0.276745009,0.004997703,-0.929220048,-0.353988437,1.821730017,-1.737845769,-1.155031074,-0.012675582,0.028051369,-0.313379841,0.122047138,0.068827186,-0.269108376,0.120743870
1702560115.301433,-0.443746695,0.034708284,-0.332511062,-0.960866645,0.356214432,0.000000000,-0.926674545,2.768264771,-2.514078617,-2.080043316,0.443712741,0.316720068,-0.970270040,1.055548313,0.350067543,-1.268881571,0.758312312,0.594195304,-0.430270040,0.005548313,-0.339932457,-0.958881571,0.358312312,0.005068671,-0.931116218,-0.352603061,1.825011032,-1.742432265,-1.154960767,-0.012679843,0.023673169,-0.313740952,0.122047138,0.066995151,-0.269194469,0.120935716
1702560115.312540,-0.441744558,0.030905041,-0.325811236,-0.956550450,0.360006059,-0.000000000,-0.918544233,2.722090960,-2.484696627,-2.211985826,0.455207109,0.345284581,-0.970187304,1.048662855,0.355159173,-1.264921274,0.762326840,0.595037674,-0.430187304,-0.001337145,-0.334840827,-0.954921274,0.362326840,0.005037674,-0.932983094,-0.350504490,1.829984219,-1.748080297,-1.154742920,-0.012657472,0.023673169,-0.313740952,0.122047138,0.064706674,-0.269039271,0.121122404
1702560115.323722,-0.363590414,0.031303118,-0.353151631,-0.851461320,0.415794677,-0.000000000,-0.897758365,2.740279198,-2.631755590,-2.130747557,0.454770386,0.333973497,-0.897705873,1.057688130,0.329613704,-1.159820910,0.719762250,0.593078704,-0.357705873,0.007688130,-0.360386296,-0.849820910,0.417511481,0.005094605,-0.935164223,-0.348981695,1.832956307,-1.753033244,-1.154835066,-0.012672386,0.023673169,-0.313740952,0.122047138,0.062806164,-0.269276896,0.121444591
1702560115.334875,-0.401623578,0.011120515,-0.222100510,-0.815779063,0.275945194,0.000000000,-0.883648276,2.743974686,-2.641702890,-2.113683462,0.397077292,0.316563189,-0.951182763,1.046188071,0.459864988,-1.125032327,0.677078736,0.593930574,-0.411182763,-0.003811929,-0.230135012,-0.815032327,0.277078736,0.005075541,-0.937907812,-0.347185126,1.836656503,-1.758621622,-1.154935200,-0.012679843,0.020386444,-0.313971650,0.122047138,0.060517096,-0.269456568,0.121777786
1702560115.346422,-0.422132010,0.025056938,-0.295808824,-0.913009572,0.329748251,0.000000000,-0.934822559,2.777019978,-2.527275801,-2.067226887,0.478198022,0.345332533,-0.929313448,1.060769226,0.397733446,-1.218464805,0.671152503,0.595019038,-0.389313448,0.010769226,-0.292266554,-0.908464805,0.330731233,0.005019038,-0.940529427,-0.345113719,1.841213171,-1.764259001,-1.155083272,-0.012664929,0.020386444,-0.313971650,0.122047138,0.058076105,-0.269381049,0.122057349
1702560115.357613,-0.377774432,0.033720129,-0.369649762,-0.901015807,0.421920056,0.000000000,-0.921477973,2.724425793,-2.516086817,-2.159447670,0.494941384,0.351086527,-0.881533321,1.053061700,0.318740892,-1.207075821,0.824059718,0.595043610,-0.341533321,0.003061700,-0.371259108,-0.897075821,0.424059718,0.005043610,-0.941831713,-0.343521682,1.844314156,-1.767821245,-1.155190331,-0.012672386,0.020386444,-0.313971650,0.122047138,0.056600073,-0.269264992,0.122273976
1702560115.368999,-0.358969279,0.029989530,-0.363962006,-0.869436231,0.431596100,-0.000000000,-0.865931153,2.723179579,-2.677563906,-2.170827627,0.627504528,0.299744248,-0.843743372,1.046102529,0.328604691,-1.173935126,0.833916153,0.594195793,-0.303743372,-0.003897471,-0.361395309,-0.863935126,0.433916153,0.005068658,-0.944282887,-0.341312856,1.849319301,-1.771275898,-1.155127481,-0.012679843,0.017097483,-0.314167917,0.122047138,0.054475429,-0.268690262,0.122331147
1702560115.380518,-0.357286962,0.038065264,-0.424102332,-0.920054383,0.494320500,0.000000000,-0.774221539,2.728482723,-2.555630922,-2.201954603,0.472204655,0.328070819,-0.799698662,1.043451558,0.276586620,-1.221263754,0.897292721,0.592518722,-0.259698662,-0.006548442,-0.413413380,-0.911263754,0.497292721,0.005116533,-0.947313564,-0.339285125,1.853814717,-1.775181690,-1.155116295,-0.012690495,0.017097483,-0.314167917,0.122047138,0.052228278,-0.268349766,0.122466106
1702560115.392124,-0.353363374,0.038577363,-0.437949175,-0.928785005,0.515177244,0.000000000,-0.788735807,2.725495338,-2.668147564,-2.236108303,0.558239758,0.322727710,-0.839442442,1.044211604,0.250556482,-1.233963298,0.918243273,0.593913459,-0.299442442,-0.005788396,-0.439443518,-0.923963298,0.518243273,0.005077290,-0.950302696,-0.337114116,1.858371918,-1.776557479,-1.154868621,-0.012683038,0.017097483,-0.314167917,0.122047138,0.050399419,-0.267584853,0.122401324
1702560115.403766,-0.405228446,0.040287015,-0.425993941,-1.010771085,0.474858045,-0.000000000,-0.836419821,2.772162199,-2.564582586,-2.227115393,0.587011993,0.316510886,-0.834681978,1.045463217,0.278570596,-1.310777569,0.877816799,0.594477371,-0.294681978,-0.004536783,-0.411429404,-1.000777569,0.477816799,0.005059610,-0.952254793,-0.335666422,1.861504861,-1.776657614,-1.154827609,-0.012675582,0.012709347,-0.314376012,0.122047138,0.049270869,-0.266867945,0.122281653
1702560115.415175,-0.392549233,0.041689137,-0.443499506,-1.009205799,0.499367796,-0.000000000,-0.820510149,2.769042253,-2.573457956,-2.261679888,0.506417394,0.324110091,-0.820665254,1.050640869,0.263018429,-1.308832040,0.882419621,0.594479073,-0.280665254,0.000640869,-0.426981571,-0.998832040,0.502060049,0.005061306,-0.954825276,-0.333316448,1.866360869,-1.776938844,-1.154883535,-0.012679843,0.012709347,-0.314376012,0.122047138,0.047617278,-0.265737143,0.122140525
1702560115.427479,-0.374506129,0.045452979,-0.474545623,-1.009851907,0.536567014,-0.000000000,-0.857746363,2.629105330,-2.696470261,-2.273130894,0.575503111,0.351227969,-0.801282037,1.043822272,0.228379358,-1.301704393,0.940011186,0.594761126,-0.261282037,-0.006177728,-0.461620642,-0.999939852,0.540011186,0.005052246,-0.957704686,-0.331424006,1.871083186,-1.776923930,-1.154897916,-0.012675582,0.012709347,-0.314376012,0.122047138,0.045935138,-0.264564840,0.121882132
1702560115.438950,-0.379509484,0.056204342,-0.546085987,-1.081902397,0.604779818,-0.000000000,-0.838890791,2.667526960,-2.703118801,-2.273130894,0.558476985,0.322317004,-0.814866582,1.047605142,0.151753124,-1.383150032,1.008741428,0.593645102,-0.274866582,-0.002394858,-0.538246876,-1.073150032,0.608741428,0.005079905,-0.960311921,-0.329359524,1.875535459,-1.776912745,-1.154713093,-0.012661200,0.009416572,-0.314491864,0.122047138,0.044434704,-0.263513981,0.121696816
1702560115.450367,-0.371169889,0.055656441,-0.556762354,-1.081349019,0.626534384,-0.000000000,-0.818408668,2.773983240,-2.717098236,-2.394083738,0.610111356,0.322265625,-0.806840116,1.053093578,0.143389473,-1.382244022,0.995847690,0.593912829,-0.266840116,0.003093578,-0.546610527,-1.072244022,0.630073052,0.005077307,-0.961614206,-0.327438852,1.879271874,-1.776960682,-1.154835066,-0.012683038,0.009416572,-0.314491864,0.122047138,0.043371642,-0.262563088,0.121608244
1702560115.461621,-0.357699974,0.063946005,-0.611945948,-1.108879154,0.681522474,0.000000000,-0.802410126,2.648245096,-2.697409630,-2.313471317,0.558476985,0.345476359,-0.799318181,1.055220763,0.084168142,-1.410679007,1.085512902,0.595044881,-0.259318181,0.005220763,-0.605831858,-1.100679007,0.685512902,0.005044881,-0.963262170,-0.325740820,1.882867141,-1.776979324,-1.154661428,-0.012675582,0.009416572,-0.314491864,0.122047138,0.042288238,-0.261699056,0.121467992
1702560115.472964,-0.366486284,0.053874141,-0.545365100,-1.075382983,0.613303439,-0.000000000,-0.726831138,2.572891712,-2.837181807,-2.411264896,0.783406377,0.345715940,-0.786338329,1.054175178,0.160671234,-1.371235757,1.016616283,0.594476406,-0.246338329,0.004175178,-0.529328766,-1.064571919,0.616616283,0.005059635,-0.967154647,-0.322798560,1.888719171,-1.776971867,-1.154583663,-0.012675582,0.006122765,-0.314573228,0.122047138,0.040199968,-0.260304987,0.121292094
1702560115.485041,-0.349117389,0.069921111,-0.664847579,-1.150345385,0.740943958,0.000000000,-0.823913574,2.722090960,-2.821309328,-2.347942352,0.691168368,0.311235338,-0.790678446,1.054831842,0.028994593,-1.452438167,1.145391570,0.594766582,-0.250678446,0.004831842,-0.661005407,-1.142438167,0.745391570,0.005058194,-0.968749348,-0.320640334,1.892990882,-1.776960682,-1.154428135,-0.012690495,0.006122765,-0.314573228,0.122047138,0.039022832,-0.259249560,0.121160279
1702560115.496511,-0.361777062,0.055657401,-0.584814510,-1.108250765,0.671824504,0.000000000,-0.807327092,2.813369036,-2.681765795,-2.393980026,0.673403323,0.328070819,-0.808933347,1.054809427,0.112978427,-1.410013468,1.075280777,0.594762179,-0.268933347,0.004809427,-0.577021573,-1.100013468,0.675280777,0.005053958,-0.970523546,-0.318574254,1.896715046,-1.777360156,-1.154432396,-0.012679843,0.006122765,-0.314573228,0.122047138,0.037829574,-0.258404387,0.121131671
1702560115.507944,-0.384418946,0.058065050,-0.597428555,-1.164586920,0.675361335,-0.000000000,-0.790937126,2.702824831,-2.771475077,-2.371016979,0.702078700,0.369022220,-0.816829504,1.051464388,0.102559941,-1.428434584,1.079198586,0.594494672,-0.276829504,0.001464388,-0.587440059,-1.155262269,0.679198586,0.005056116,-0.972748350,-0.316440529,1.900923906,-1.777348970,-1.154391383,-0.012668125,0.001730040,-0.314628052,0.122047138,0.036489697,-0.257359213,0.121010741
1702560115.518941,-0.360448928,0.058675230,-0.604413221,-1.132010016,0.687876866,-0.000000000,-0.813843608,2.579646826,-2.838086367,-2.428528786,0.771479130,0.334567934,-0.781640724,1.054756938,0.099996187,-1.403334577,1.091508528,0.594479394,-0.241640724,0.004756938,-0.590003813,-1.121434415,0.691508528,0.005061298,-0.975072757,-0.314390428,1.904032348,-1.777312219,-1.154302433,-0.012679843,0.001730040,-0.314628052,0.122047138,0.035374181,-0.256662391,0.121025854
1702560115.530757,-0.367566088,0.057437749,-0.594745617,-1.141540908,0.674499694,-0.000000000,-0.837468386,2.687816381,-2.654958248,-2.451547623,0.782666266,0.369918525,-0.796205065,1.039601847,0.102151432,-1.426531333,1.079129786,0.594983711,-0.256205065,-0.010398153,-0.587848568,-1.132492491,0.679129786,0.004983711,-0.977609152,-0.311859359,1.908535753,-1.777230726,-1.153747963,-0.012650015,0.001730040,-0.314628052,0.122047138,0.034018021,-0.255651684,0.120916342
1702560115.542068,-0.347228382,0.070175222,-0.663348104,-1.165170328,0.729254120,0.000000000,-0.799433053,2.136320114,-2.685350895,-2.365227461,0.690665066,0.351227969,-0.775745091,1.037014109,0.027599174,-1.466441328,1.134977784,0.595027185,-0.235745091,-0.012985891,-0.662400826,-1.156985303,0.734977784,0.005027185,-0.979946342,-0.309389011,1.912060713,-1.777286120,-1.150714623,-0.012668125,0.000631773,-0.314632174,0.122047138,0.033298493,-0.255452373,0.120792050
1702560115.555144,-0.337152437,0.064842386,-0.652976083,-1.141061569,0.740632924,-0.000000000,-0.760693431,2.697102547,-2.707690716,-2.382491350,0.713680983,0.351793259,-0.760989202,1.064091765,0.052091346,-1.440477008,1.114530934,0.595043610,-0.220989202,0.014091765,-0.637908654,-1.130477008,0.744070328,0.005043610,-0.983144799,-0.307199893,1.916240278,-1.777386255,-1.150333791,-0.012675582,0.000631773,-0.314632174,0.122047138,0.031773173,-0.254519641,0.120674072
1702560115.566270,-0.408078028,0.046688236,-0.455443830,-1.103475272,0.474314077,0.000000000,-0.749200404,2.636903524,-2.734865665,-2.376736879,0.738986075,0.333775103,-0.834225631,0.961704450,0.190119879,-1.408098772,0.883704396,0.594197798,-0.294225631,-0.088295550,-0.474139147,-1.098098772,0.483704396,0.005071651,-0.985360016,-0.305632889,1.918465083,-1.777382526,-1.147796331,-0.012687299,0.000631773,-0.314632174,0.122047138,0.031237692,-0.254530143,0.120554393
1702560115.578480,-0.304145925,0.068993266,-0.685859275,-1.104045544,0.781367979,-0.000000000,-0.807327092,2.483283520,-2.658324003,-2.296149731,0.530561090,0.339724869,-0.733601416,1.049799717,0.010177559,-1.389208188,1.186146233,0.595034545,-0.193601416,-0.000200283,-0.679822441,-1.095103456,0.786146233,0.005034545,-0.987843147,-0.302943096,1.922917356,-1.777093840,-1.142506760,-0.012668125,0.003926498,-0.314608307,0.122047138,0.030708470,-0.254434866,0.120177336
1702560115.590064,-0.309527662,0.069948392,-0.616570903,-1.062344379,0.650314688,-0.000000000,-0.712403715,2.595797539,-2.799935579,-2.278907299,0.754486144,0.306355625,-0.725224071,0.570620026,0.051507820,-1.362569413,1.060778186,0.595043610,-0.185224071,-0.079745912,-0.638492180,-1.056921533,0.660778186,0.005043610,-0.989330257,-0.301881027,1.924735762,-1.777289848,-1.140809261,-0.012672386,0.003926498,-0.314608307,0.122047138,0.030250063,-0.254368492,0.120069301
1702560115.602111,-0.362614851,0.056845788,-0.499090752,-1.045751691,0.502936487,-0.000000000,-0.790099204,2.468677521,-2.618433475,-2.278943539,0.467411280,0.368303567,-0.782985935,0.946151882,0.161975537,-1.303026170,0.914278734,0.595036245,-0.242985935,-0.103848118,-0.528024463,-1.041615415,0.514278734,0.005036245,-0.993040040,-0.299362742,1.928607998,-1.776949496,-1.129612800,-0.012672386,0.003926498,-0.314608307,0.122047138,0.030460212,-0.255649474,0.119389816
1702560115.613107,-0.317345403,0.063065817,-0.516474414,-0.978462409,0.508647579,0.000000000,-0.758797348,2.508678675,-2.677539110,-2.123625040,0.606436372,0.305868804,-0.733573820,-0.058388746,0.055201805,-1.258144855,0.921540773,0.595036233,-0.193573820,-0.118819545,-0.553406229,-0.975316389,0.521540773,0.005036233,-0.995269638,-0.298083360,1.930903643,-1.776931387,-1.124700865,-0.012672386,0.008318733,-0.314522818,0.122047138,0.030262336,-0.256076211,0.119061159
1702560115.624070,-0.329637501,0.062449621,-0.496641863,-0.974045544,0.474511980,-0.000000000,-0.755275786,1.433497190,-2.848807335,-2.209821463,0.604686320,0.323547602,-0.760207770,0.286020754,0.145133723,-1.283266549,0.888488377,0.593939483,-0.220207770,-0.132986710,-0.544866277,-0.973266549,0.488488377,0.005085749,-0.997922679,-0.296537661,1.933554554,-1.777186518,-1.115527873,-0.012705409,0.008318733,-0.314522818,0.122047138,0.030527486,-0.257328836,0.118531087
1702560115.635066,-0.352335797,0.060466818,-0.436458859,-0.956892197,0.374388246,0.000000000,-0.742718637,1.843333244,-2.682506800,-2.209828854,0.551044881,0.333973497,-0.781495538,0.322190730,0.183948490,-1.269215784,0.791907484,0.594194662,-0.241495538,-0.182533586,-0.506051510,-0.959215784,0.391907484,0.005069992,-1.000140560,-0.295093162,1.936653408,-1.776901559,-1.106121588,-0.012683038,0.008318733,-0.314522818,0.122047138,0.030918745,-0.258366955,0.117868116
1702560115.646350,-0.274944786,0.072444309,-0.552595212,-0.911609828,0.531657642,-0.000000000,-0.771328866,2.385526657,-2.642079115,-2.227115393,0.473185509,0.362959653,-0.691528494,0.170568053,0.083759733,-1.212200762,0.947046989,0.594194662,-0.151528494,-0.140480869,-0.606240267,-0.910939534,0.547046989,0.005069992,-1.002236468,-0.293863315,1.939552525,-1.776912745,-1.099012546,-0.012694756,0.011611892,-0.314418460,0.122047138,0.030963228,-0.259034666,0.117342242
1702560115.657519,-0.274849675,0.084174214,-0.598702124,-0.939834924,0.551680775,-0.000000000,-0.689729452,0.885894060,-2.687908649,-2.181077957,0.467375845,0.293717504,-0.700574415,-0.614401571,0.026619963,-1.251225160,0.968259284,0.594212480,-0.160574415,-0.143044474,-0.663380037,-0.941225160,0.568259284,0.005066485,-1.004388302,-0.293150120,1.942738731,-1.776920201,-1.088652317,-0.012687299,0.011611892,-0.314418460,0.122047138,0.031410159,-0.260209723,0.116494969
1702560115.668447,-0.311001727,0.077591990,-0.514264405,-0.928071594,0.430869874,0.000000000,-0.708675086,0.909322321,-2.786460638,-2.158220530,0.698697865,0.351086527,-0.735395834,-1.205519064,0.107513372,-1.220231058,0.847973642,0.593914536,-0.195395834,-0.155519064,-0.582486628,-0.929901498,0.447973642,0.005079002,-1.005649042,-0.293238004,1.944600813,-1.776861079,-1.082115854,-0.012687299,0.011611892,-0.314418460,0.122047138,0.031721503,-0.260929652,0.115859172
1702560115.680515,-0.221184933,0.093459447,-0.659458107,-0.882685310,0.623484166,-0.000000000,-0.743788004,0.325537443,-2.693379641,-2.123500347,0.580316722,0.322317004,-0.645481463,-1.138891204,-0.016003946,-1.165825019,1.036939343,0.594477371,-0.105481463,-0.088891204,-0.706003946,-0.881327473,0.636939343,0.005059610,-1.008258408,-0.293746668,1.946813367,-1.776783315,-1.073283747,-0.012675582,0.016000728,-0.314225685,0.122047138,0.031941886,-0.261991512,0.114964312
1702560115.691611,-0.294011206,0.080039921,-0.480472729,-0.860871973,0.364837303,-0.000000000,-0.652345300,0.456949800,-2.871616840,-2.129255056,0.761759400,0.339578599,-0.718997010,-1.202676286,-0.432982658,-1.161368666,0.782126172,0.593368234,-0.178997010,-0.152676286,-0.551709779,-0.863139487,0.382126172,0.005093180,-1.010422492,-0.294720320,1.948549216,-1.776764673,-1.066355267,-0.012687299,0.016000728,-0.314225685,0.122047138,0.032036633,-0.262773087,0.114135269
1702560115.702901,-0.255663013,0.092108540,-0.600955286,-0.884699265,0.522527902,-0.000000000,-0.676837087,0.293548316,-2.978962183,-2.112186670,0.581912398,0.356979668,-0.679829714,-1.150639095,0.035756961,-1.091782992,0.936899091,0.594767062,-0.139829714,-0.100639095,-0.654243039,-0.884319685,0.536899091,0.005058181,-1.011666721,-0.295884654,1.950637667,-1.776487171,-1.060004693,-0.012675582,0.016000728,-0.314225685,0.122047138,0.032230711,-0.263224322,0.113214868
1702560115.713940,-0.209989508,0.106918130,-0.704734601,-0.885345316,0.639286066,-0.000000000,-0.736966729,0.403858364,-2.729938745,-1.968256712,0.678815782,0.385567784,-0.651778917,-1.087399523,-0.051580351,-1.193382260,1.050099630,0.594761287,-0.111778917,-0.037399523,-0.741580351,-0.883382260,0.650099630,0.005052242,-1.012430516,-0.297121426,1.951901070,-1.776490900,-1.054578236,-0.012675582,0.019290354,-0.314040899,0.122047138,0.032533139,-0.263788143,0.112475058
1702560115.725131,-0.253255516,0.093004453,-0.575772398,-0.854545039,0.476051619,0.000000000,-0.644556940,0.454952389,-2.871622562,-2.106267452,0.803564966,0.357211500,-0.644210986,-1.124692120,-0.815730674,-1.164040712,0.888663359,0.595013270,-0.152159754,-0.074692120,-0.623408903,-0.854040712,0.488663359,0.005013270,-1.012469931,-0.298776314,1.953420137,-1.776594763,-1.049315297,-0.012683038,0.019290354,-0.314040899,0.122047138,0.032903265,-0.264177182,0.111611204
1702560115.736397,-0.255035525,0.091142640,-0.566332150,-0.846124472,0.469343323,-0.000000000,-0.696347713,0.426821977,-3.608448744,-2.048890829,0.546821713,0.299246639,-0.691034196,-1.111505812,-1.162385352,-1.154377200,0.880856044,0.595039217,-0.151034196,-0.061505812,-0.606375644,-0.844377200,0.480856044,0.005039217,-1.012506150,-0.300475411,1.954255305,-1.776576121,-1.046037478,-0.012679843,0.019290354,-0.314040899,0.122047138,0.033119330,-0.264367398,0.110923481
1702560115.748275,-0.186429361,0.108114284,-0.707284931,-0.841022685,0.644979582,0.000000000,-0.650311470,0.439211696,-3.999550819,-2.077470303,0.593185365,0.339578599,-0.620842060,-1.028507240,-1.405043729,-1.084964023,1.051495581,0.594483628,-0.080842060,0.021492760,-0.715043729,-0.834528949,0.651495581,0.005065537,-1.012510943,-0.302901551,1.954527480,-1.776383841,-1.043655547,-0.012690495,0.022577865,-0.313821676,0.122047138,0.033294417,-0.264453613,0.110174626
1702560115.759646,-0.187728199,0.113870953,-0.730346685,-0.859885357,0.657052865,0.000000000,-0.604275465,0.549630702,-4.097959042,-1.985461354,0.668170094,0.356979668,-0.596030343,-1.012526663,-1.421901817,-1.008789623,1.062792704,0.593916439,-0.077804024,0.037473337,-0.731901817,-0.852304458,0.662792704,0.005080258,-1.012450223,-0.305239806,1.953668344,-1.776095154,-1.042224364,-0.012690495,0.022577865,-0.313821676,0.122047138,0.033595517,-0.264721521,0.109659360
1702560115.771335,-0.210131067,0.103125777,-0.658497406,-0.839506367,0.581643740,0.000000000,-0.569835842,0.569835842,-4.057293892,-1.945111632,0.811500490,0.305055678,-0.572849516,-1.031990907,-1.353025244,-0.949396069,0.988046486,0.594482342,-0.095667348,0.018009093,-0.663025244,-0.832168297,0.588046486,0.005065571,-1.012389503,-0.307804963,1.953257152,-1.775651472,-1.041114891,-0.012690495,0.022577865,-0.313821676,0.122047138,0.033756039,-0.264719514,0.109019257
1702560115.782664,-0.160010832,0.107818862,-0.728524117,-0.810253905,0.691373904,-0.000000000,-0.552455366,0.610029936,-4.155598164,-1.882680774,0.736607134,0.333973497,-0.512297058,-0.321625738,-1.401893243,-0.586938168,0.629453001,0.595029226,-0.028316411,0.054969371,-0.711893243,-0.799120506,0.695294381,0.005029226,-1.012323989,-0.309304855,1.952602014,-1.775096469,-1.041325814,-0.012690495,0.026957299,-0.313475850,0.122047138,0.033851784,-0.264634565,0.108724624
1702560115.794390,-0.186045089,0.104848373,-0.685878002,-0.818329301,0.628514929,-0.000000000,-0.443264693,0.627689242,-4.189705849,-1.444543719,0.794237971,0.299467921,-0.441814530,-0.511861198,-1.361879482,-0.534677750,0.908682957,0.595007998,-0.048701924,0.043837685,-0.671879482,-0.807313592,0.633052136,0.005007998,-1.012011867,-0.312136328,1.950525814,-1.772085499,-1.041572955,-0.012694756,0.026957299,-0.313475850,0.122047138,0.034565781,-0.264458147,0.108139953
1702560115.806232,-0.240324642,0.122871730,-0.748579797,-0.951780606,0.640020878,0.000000000,-0.414501339,1.100345492,-4.144437790,-1.410099983,0.644556940,0.362731457,-0.454095677,-0.998151889,-1.407784019,-0.625008091,1.040321814,0.595049545,-0.030479788,0.051848111,-0.717784019,-0.935008091,0.645245046,0.005049545,-1.011931972,-0.314190691,1.948792629,-1.767369573,-1.041580412,-0.012687299,0.026957299,-0.313475850,0.122047138,0.035485306,-0.264028213,0.107548298
1702560115.817508,-0.267696192,0.120471493,-0.705793790,-0.958954823,0.576732903,-0.000000000,-0.460523278,0.588364482,-4.196754456,-1.552735925,0.765402436,0.357211500,-0.541381258,-1.008039513,-1.352971786,-0.627792804,0.982483745,0.594480339,-0.001381258,0.041960487,-0.662971786,-0.937792804,0.582483745,0.005062578,-1.011912265,-0.316655180,1.946406969,-1.761529261,-1.041099978,-0.012683038,0.030238472,-0.313176370,0.122047138,0.036741119,-0.263690269,0.106854303
1702560115.828732,-0.330605276,0.131897973,-0.774171966,-1.102220210,0.634118634,0.000000000,0.100502267,0.639424205,-4.254160404,-1.603168607,0.748912990,0.299246639,0.534374597,-0.991085828,-1.399615290,-0.764227419,0.881038049,0.595039213,0.011210970,0.058914172,-0.709615290,-1.074227419,0.639409858,0.005039213,-1.011683765,-0.319020067,1.943636749,-1.751797538,-1.041547389,-0.012679843,0.030238472,-0.313176370,0.122047138,0.038569414,-0.262659683,0.105998465
1702560115.840261,-0.328170676,0.139344595,-0.811848290,-1.116270570,0.672091762,0.000000000,0.305055678,0.549148440,-4.091072083,-1.672661424,0.610029936,0.328222215,-0.545354578,-0.983517336,-1.446224273,-0.780184699,0.909018003,0.595020614,-0.005354578,0.066482664,-0.756224273,-1.090184699,0.677442036,0.005020614,-1.011617719,-0.321079756,1.940599147,-1.742010421,-1.041743397,-0.012687299,0.030238472,-0.313176370,0.122047138,0.040496980,-0.261809929,0.105256602
1702560115.852133,-0.314418231,0.128081828,-0.727276394,-1.022323733,0.591469224,0.000000000,-0.449201852,0.610111356,-4.140013218,-1.696205139,0.587096632,0.311607510,-0.559680133,-0.977655679,-1.364739611,-0.687769095,0.909149798,0.595019821,-0.019680133,0.072344321,-0.674739611,-0.997769095,0.595580988,0.005019821,-1.011727441,-0.323471274,1.936480302,-1.731564970,-1.041381207,-0.012668125,0.033516329,-0.312842548,0.122047138,0.042785809,-0.261313341,0.104544079
1702560115.863061,-0.354859343,0.127929067,-0.731689460,-1.080193988,0.600993216,-0.000000000,-0.558239758,0.592850268,-4.111070156,-1.536688924,0.656141639,0.385567784,-0.575078126,-0.988229473,-1.370684321,-0.744374130,0.963305464,0.594200766,-0.035078126,0.061770527,-0.680684321,-1.054374130,0.605939089,0.005074619,-1.012352751,-0.325269973,1.933206745,-1.721999961,-1.041469624,-0.012694756,0.033516329,-0.312842548,0.122047138,0.044617213,-0.260678892,0.103941826
1702560115.874389,-0.375000741,0.108952231,-0.608198085,-1.020094934,0.480380060,-0.000000000,-0.542901397,0.576882482,-4.204165936,-1.599984288,0.714168072,0.316720068,-0.609677856,-0.465251662,-1.247384348,-0.684846057,0.884387810,0.594201256,-0.069677856,0.055570831,-0.557384348,-0.994846057,0.484387810,0.005074606,-1.012365002,-0.327336586,1.929418664,-1.714583590,-1.041318357,-0.012694756,0.033516329,-0.312842548,0.122047138,0.046422556,-0.260567020,0.103504295
1702560115.885826,-0.303148144,0.123670677,-0.703116705,-0.960109498,0.592270178,0.000000000,-0.563994229,0.576882482,-4.086941242,-1.554696918,0.702290893,0.333824724,-0.528767881,-0.982196744,-1.359756344,-0.630200340,0.996518765,0.595042185,-0.057115413,0.067803256,-0.669756344,-0.940200340,0.596518765,0.005042185,-1.012457680,-0.329591219,1.925465468,-1.708114239,-1.041391860,-0.012694756,0.037881026,-0.312344092,0.122047138,0.048057409,-0.260603630,0.103127351
1702560115.896898,-0.317046669,0.109263971,-0.603381555,-0.910283981,0.489274004,-0.000000000,-0.575503111,1.147274137,-4.077011108,-1.412552118,0.690593183,0.380509973,-0.603575517,-0.980343658,-1.257704498,-0.580848077,0.883983290,0.595044881,-0.088182402,0.069656342,-0.567704498,-0.890848077,0.492287541,0.005044881,-1.012420928,-0.331689257,1.921529316,-1.704256384,-1.041381207,-0.012675582,0.037881026,-0.312344092,0.122047138,0.049350452,-0.261086767,0.102963254
1702560115.908909,-0.254705326,0.107707358,-0.611289349,-0.810669321,0.521526932,0.000000000,-0.598603964,1.129118204,-4.137148380,-1.410334826,0.661795497,0.323547602,-0.648676977,-0.787040569,-1.285604038,-1.108249591,0.924634362,0.595047849,-0.108676977,0.067223640,-0.595604038,-0.798249591,0.524634362,0.005047849,-1.012343164,-0.333796350,1.917338033,-1.703901118,-1.041340195,-0.012679843,0.037881026,-0.312344092,0.122047138,0.050174300,-0.262223031,0.103071871
1702560115.920559,-0.226291241,0.094069453,-0.522579928,-0.705176125,0.436456849,0.000000000,-0.650515139,0.744878113,-4.098419666,-1.988719702,0.690593183,0.333824724,-0.451267089,-0.979474514,-1.195812611,-1.004115507,0.834344251,0.595025719,-0.109558314,0.070525486,-0.505812611,-0.694115507,0.438258623,0.005025719,-1.012099751,-0.335720218,1.913949427,-1.705284897,-1.041369489,-0.012683038,0.041149749,-0.311930284,0.122047138,0.050604369,-0.263360582,0.103220001
1702560115.931899,-0.277239564,0.086025226,-0.452868588,-0.738278920,0.347029148,0.000000000,-0.523966134,0.680253506,-4.107072830,-1.893319249,0.598603964,0.322317004,-0.333747795,-0.983155801,-1.114507901,-0.987908720,0.748464713,0.594481070,-0.119568910,0.066844199,-0.424507901,-0.723546087,0.348464713,0.005064299,-1.011831837,-0.337842224,1.909456142,-1.705684371,-1.041318357,-0.012687299,0.041149749,-0.311930284,0.122047138,0.051426863,-0.264709802,0.103424221
1702560115.943206,-0.283484616,0.085099130,-0.424542110,-0.726933470,0.303269704,-0.000000000,-0.380509973,0.688287497,-4.021857262,-1.876055121,0.581229091,0.339578599,-0.653922095,-0.977643985,-1.080619134,-0.890358744,0.697312482,0.594196841,-0.113922095,0.072356015,-0.390619134,-0.710837138,0.304192722,0.005071676,-1.011744486,-0.340161305,1.903645657,-1.705018580,-1.041580412,-0.012672386,0.041149749,-0.311930284,0.122047138,0.052585272,-0.266258015,0.103730382
1702560115.954266,-0.225974830,0.090189577,-0.459359173,-0.655998226,0.350288641,0.000000000,-0.651202023,0.706053257,-3.974178553,-1.755347490,0.472029269,0.375163347,-0.614242015,-0.975272782,-1.120960662,-0.951610854,0.751424366,0.595046577,-0.074242015,0.074727218,-0.430960662,-0.641610854,0.351424366,0.005046577,-1.012017193,-0.342263072,1.899512431,-1.705184762,-1.041750854,-0.012679843,0.044413960,-0.311482270,0.122047138,0.053189563,-0.267428211,0.103877440
1702560115.965563,-0.232186267,0.103215971,-0.533795545,-0.710439048,0.421026951,0.000000000,-0.638802409,0.610247016,-3.839224815,-1.778448343,0.494907916,0.328474373,-0.612207570,-0.982141972,-1.202836860,-0.889691903,0.823696530,0.594765951,-0.072207570,0.067858028,-0.512836860,-0.696729030,0.423696530,0.005056905,-1.012070456,-0.344363773,1.895142716,-1.705026037,-1.041577216,-0.012683038,0.044413960,-0.311482270,0.122047138,0.054004435,-0.268686893,0.104028487
1702560115.977025,-0.237007699,0.101248026,-0.513263735,-0.701612293,0.395965737,-0.000000000,-0.604357600,0.606982172,-4.011729240,-1.761412024,0.604686320,0.362731457,-0.621095218,-0.978276526,-1.180676215,-0.949361308,0.790279268,0.594761126,-0.081095218,0.071723474,-0.490676215,-0.687900717,0.398177951,0.005052246,-1.012174852,-0.346441039,1.890822003,-1.704907793,-1.041592130,-0.012675582,0.044413960,-0.311482270,0.122047138,0.054761188,-0.269900522,0.104188346
1702560115.988204,-0.191426992,0.102506654,-0.520109844,-0.632985251,0.410497146,0.000000000,-0.616187632,0.719918132,-3.894499063,-1.755281568,0.414501339,0.310809404,-0.578593198,-0.976571684,-1.188146171,-0.929547265,0.812670037,0.595034825,-0.038593198,0.073428316,-0.498146171,-0.619547265,0.412670037,0.005034825,-1.012206810,-0.348943345,1.886012334,-1.704818843,-1.041880284,-0.012675582,0.048758602,-0.310831792,0.122047138,0.055563640,-0.271173381,0.104330706
1702560115.999455,-0.218075865,0.083240377,-0.398083756,-0.593069170,0.284228505,-0.000000000,-0.569748640,0.625998616,-4.045436859,-1.819081545,0.592850268,0.322471082,-0.600356778,-0.985288572,-1.060194369,-0.888559775,0.685566898,0.594198761,-0.060356778,0.064711428,-0.370194369,-0.578559775,0.285566898,0.005071626,-1.012221724,-0.350811286,1.881589357,-1.704830029,-1.041783877,-0.012687299,0.048758602,-0.310831792,0.122047138,0.056377021,-0.272483497,0.104568266
1702560116.010839,-0.207850944,0.091970653,-0.453955246,-0.610771938,0.344690860,0.000000000,-0.581257582,0.690233409,-3.870080948,-1.755196691,0.477782339,0.351039350,-0.595010461,-0.985050906,-1.121220756,-0.907278958,0.729574674,0.595031857,-0.055010461,0.064949094,-0.431220756,-0.597278958,0.346690544,0.005031857,-1.012236105,-0.352966849,1.878039895,-1.704870509,-1.041872827,-0.012679843,0.048758602,-0.310831792,0.122047138,0.056950223,-0.273427196,0.104596123
1702560116.022096,-0.182054855,0.092102660,-0.438137105,-0.559730647,0.322131238,0.000000000,-0.610681057,0.730308473,-3.962824821,-1.801685095,0.489187032,0.339968473,-0.567143957,-0.977462850,-1.101585735,-0.855625730,0.697894327,0.595030161,-0.027143957,0.072537150,-0.411585735,-0.545625730,0.323537788,0.005030161,-1.012219061,-0.355367955,1.873023565,-1.704811387,-1.041884012,-0.012675582,0.052010892,-0.310304159,0.122047138,0.057852584,-0.274838908,0.104792861
1702560116.033195,-0.194556639,0.084548934,-0.391926596,-0.547626914,0.275370649,0.000000000,-0.576193213,0.753959179,-4.070194721,-1.749782681,0.523713231,0.316981375,-0.530860612,-0.983933613,-1.054711919,-0.841047984,0.668998219,0.594196592,-0.038544023,0.066066387,-0.364711919,-0.533375271,0.276685108,0.005069942,-1.012148221,-0.357786105,1.869255192,-1.704807658,-1.041895197,-0.012679843,0.052010892,-0.310304159,0.122047138,0.058494125,-0.275828853,0.104781552
1702560116.044640,-0.185083935,0.093285102,-0.450878758,-0.568146505,0.341499991,0.000000000,-0.547457278,0.672394395,-3.918680191,-1.709507465,0.460954577,0.323086679,-0.528801687,-0.989343079,-1.121268529,-0.833487225,0.737840390,0.594485324,-0.033102988,0.060656921,-0.431268529,-0.555189106,0.343923791,0.005067233,-1.012038498,-0.359851653,1.865822910,-1.704541342,-1.041935678,-0.012694756,0.052010892,-0.310304159,0.122047138,0.059136868,-0.276695017,0.104789936
1702560116.056388,-0.168596886,0.086700310,-0.412538045,-0.517702453,0.307769528,-0.000000000,-0.494941384,0.673698366,-4.017655849,-1.680473685,0.501488805,0.340309262,-0.285537230,-0.989868069,-1.080352755,-0.774637919,0.693689794,0.594763615,-0.017196209,0.060131931,-0.390352755,-0.504434175,0.309713290,0.005055226,-1.011746616,-0.361653015,1.863018602,-1.704444936,-1.041946863,-0.012683038,0.055257478,-0.309742498,0.122047138,0.059694183,-0.277400613,0.104773714
1702560116.067629,-0.196733179,0.080477584,-0.364034400,-0.528190480,0.248680980,-0.000000000,-0.288656443,0.748138726,-3.972357273,-1.686385274,0.523966134,0.368303567,0.109856334,-0.978655208,-1.031527484,-0.799613643,0.650332758,0.595043610,-0.050975506,0.057661028,-0.341527484,-0.515170566,0.250332758,0.005043610,-1.010911449,-0.363975291,1.859807895,-1.704045461,-1.041821162,-0.012672386,0.055257478,-0.309742498,0.122047138,0.060518558,-0.278129864,0.104660525
1702560116.078485,-0.189466168,0.082343759,-0.358104954,-0.513876654,0.231793211,0.000000000,0.082395390,0.785200894,-4.000506878,-1.720706701,0.500695705,0.356840491,-0.217350628,-0.985621377,-1.022712054,-0.810327986,0.627309849,0.595021479,-0.040599166,0.064378623,-0.332712054,-0.500327986,0.233054561,0.005021479,-1.010349522,-0.365835243,1.857349264,-1.704097127,-1.042005985,-0.012672386,0.055257478,-0.309742498,0.122047138,0.061024686,-0.278680322,0.104585065
1702560116.089481,-0.114493966,0.094583898,-0.452574810,-0.459768289,0.352552161,0.000000000,-0.230836228,0.753695667,-3.888035059,-1.691982627,0.420726418,0.369022220,0.571358517,-0.974448345,-1.124762815,-0.757446266,0.744525016,0.595039213,0.031358517,0.061867892,-0.434762815,-0.447446266,0.354974142,0.005039213,-1.009855239,-0.367889073,1.855333784,-1.704197262,-1.042032084,-0.012679843,0.059576773,-0.308940791,0.122047138,0.061420366,-0.279102151,0.104380082
1702560116.100795,-0.163718856,0.089437655,-0.421864718,-0.512573740,0.316252104,-0.000000000,0.540976465,0.861790776,-4.021029949,-1.651701570,0.529436350,0.362731457,0.509936089,0.085743189,-1.097527687,-0.756989794,0.705854522,0.594762662,-0.030063911,0.055234543,-0.407527687,-0.501332863,0.318803787,0.005053946,-1.008957221,-0.369892835,1.853194200,-1.704330420,-1.041931949,-0.012679843,0.059576773,-0.308940791,0.122047138,0.061973402,-0.279577912,0.104206479
1702560116.112327,-0.148417401,0.104438014,-0.489796815,-0.533323449,0.370708369,0.000000000,0.508017063,1.725895405,-3.999562979,-1.594323635,0.518214583,0.362594485,0.514650606,-0.984140121,-1.169611182,-0.833119145,0.768657374,0.595046577,-0.023929635,0.065859879,-0.479611182,-0.523119145,0.373615131,0.005046577,-1.007355596,-0.371675023,1.851628794,-1.704186076,-1.042013442,-0.012679843,0.059576773,-0.308940791,0.122047138,0.062633019,-0.279758095,0.103981950
1702560116.123638,-0.109817390,0.113416076,-0.532693882,-0.503978550,0.410989799,0.000000000,0.506548226,0.800240457,-3.970789433,-1.686493278,0.587688625,0.316563189,0.556721617,-0.975376230,-1.212174262,-0.803625788,0.813909141,0.594197798,0.016721617,0.074623770,-0.522174262,-0.493625788,0.413909141,0.005071651,-1.005653836,-0.373281442,1.851013071,-1.704341605,-1.041887741,-0.012687299,0.062808667,-0.308299976,0.122047138,0.063116318,-0.279721171,0.103658226
1702560116.134959,-0.132716609,0.109418813,-0.506438681,-0.521332419,0.380370281,0.000000000,0.547457278,0.799992144,-4.053317070,-1.628602505,0.546730876,0.328070819,0.534736268,-0.977734729,-1.185015739,-0.783583471,0.782609994,0.595012457,-0.005263732,0.072265271,-0.495015739,-0.510849233,0.383157434,0.005012457,-1.003996285,-0.375240995,1.849847140,-1.704138139,-1.041958048,-0.012683038,0.062808667,-0.308299976,0.122047138,0.063703984,-0.279731681,0.103312899
1702560116.146212,-0.131682288,0.108600549,-0.513637987,-0.523488044,0.396978375,-0.000000000,0.549148440,0.697179496,-4.057159424,-1.634357214,0.546821713,0.333824724,0.536588794,-0.391637142,-1.194733909,-0.779726149,0.782727383,0.595008039,-0.003411206,0.065753647,-0.504733909,-0.513331923,0.400211838,0.005008039,-1.002591733,-0.376565652,1.849321432,-1.704071560,-1.042072564,-0.012675582,0.062808667,-0.308299976,0.122047138,0.064102900,-0.279628479,0.103042287
1702560116.157643,-0.111414794,0.116161118,-0.551837508,-0.518412376,0.432701025,0.000000000,0.544637084,1.370221138,-4.097575188,-1.657525897,0.558684468,0.374235332,0.542052481,-0.756257766,-1.236607788,-0.819464402,0.830367407,0.595039213,0.002052481,0.072519159,-0.546607788,-0.509464402,0.436016741,0.005039213,-0.999899810,-0.378143308,1.849265505,-1.704242003,-1.042017170,-0.012679843,0.066033674,-0.307625353,0.122047138,0.064730266,-0.279326316,0.102635297
1702560116.168391,-0.156509841,0.113012162,-0.526514441,-0.570112357,0.396503690,0.000000000,0.489153177,0.840901673,-4.068603516,-1.760989070,0.558239758,0.397118986,0.487425018,-0.317168853,-1.212636548,-0.858690589,0.795487816,0.594478746,-0.052574982,0.071042165,-0.522636548,-0.561798747,0.399699678,0.005061314,-0.996299216,-0.379667702,1.849214372,-1.704444936,-1.042005985,-0.012679843,0.066033674,-0.307625353,0.122047138,0.065600891,-0.278963571,0.102245851
1702560116.179910,-0.144127457,0.116194245,-0.542361074,-0.562401156,0.411607633,0.000000000,0.515394986,1.027507782,-4.103131771,-1.709168434,0.638880134,0.351793259,0.507821774,-0.367329408,-1.183235954,-0.850501585,0.814977904,0.595022776,-0.032178226,0.071856178,-0.537833359,-0.553644274,0.414977904,0.005022776,-0.993224863,-0.380990760,1.849270299,-1.704419369,-1.041998528,-0.012675582,0.066033674,-0.307625353,0.122047138,0.066349014,-0.278582670,0.101877710
1702560116.191198,-0.119281969,0.118100714,-0.557131592,-0.534880316,0.432164635,-0.000000000,0.460379452,1.440629601,-3.999613047,-1.714952111,0.621538937,0.375648558,0.531059339,-0.296034427,-1.193143402,-0.812692976,0.835520709,0.595037505,-0.008940661,0.073971388,-0.552885633,-0.526231462,0.435520709,0.005037505,-0.990265026,-0.381813677,1.849343269,-1.704300592,-1.041998528,-0.012679843,0.069251440,-0.306916996,0.122047138,0.067111329,-0.278243894,0.101635717
1702560116.203256,-0.204038360,0.108689223,-0.498062476,-0.623558250,0.359695126,-0.000000000,0.480443537,1.953309417,-3.947820902,-1.743772745,0.558210075,0.299301982,0.417735370,0.641306316,-1.158107326,-0.910853550,0.762755478,0.595050817,-0.122264630,0.068829425,-0.498174989,-0.616862704,0.362755478,0.005050817,-0.985515545,-0.382327135,1.849399196,-1.704304853,-1.041950591,-0.012679843,0.069251440,-0.306916996,0.122047138,0.068386379,-0.277853196,0.101486750
1702560116.214444,-0.212723369,0.102459806,-0.472395987,-0.619503467,0.341393487,-0.000000000,0.421080530,2.328054905,-3.959300995,-1.766790509,0.512204468,0.334567934,0.412960508,1.111254933,-1.162260229,-0.922587237,0.739044706,0.594762020,-0.127039492,0.061254933,-0.472260229,-0.612587237,0.344554244,0.005053962,-0.980722920,-0.382135920,1.849380021,-1.704352790,-1.041965505,-0.012679843,0.069251440,-0.306916996,0.122047138,0.069727063,-0.277555989,0.101545227
1702560116.225330,-0.183728637,0.099046830,-0.468302023,-0.572797636,0.353191350,0.000000000,0.474129379,2.846411467,-3.993895531,-1.697737098,0.581257582,0.339578599,0.432851113,1.107893374,-1.147829569,-0.876588616,0.755288912,0.594762182,-0.107148887,0.057893374,-0.470135486,-0.566588616,0.356361119,0.005053958,-0.975559583,-0.381483978,1.849277756,-1.704648401,-1.041921296,-0.012687299,0.073529920,-0.305920178,0.122047138,0.071197052,-0.277360457,0.101756465
1702560116.237310,-0.185707591,0.097182676,-0.460522774,-0.570323447,0.347673108,-0.000000000,0.455934048,2.880270481,-3.988037109,-1.646017551,0.587011993,0.334567934,0.447231889,1.103597832,-1.149838818,-0.845265838,0.751011174,0.595019026,-0.092768111,0.053597832,-0.459838818,-0.563008755,0.351011174,0.005019026,-0.970613560,-0.380827775,1.849209579,-1.704704327,-1.041869098,-0.012664929,0.073529920,-0.305920178,0.122047138,0.072635949,-0.277123932,0.101946692
1702560116.250746,-0.150273808,0.091729395,-0.453867391,-0.511680305,0.364925137,-0.000000000,0.489457756,2.805371046,-3.982286453,-1.743725181,0.569835842,0.357535869,0.486478520,1.094933804,-1.137543335,-0.814263470,0.768511726,0.595030145,-0.053521480,0.044933804,-0.453795383,-0.504263470,0.368511726,0.005030145,-0.965158341,-0.379396059,1.849180284,-1.704755993,-1.041902122,-0.012675582,0.076729418,-0.305133414,0.122047138,0.074255396,-0.276901235,0.102342541
1702560116.262232,-0.258669341,0.081166819,-0.385520197,-0.628503031,0.278324547,-0.000000000,0.366229624,2.865665674,-3.936244488,-1.824335217,0.466169715,0.362731457,0.344363443,1.089997918,-1.071507941,-0.928231123,0.681516704,0.594765790,-0.195636557,0.039997918,-0.390316879,-0.623342023,0.281516704,0.005056910,-0.958951045,-0.377481779,1.849209579,-1.704714980,-1.041895197,-0.012687299,0.076729418,-0.305133414,0.122047138,0.076127789,-0.276640309,0.102851568
1702560116.273227,-0.211299386,0.082069547,-0.401947534,-0.567661818,0.309258586,-0.000000000,0.440153211,2.799669266,-3.930493832,-1.755536318,0.495208919,0.322471082,0.418885243,1.085987876,-1.092944522,-0.870672080,0.712800663,0.594199560,-0.121114757,0.035987876,-0.402944522,-0.560672080,0.312800663,0.005072910,-0.952828971,-0.375770965,1.849170697,-1.704770374,-1.041865370,-0.012690495,0.076729418,-0.305133414,0.122047138,0.077964761,-0.276392484,0.103323328
1702560116.285233,-0.179922496,0.087724818,-0.430776488,-0.539454205,0.338611761,-0.000000000,0.382636338,2.887080908,-3.838482857,-1.841553807,0.461672455,0.339724869,0.451257482,1.092787329,-1.120988452,-0.842319503,0.742062500,0.595046577,-0.088742518,0.042787329,-0.430988452,-0.532319503,0.342062500,0.005046577,-0.946554030,-0.374285453,1.849124358,-1.704992481,-1.041824890,-0.012675582,0.079920502,-0.304313190,0.122047138,0.079804361,-0.276126832,0.103746976
1702560116.297364,-0.304184762,0.077208471,-0.355552380,-0.675308824,0.237747648,-0.000000000,0.414980412,2.885239124,-3.948462725,-1.807071924,0.501488805,0.322471082,0.287311808,1.089847073,-1.051101347,-0.980802022,0.640657216,0.595040485,-0.252688192,0.039847073,-0.361101347,-0.670802022,0.240657216,0.005040485,-0.939679879,-0.372258255,1.848958709,-1.705044147,-1.041732212,-0.012675582,0.079920502,-0.304313190,0.122047138,0.081914256,-0.275880196,0.104324584
1702560116.308395,-0.329854627,0.065719279,-0.304951816,-0.679403474,0.197148816,-0.000000000,0.345476359,2.929639101,-3.948022127,-1.841661692,0.443115234,0.345476359,0.264209599,1.077384545,-1.000359739,-0.984749340,0.600132188,0.595047849,-0.275790401,0.027384545,-0.310359739,-0.674749340,0.200132188,0.005047849,-0.934032380,-0.370954904,1.848781342,-1.705085159,-1.041780682,-0.012683038,0.079920502,-0.304313190,0.122047138,0.083606664,-0.275612983,0.104712506
1702560116.320424,-0.279499815,0.068527136,-0.329347366,-0.619362315,0.233992430,0.000000000,0.305218488,2.777675629,-3.855695248,-1.853063107,0.391322553,0.323086679,0.326265898,1.078576254,-1.022849919,-0.923873718,0.637087686,0.594483307,-0.213734102,0.028576254,-0.332849919,-0.613873718,0.237087686,0.005065546,-0.927163022,-0.369017188,1.848445252,-1.705218318,-1.041798791,-0.012690495,0.083102822,-0.303459594,0.122047138,0.085717388,-0.275373038,0.105305628
1702560116.331364,-0.312610840,0.066489922,-0.307489982,-0.653891283,0.200758877,-0.000000000,0.308456391,2.740013361,-3.942339420,-1.836205006,0.449017495,0.310969204,0.287935471,1.079457337,-1.000798380,-0.958644010,0.603631755,0.595022801,-0.252064529,0.029457337,-0.310798380,-0.648644010,0.203631755,0.005022801,-0.922358147,-0.367446988,1.848026603,-1.705243884,-1.041691732,-0.012675582,0.083102822,-0.303459594,0.122047138,0.087285601,-0.275288747,0.105802661
1702560116.343034,-0.323411586,0.054210270,-0.243997515,-0.628267635,0.143162042,0.000000000,0.253012449,2.856672287,-3.919322252,-1.847496629,0.374058306,0.339968473,0.284638513,1.070844208,-0.933872501,-0.932155806,0.545736054,0.594479388,-0.255361487,0.020844208,-0.243872501,-0.622155806,0.145736054,0.005061298,-0.915936733,-0.365514066,1.847318202,-1.705503276,-1.041592130,-0.012679843,0.083102822,-0.303459594,0.122047138,0.089365834,-0.275220819,0.106466078
1702560116.354930,-0.332235826,0.053061575,-0.249659127,-0.642338058,0.157207968,0.000000000,0.250711381,2.843058586,-3.854604244,-1.841553807,0.362731457,0.402996421,0.269616277,1.066064893,-0.942593787,-0.931465017,0.560077836,0.594198113,-0.270383723,0.016064893,-0.252593787,-0.636945504,0.160077836,0.005072947,-0.908697196,-0.363375548,1.846317386,-1.705647086,-1.041695460,-0.012690495,0.086276029,-0.302572720,0.122047138,0.091742409,-0.275115856,0.107236492
1702560116.366431,-0.300405892,0.049909741,-0.224389128,-0.579316623,0.131639361,0.000000000,0.354045361,2.790949583,-3.936753273,-1.737932444,0.472029269,0.293717504,0.328688947,1.067281875,-0.909093196,-0.877621741,0.534127561,0.593631806,-0.211311053,0.017281875,-0.219093196,-0.571454962,0.134127561,0.005090690,-0.902993770,-0.361586969,1.845183412,-1.705632173,-1.041628881,-0.012697952,0.086276029,-0.302572720,0.122047138,0.093753042,-0.275142776,0.107920943
1702560116.377633,-0.326078946,0.042545225,-0.193364236,-0.595210385,0.106825005,-0.000000000,0.346242398,2.757825375,-3.868026495,-1.766856194,0.356840491,0.351227969,0.288163770,1.057807861,-0.882380028,-0.898684808,0.509500310,0.594763612,-0.251836230,0.007807861,-0.192380028,-0.588684808,0.109500310,0.005055226,-0.898120718,-0.359990137,1.844151171,-1.706009809,-1.041613968,-0.012683038,0.086276029,-0.302572720,0.122047138,0.095433407,-0.275240561,0.108566357
1702560116.388967,-0.336044820,0.026112963,-0.108990516,-0.555016021,0.030309866,0.000000000,0.255552083,2.691725492,-3.811378241,-1.848356843,0.276287615,0.333824724,0.168347050,1.059628327,-0.814608963,-0.866043708,0.431699148,0.595043610,-0.371652950,0.009628327,-0.124608963,-0.556043708,0.031699148,0.005043610,-0.891791449,-0.357827650,1.843199357,-1.708251125,-1.041613968,-0.012672386,0.090492194,-0.301338625,0.122047138,0.097289374,-0.275543501,0.109487126
1702560116.400072,-0.323805918,0.024607067,-0.106773488,-0.533897907,0.034008101,0.000000000,0.247721478,2.862196684,-3.685210943,-1.569104314,0.299467921,0.391998976,0.206385653,1.053564299,-0.808632293,-0.843173836,0.433752478,0.595044881,-0.333614347,0.003564299,-0.118632293,-0.533173836,0.035721707,0.005044881,-0.886186027,-0.355779147,1.842138353,-1.710984594,-1.041632610,-0.012675582,0.090492194,-0.301338625,0.122047138,0.098900473,-0.276008203,0.110435641
1702560116.412474,-0.288248697,0.023359818,-0.117550364,-0.486776872,0.061719216,-0.000000000,0.230836228,2.841946125,-3.740653992,-1.666343451,0.281982422,0.328222215,0.240937635,1.044848752,-0.823250343,-0.796636968,0.460301151,0.594765790,-0.299062365,-0.005151248,-0.133250343,-0.486636968,0.064027590,0.005056910,-0.878457001,-0.353052070,1.840962301,-1.716898942,-1.041613968,-0.012675582,0.090492194,-0.301338625,0.122047138,0.100777910,-0.276920866,0.111826452
1702560116.424821,-0.256026018,0.004083406,-0.012447794,-0.372018645,-0.032977772,0.000000000,0.205404848,2.660938740,-3.773852348,-1.765280962,0.282510430,0.374456495,0.243626807,1.043322207,-0.717118710,-0.683098496,-0.430718906,0.595037517,-0.296373193,-0.006677793,-0.027118710,-0.373098496,-0.032017114,0.005037517,-0.873330416,-0.351227272,1.839672266,-1.720764254,-1.041592130,-0.012675582,0.093642785,-0.300374488,0.122047138,0.102174142,-0.277664006,0.112848707
1702560116.435880,-0.228216634,0.010629839,-0.100817037,-0.384767157,0.095044121,0.000000000,0.231337801,2.757122517,-3.645514965,-1.670363188,-0.583049536,0.385954112,0.275320340,1.074785783,-0.792949806,-0.693873224,-0.305967430,0.595036241,-0.264679660,0.024785783,-0.102949806,-0.383873224,0.094032570,0.005036241,-0.867997703,-0.349018446,1.838774248,-1.724999745,-1.042675504,-0.012679843,0.093642785,-0.300374488,0.122047138,0.103320493,-0.278158815,0.113967419
1702560116.447821,-0.221922838,-0.013466060,0.060341026,-0.271787865,-0.079327209,0.000000000,0.230477288,2.801620483,-3.778548717,-1.669837713,-0.431950867,0.351039350,0.239322663,1.008146759,-0.421855112,-0.587246663,-0.068548838,0.595024484,-0.300677337,-0.041853241,0.027062373,-0.277246663,-0.076881874,0.005024484,-0.863340899,-0.347006162,1.837281813,-1.729878124,-1.041954320,-0.012679843,0.096783108,-0.299377411,0.122047138,0.104670699,-0.279321770,0.115152203
1702560116.460303,-0.338602054,-0.004923919,0.028062817,-0.455417997,-0.079159865,-0.000000000,0.184241682,2.707177162,-3.654715061,-1.681183100,-0.431605756,0.328020364,0.161808666,1.024038212,0.066400935,-0.767187621,-0.448936591,0.595039217,-0.378191334,-0.025961788,0.008069456,-0.457187621,-0.077371384,0.005039217,-0.855882450,-0.344477224,1.836329999,-1.733444097,-1.042017170,-0.012675582,0.096783108,-0.299377411,0.122047138,0.106744328,-0.279687908,0.116310173
1702560116.472102,-0.285974623,0.012179289,-0.070707163,-0.444517651,0.024618025,0.000000000,0.268691689,2.736191273,-3.672288418,-1.651621342,-0.535685956,0.334567934,0.300328386,0.511241623,-0.766554247,-0.750416675,0.414407211,0.595039217,-0.239671614,-0.026252058,-0.076554247,-0.440416675,0.027593507,0.005039217,-0.850658393,-0.342801563,1.835227450,-1.736787962,-1.042660590,-0.012679843,0.096783108,-0.299377411,0.122047138,0.108088889,-0.280096453,0.117258062
1702560116.483053,-0.290598435,-0.027824065,0.139472440,-0.311046490,-0.166391426,-0.000000000,0.282510430,1.649163127,-3.727057219,-1.835257888,0.164790779,0.362731457,0.130002375,0.996620782,-0.566981946,-0.621053240,-0.460451593,0.582887563,-0.398926573,-0.031852174,0.108871710,-0.317408844,-0.165780112,0.004983711,-0.846846877,-0.341177567,1.834611728,-1.740146208,-1.042979104,-0.012650015,0.100953635,-0.297996926,0.122047138,0.108973174,-0.280565400,0.118098025
1702560116.494221,-0.284813383,-0.001114575,-0.039366985,-0.417829285,0.026884217,0.000000000,0.235944480,1.514580131,-3.694764614,-1.576810241,-0.384148002,0.357211500,0.242985049,1.030079060,-0.704498729,-0.721502587,-0.243763987,0.587046628,-0.289739759,-0.005774734,-0.042678393,-0.415679086,0.027305737,0.004995449,-0.840726933,-0.339123737,1.834207460,-1.743974236,-1.044206821,-0.012716594,0.100953635,-0.297996926,0.122047138,0.110261909,-0.280678177,0.119079326
1702560116.505203,-0.287671121,-0.003640101,-0.051189982,-0.428622008,0.057565617,0.000000000,0.264780730,2.714415550,-3.700944185,-1.693811536,-0.399737239,0.363278866,0.215746493,1.080259907,-0.734823694,-0.736446332,-0.344972482,0.594196833,-0.324253507,0.030259907,-0.044823694,-0.426446332,0.055027518,0.005071676,-0.837156167,-0.338060604,1.834005592,-1.745731389,-1.046308055,-0.012687299,0.100953635,-0.297996926,0.122047138,0.110790253,-0.280386581,0.119601194
1702560116.516427,-0.344989675,-0.007110911,0.033473505,-0.455526543,-0.083393383,0.000000000,0.270472944,2.798829317,-3.752374887,-1.553951144,-0.287967265,0.374102563,0.153399874,0.259428744,0.337327792,-0.748030693,-0.264947520,0.560460477,-0.355922271,-0.038043880,0.016013270,-0.455642054,-0.080887061,0.005079052,-0.831423446,-0.336212902,1.833686545,-1.746656039,-1.046581828,-0.012687299,0.104068659,-0.296923422,0.122047138,0.112468665,-0.280127643,0.120262750
1702560116.527568,-0.243984107,-0.003550128,-0.028129565,-0.353347700,0.023911158,0.000000000,0.202072635,2.596824408,-2.607000351,-1.680473685,-0.374058306,0.316720068,0.283501463,0.931343071,-0.418698183,-0.650588086,0.382072853,0.571671133,-0.236333164,-0.038233138,-0.042279273,-0.352164504,0.026666917,0.005084125,-0.828013002,-0.334808351,1.833903327,-1.748120777,-1.046485422,-0.012683038,0.104068659,-0.296923422,0.122047138,0.113326035,-0.280093204,0.120732625
1702560116.538722,-0.241468986,-0.005166337,-0.003970424,-0.333264348,-0.011059639,0.000000000,0.207250670,2.500480652,-2.429183483,-1.716804862,-0.402996421,0.357535869,0.295191472,0.278353682,-0.467474150,-0.638118570,-0.155383218,0.585571780,-0.236184766,-0.050492310,-0.023940682,-0.333069249,-0.007455308,0.004994039,-0.823220377,-0.333351069,1.833959253,-1.750772753,-1.045024412,-0.012657472,0.104068659,-0.296923422,0.122047138,0.114740848,-0.280403871,0.121315770
1702560116.549929,-0.269971107,-0.014899168,0.061055107,-0.329595151,-0.086121062,0.000000000,0.322779030,2.011074781,-3.389622211,-1.574782133,-0.114662446,0.333973497,0.113955957,-0.119849801,0.633460220,-0.612167574,-0.113193637,0.528005878,-0.365828658,-0.043803408,0.020402101,-0.336735665,-0.083548114,0.005089314,-0.819323107,-0.332647462,1.834798681,-1.752655608,-1.045383406,-0.012694756,0.107172271,-0.295817357,0.122047138,0.115378540,-0.280065005,0.121511985
1702560116.560801,-0.288953371,0.001445556,-0.027342166,-0.414872521,-0.008635506,0.000000000,0.161235541,1.093416333,-3.602634668,-1.599984288,-0.426006526,0.322317004,0.240796991,-0.732627681,-0.674690439,-0.699628736,-0.377830984,0.550781272,-0.260825503,-0.029097076,-0.033728364,-0.411660267,-0.006258767,0.005125436,-0.813721947,-0.332242129,1.834798681,-1.754989603,-1.045527217,-0.012712866,0.107172271,-0.295817357,0.122047138,0.116679575,-0.279857307,0.121817406
1702560116.572205,-0.278330636,-0.009010769,0.037742511,-0.355730866,-0.073935364,-0.000000000,0.268691689,0.909267604,-3.654424906,-1.655496716,-0.391703188,0.374058306,0.188864363,-1.025845749,0.364234587,-0.653055883,-0.453101639,0.566577652,-0.325101105,-0.026468451,0.016181271,-0.358001633,-0.072386478,0.005022789,-0.810072884,-0.332414702,1.834075900,-1.756694558,-1.045220420,-0.012675582,0.107172271,-0.295817357,0.122047138,0.117741331,-0.279985269,0.122038976
1702560116.583853,-0.197515819,-0.003672990,-0.019558568,-0.281643112,0.015282480,-0.000000000,0.256909162,0.673403323,-3.660903215,-1.576894164,-0.138592571,0.345332533,0.257797734,-0.908705127,-0.611933745,-0.542568435,0.137249187,0.502262432,-0.199666405,-0.019191523,-0.027396234,-0.279950133,0.016557048,0.005134221,-0.805951908,-0.332462639,1.833944339,-1.759217637,-1.046037478,-0.012697952,0.110264130,-0.294678852,0.122047138,0.118475816,-0.279860389,0.122271997
1702560116.595487,-0.266980470,-0.005008360,0.005769408,-0.359544443,-0.035622598,-0.000000000,0.276467353,0.777231276,-3.677298784,-1.568344355,-0.287737161,0.311235338,0.151753397,-0.918557545,-0.483456610,-0.626699214,-0.376641700,0.510021377,-0.310435221,-0.019857455,-0.013906591,-0.361368711,-0.034279761,0.005037517,-0.801942785,-0.332554252,1.833691339,-1.762701584,-1.045353578,-0.012675582,0.110264130,-0.294678852,0.122047138,0.119398059,-0.280210542,0.122565398
1702560116.606958,-0.226580996,-0.004256058,0.009312406,-0.302580724,-0.037928093,0.000000000,0.236575231,0.710658371,-3.333789825,-1.312132001,-0.076777853,0.379856646,0.254697633,-0.975342381,-0.626062678,-0.581413927,-0.382648804,0.536395322,-0.232321091,-0.028361530,-0.003760975,-0.301829105,-0.035965460,0.005069942,-0.797997046,-0.333270109,1.833801061,-1.763223564,-1.045682745,-0.012683038,0.110264130,-0.294678852,0.122047138,0.120288970,-0.279687368,0.122390232
1702560116.619193,-0.162138134,0.013422386,-0.093483974,-0.284598031,0.073347069,0.000000000,0.254838318,0.667946994,-3.665812254,-1.617246747,-0.362959653,0.310969204,0.215390346,-0.838614430,-0.450150705,-0.525751067,0.322450957,0.467258252,-0.151528908,-0.015946067,-0.104300562,-0.282868026,0.075676080,0.004996982,-0.795229489,-0.334596896,1.833630619,-1.765253958,-1.045483008,-0.012675582,0.113343898,-0.293508032,0.122047138,0.120809991,-0.279699530,0.122208598
1702560116.630995,-0.213398742,0.008965526,-0.048836376,-0.324961714,0.006186774,0.000000000,0.214166149,0.841787338,-3.613996983,-1.490522981,-0.231981099,0.379813045,0.222001211,-0.845005295,-0.604794039,-0.569444599,0.205308989,0.473906648,-0.207533570,-0.009798777,-0.055944042,-0.322859818,0.007695328,0.005064307,-0.792938638,-0.336099452,1.833333943,-1.766859312,-1.045212964,-0.012687299,0.113343898,-0.293508032,0.122047138,0.121279468,-0.279720118,0.121965024
1702560116.642228,-0.277586743,0.008765617,-0.028380278,-0.399538007,-0.040046906,0.000000000,0.175023690,0.873243213,-3.654484034,-1.515640259,-0.339578599,0.374058306,0.178285101,-0.891647933,-0.614930189,-0.657246966,-0.373063171,0.498580786,-0.273640916,-0.012902901,-0.037469168,-0.397807956,-0.038303159,0.005053958,-0.789041368,-0.337271243,1.833012233,-1.767510188,-1.045049978,-0.012679843,0.113343898,-0.293508032,0.122047138,0.122317273,-0.279381916,0.121743761
1702560116.653467,-0.122853955,0.007846737,-0.055213625,-0.204984812,0.038080329,-0.000000000,0.178489834,0.952040493,-3.585223675,-1.509597659,-0.011509486,0.310756147,0.203073847,-0.743733795,-0.433365750,-0.417571759,0.312858257,0.405652348,-0.149906512,-0.030786040,-0.081830382,-0.207082421,0.041259113,0.005043610,-0.785969678,-0.338397227,1.833148587,-1.770424752,-1.045334936,-0.012672386,0.117430862,-0.291896894,0.122047138,0.122667057,-0.279373489,0.121644883
1702560116.664833,-0.103610900,0.003518699,-0.040822823,-0.167948599,0.035345157,0.000000000,0.224729896,0.911068797,-3.429846287,-1.445861340,0.149733961,0.339578599,0.189659670,-0.711530149,-0.482339635,-0.377227158,0.302050689,0.395725618,-0.167947452,-0.016182967,-0.069763759,-0.171934181,0.037156524,0.005006726,-0.783868976,-0.339101367,1.833209307,-1.774316163,-1.045327479,-0.012672386,0.117430862,-0.291896894,0.122047138,0.122759056,-0.279774661,0.121757140
1702560116.675883,-0.147661800,0.010232893,-0.065724407,-0.246153501,0.040268485,-0.000000000,0.187449217,0.972619772,-3.522020578,-1.347212315,0.127126426,0.322471082,0.209049368,-0.716167921,-0.508398069,-0.451154863,0.308073960,0.396155275,-0.149254242,-0.019466458,-0.080442861,-0.245462050,0.042663878,0.005062611,-0.782210892,-0.340085671,1.833207176,-1.776135634,-1.045301381,-0.012683038,0.117430862,-0.291896894,0.122047138,0.122949369,-0.279835474,0.121629409
1702560116.688667,-0.118322428,0.019940594,-0.108476425,-0.237140392,0.076925058,-0.000000000,0.164790779,1.154195547,-3.510775566,-1.317836165,0.155378073,0.339578599,0.059640669,-0.608822626,-0.502261251,-0.401573470,0.304058237,0.335451545,-0.078382380,-0.020810767,-0.115853458,-0.233694834,0.080053719,0.005044881,-0.780780242,-0.341269713,1.832924881,-1.776897831,-1.044964757,-0.012675582,0.120481104,-0.290651179,0.122047138,0.123311703,-0.279833707,0.121402881
1702560116.699643,-0.121819685,0.016189266,-0.088547893,-0.227817126,0.058352616,-0.000000000,0.173025519,1.072128892,-3.539209127,-1.421433210,0.152364910,0.340746909,-0.035182365,-0.625251988,-0.491542560,-0.403666751,0.293190873,0.347927225,-0.079389169,-0.015014469,-0.090529333,-0.223501389,0.060719437,0.005031857,-0.778645452,-0.342815411,1.832562159,-1.777004890,-1.044935462,-0.012694756,0.120481104,-0.290651179,0.122047138,0.123868781,-0.279560704,0.121040542
1702560116.711097,-0.123816663,0.017991161,-0.105207159,-0.241893481,0.078785186,-0.000000000,-0.086321145,1.120210648,-3.516223669,-1.346720576,0.167283967,0.374102563,-0.005525523,-0.635702013,-0.516319833,-0.400005704,0.250701974,0.355644066,-0.080768528,-0.011759594,-0.106300529,-0.237416203,0.081034904,0.005047849,-0.777673931,-0.343580804,1.832369879,-1.776901559,-1.045153841,-0.012683038,0.120481104,-0.290651179,0.122047138,0.124093059,-0.279371556,0.120855721
1702560116.722344,-0.100843242,0.020133212,-0.118537086,-0.220045587,0.096761330,0.000000000,0.028773716,1.214469075,-3.545220852,-1.283359408,0.122076541,0.299467921,0.170363938,-0.557212647,-0.480408050,-0.363336080,0.306023280,0.309738879,-0.063790471,-0.014965899,-0.124074473,-0.216455241,0.099453091,0.005047849,-0.776469117,-0.344539542,1.832218611,-1.776897831,-1.045135199,-0.012683038,0.123518134,-0.289373590,0.122047138,0.124391612,-0.279182773,0.120611039
1702560116.733520,-0.100557394,0.016783957,-0.104736144,-0.209553140,0.087718557,-0.000000000,0.185763255,1.117146730,-3.481695890,-1.318451762,0.144328222,0.374058306,0.083675258,-0.572045136,-0.472837232,-0.352754479,0.300705779,0.314568495,-0.060340563,-0.020431381,-0.110348193,-0.205829620,0.090567206,0.005072910,-0.775344198,-0.345243682,1.832070539,-1.776779587,-1.045016955,-0.012675582,0.123518134,-0.289373590,0.122047138,0.124721189,-0.279018859,0.120426226
1702560116.745544,-0.091403421,0.016854875,-0.103928135,-0.196633908,0.087783487,0.000000000,0.082395390,1.104026198,-3.487545490,-1.312094092,0.155803755,0.328474373,-0.097076931,-0.579098528,-0.475613801,-0.349434529,0.304069323,0.320122388,-0.046466451,-0.018370390,-0.107135310,-0.192386813,0.090458604,0.005046577,-0.774385460,-0.345695354,1.831792505,-1.776812610,-1.045061163,-0.012679843,0.126541619,-0.288064268,0.122047138,0.125013290,-0.278934597,0.120354280
1702560116.756976,-0.026035703,0.021569593,-0.143822156,-0.135032092,0.148355506,-0.000000000,0.105799675,1.233140826,-3.475984097,-1.254586816,0.166986749,0.379856646,0.238400570,-0.511721445,-0.472384201,-0.276966606,0.331983434,0.283423330,0.024326898,-0.015382753,-0.146218774,-0.130428516,0.151148616,0.005079019,-0.774188386,-0.346397363,1.831559212,-1.776775858,-1.045083534,-0.012683038,0.126541619,-0.288064268,0.122047138,0.125070279,-0.278902007,0.120196259
1702560116.769266,-0.036146382,0.022250113,-0.144566249,-0.149511428,0.144748429,0.000000000,0.249121234,1.173318624,-3.419407368,-1.266252756,0.178489834,0.328070819,0.267129299,-0.514368446,-0.476366586,-0.292639405,0.334628073,0.285459810,0.010467582,-0.015303998,-0.148409949,-0.145296568,0.147601330,0.005033121,-0.773983855,-0.347095111,1.831393564,-1.776794500,-1.045054239,-0.012683038,0.126541619,-0.288064268,0.122047138,0.125115673,-0.278869394,0.120030034
1702560116.780367,0.022987775,0.022932113,-0.163409434,-0.081437742,0.185499263,0.000000000,0.253470123,1.175377250,-3.494498968,-1.283939838,0.195661277,0.379987389,0.325622922,-0.509112680,-0.491599200,-0.222983683,0.374409784,0.282503646,0.071445691,-0.014879177,-0.166817183,-0.077067125,0.188366274,0.005065546,-0.773913015,-0.347411495,1.831300886,-1.776846166,-1.045072349,-0.012690495,0.130551290,-0.286269392,0.122047138,0.125124066,-0.278865225,0.119962335
1702560116.791273,0.019050828,0.021272620,-0.151651457,-0.078653110,0.171788063,0.000000000,0.345284581,1.191579342,-3.448824883,-1.179848671,0.207250670,0.310969204,0.320698460,-0.504967897,-0.475909924,-0.218263828,0.360307919,0.279946329,0.068746041,-0.015060416,-0.153970723,-0.074071619,0.174534199,0.005072935,-0.773837914,-0.347787533,1.830918988,-1.776794500,-1.045097915,-0.012690495,0.130551290,-0.286269392,0.122047138,0.125217632,-0.278912627,0.119923858
1702560116.803467,0.011110054,0.019938170,-0.145130248,-0.084736980,0.164900271,0.000000000,0.322317004,1.231528521,-3.452889204,-1.214373589,0.213624254,0.305868804,0.307437722,-0.501785653,-0.467022703,-0.221845822,0.352270974,0.277242855,0.058310089,-0.017370813,-0.148692951,-0.080451172,0.167731987,0.005047849,-0.773623263,-0.348099656,1.830578104,-1.776779587,-1.044990856,-0.012675582,0.130551290,-0.286269392,0.122047138,0.125367592,-0.278965365,0.119895713
1702560116.816322,0.048677924,0.021452268,-0.164553681,-0.046657042,0.198901611,-0.000000000,0.306355625,1.139453650,-3.430135965,-1.168269634,0.195999488,0.345715940,0.370119834,-0.544578750,-0.522842916,-0.200605559,0.406695283,0.307195210,0.093578182,-0.017228518,-0.169484138,-0.042662236,0.201849614,0.005047849,-0.773010203,-0.348085807,1.830512057,-1.776772130,-1.044931734,-0.012683038,0.133541883,-0.284886591,0.122047138,0.125570915,-0.278915595,0.119910123
1702560116.828069,0.062166302,0.022188496,-0.171420844,-0.033002305,0.210090631,-0.000000000,0.339578599,1.105045557,-3.516167164,-1.168340445,0.247520864,0.368483365,0.341681016,-0.548212803,-0.523981389,-0.185288773,0.415238828,0.303049549,0.112291575,-0.017625118,-0.175309482,-0.028639076,0.213110186,0.005056909,-0.772708201,-0.348090068,1.830398074,-1.776790772,-1.044976475,-0.012687299,0.133541883,-0.284886591,0.122047138,0.125675247,-0.278904383,0.119933088
1702560116.839350,0.058165746,0.022577443,-0.172795905,-0.039452770,0.209998245,0.000000000,0.345476359,1.185700536,-3.504714251,-1.162458181,0.258963436,0.310969204,0.379324313,-0.548119820,-0.517330292,-0.191616889,0.415206072,0.302549383,0.106400580,-0.017434783,-0.177356430,-0.035244287,0.213040344,0.005090606,-0.772739626,-0.348094329,1.830400205,-1.776783315,-1.044957833,-0.012697952,0.133541883,-0.284886591,0.122047138,0.125670095,-0.278908977,0.119930408
1702560116.850698,0.100920144,0.024374280,-0.191849941,0.005769667,0.243106920,0.000000000,0.362959653,1.162515163,-3.522072077,-1.163369417,0.260557085,0.368707985,0.472946824,-0.644438822,-0.601827128,0.195587838,0.485745606,0.358476640,0.149469626,-0.015455381,-0.196224801,0.009993338,0.246132867,0.005047849,-0.772725245,-0.348093264,1.830415118,-1.776787043,-1.045042521,-0.012683038,0.136517832,-0.283472549,0.122047138,0.125652422,-0.278890287,0.119930203
1702560116.861818,0.094246413,0.024365633,-0.190047544,-0.002043855,0.238769613,0.000000000,0.489187032,1.007080078,-3.614143848,-0.760693431,0.328020364,0.323547602,0.467947472,-0.642569514,-0.605677138,0.187531746,0.480637570,0.356187992,0.145516160,-0.015619739,-0.193681572,0.002432289,0.241799560,0.005106293,-0.772666655,-0.348095927,1.830366116,-1.776472258,-1.045016955,-0.012701681,0.136517832,-0.283472549,0.122047138,0.125720179,-0.278840068,0.119911766
1702560116.873306,0.093371315,0.023127509,-0.182460781,0.002110133,0.230953888,0.000000000,0.483706594,1.007096529,-3.562260628,-1.093537450,0.328070819,0.380205214,0.468828323,-0.639690230,-0.594413468,0.190960217,0.471420530,0.355190389,0.148208886,-0.016263546,-0.184733075,0.006900911,0.233924650,0.005056914,-0.772644818,-0.348096460,1.830239882,-1.776287434,-1.044964757,-0.012687299,0.136517832,-0.283472549,0.122047138,0.125791112,-0.278844547,0.119918804
1702560116.885126,0.128524546,0.023560911,-0.191342445,0.044079767,0.251047001,-0.000000000,0.489694476,1.070768952,-3.562260628,-0.776911676,0.316720068,0.328474373,0.566845320,-0.754778760,-0.678681324,0.267664884,0.535872154,0.420695061,0.186241287,-0.015005891,-0.192353949,0.049169976,0.253943241,0.005055218,-0.772581434,-0.348097525,1.829993806,-1.776009933,-1.044957833,-0.012683038,0.139478810,-0.282027420,0.122047138,0.125907220,-0.278851122,0.119941702
1702560116.896362,0.067415366,0.028031874,-0.200828975,-0.046166231,0.236344315,0.000000000,0.552485347,0.903787911,-3.712451696,-0.725303113,0.379987389,0.362594485,0.552859133,-0.739393752,-0.662618704,0.176332272,0.514608337,0.410682546,0.181600257,-0.017501495,-0.188232363,-0.036797823,0.239601763,0.005047849,-0.772199537,-0.348117232,1.829483012,-1.774619230,-1.044891254,-0.012683038,0.139478810,-0.282027420,0.122047138,0.126312432,-0.278684878,0.119915130
1702560116.908846,0.109279486,0.022004011,-0.177924261,0.028148585,0.231030965,0.000000000,0.552455366,1.030099034,-3.634816170,-0.782835424,0.333973497,0.328222215,0.513060790,-0.708954619,-0.637971114,0.217116826,0.498513365,0.395518876,0.155654182,-0.013997325,-0.181284892,0.032430916,0.233767729,0.005019063,-0.771342532,-0.348117765,1.828896051,-1.772278312,-1.044780466,-0.012668125,0.139478810,-0.282027420,0.122047138,0.126981652,-0.278306501,0.119828847
1702560116.920218,0.184337771,0.026606336,-0.219468425,0.102079635,0.296570599,0.000000000,0.489288568,1.012851119,-3.648511887,-0.733588696,0.351463616,0.379856646,0.677281843,-0.889950592,-0.797926011,0.240129772,0.634202471,0.497827306,0.225399505,-0.011290488,-0.225325809,0.105816476,0.299474813,0.005079019,-0.771468766,-0.348119363,1.828861963,-1.772769931,-1.044901906,-0.012672386,0.143402932,-0.280052501,0.122047138,0.126879496,-0.278405618,0.119878494
1702560116.931261,0.173316516,0.028058323,-0.223504708,0.083763676,0.295196295,-0.000000000,0.627504528,0.857630491,-3.803902864,-0.875402212,0.483535409,0.322471082,0.681846410,-0.889210939,-0.801444195,0.347208987,0.631922975,0.496619887,0.231503825,-0.013544802,-0.226006448,0.088678985,0.298335875,0.005065579,-0.771288736,-0.348172094,1.828847582,-1.773025062,-1.044710159,-0.012690495,0.143402932,-0.280052501,0.122047138,0.126941264,-0.278461672,0.119882964
1702560116.942392,0.169070511,0.024947614,-0.201760041,0.093004107,0.270485399,0.000000000,0.690593183,0.840685070,-3.849927425,-0.639191151,0.472029269,0.351039350,0.672974045,-0.886029178,-0.775762622,0.354203970,0.604586637,0.493102454,0.226263781,-0.017425886,-0.204966173,0.097759188,0.273690145,0.005030128,-0.771254647,-0.348286077,1.828606299,-1.772559009,-1.044465681,-0.012683038,0.143402932,-0.280052501,0.122047138,0.127106236,-0.278463242,0.119851851
1702560116.953351,0.217163151,0.028249714,-0.226885688,0.141051042,0.308411336,-0.000000000,0.656671405,0.772872925,-3.810374498,-0.621751964,0.477782339,0.322471082,0.788637152,-1.016332133,-0.892096264,0.432016158,0.637100461,0.572654717,0.268381396,-0.004723719,-0.227325020,0.145979696,0.310893390,0.005069980,-0.771235473,-0.348551328,1.828216945,-1.772607478,-1.044499236,-0.012683038,0.146327718,-0.278535461,0.122047138,0.127184111,-0.278546716,0.119854834
