tud-amr/mobile-manipulator-compliance/recordings/2023-12-14/kinova.csv
__time,/record/cur_comp.0,/record/cur_comp.1,/record/cur_comp.2,/record/cur_comp.3,/record/cur_comp.4,/record/cur_comp.5,/record/cur_fb.0,/record/cur_fb.1,/record/cur_fb.2,/record/cur_fb.3,/record/cur_fb.4,/record/cur_fb.5,/record/cur_fric.0,/record/cur_fric.1,/record/cur_fric.2,/record/cur_fric.3,/record/cur_fric.4,/record/cur_fric.5,/record/cur_null.0,/record/cur_null.1,/record/cur_null.2,/record/cur_null.3,/record/cur_null.4,/record/cur_null.5,/record/pos_q.0,/record/pos_q.1,/record/pos_q.2,/record/pos_q.3,/record/pos_q.4,/record/pos_q.5,/record/pos_t.0,/record/pos_t.1,/record/pos_t.2,/record/pos_x.0,/record/pos_x.1,/record/pos_x.2
1702559781.837676,0.000000000,0.000000000,0.000000000,0.000000000,0.000000000,0.000000000,0.610979259,2.597455502,-4.609261990,4.081736088,-0.414381474,0.656444430,0.000000000,0.000000000,0.000000000,0.000000000,0.000000000,0.000000000,0.000000000,0.000000000,0.000000000,0.000000000,0.000000000,0.000000000,0.870918391,-0.425536391,1.918231257,-0.515177328,-1.060015878,-0.122568261,0.083826997,0.303029336,0.122095200,0.051061798,0.309112413,0.122301123
1702559781.848537,0.000000000,0.000000000,0.000000000,0.000000000,0.000000000,0.000000000,0.795487881,2.523755074,-4.486965656,3.375597477,-0.420096248,0.840507746,0.000000000,0.000000000,0.000000000,0.000000000,0.000000000,0.000000000,0.000000000,0.000000000,0.000000000,0.000000000,0.000000000,0.000000000,0.868817690,-0.425185919,1.916132686,-0.517785095,-1.060119209,-0.122153873,0.086995658,0.302134902,0.122095200,0.052348394,0.309121629,0.122413190
1702559781.859318,0.000000000,0.000000000,0.000000000,0.000000000,0.000000000,0.000000000,0.916504920,2.613895416,-4.540288448,2.837794542,-0.374102563,0.736809433,0.000000000,0.000000000,0.000000000,0.000000000,0.000000000,0.000000000,0.000000000,0.000000000,0.000000000,0.000000000,0.000000000,0.000000000,0.867152681,-0.424790705,1.914572607,-0.520363035,-1.060174603,-0.121514182,0.086995658,0.302134902,0.122095200,0.053383901,0.309010117,0.122453554
1702559781.870281,0.000000000,0.000000000,0.000000000,0.000000000,0.000000000,0.000000000,0.874891341,2.545373201,-4.663061142,3.489671946,-0.466169715,0.065614171,0.000000000,0.000000000,0.000000000,0.000000000,0.000000000,0.000000000,0.000000000,0.000000000,0.000000000,0.000000000,0.000000000,0.000000000,0.865694601,-0.424415200,1.913070584,-0.523854972,-1.060237453,-0.119990321,0.086995658,0.302134902,0.122095200,0.054383908,0.308710303,0.122370261
1702559781.881390,0.000000000,0.000000000,0.000000000,0.000000000,0.000000000,0.000000000,0.576882482,2.488206148,-4.678606033,3.748476505,-0.379987389,0.495442957,0.000000000,0.000000000,0.000000000,0.000000000,0.000000000,0.000000000,0.000000000,0.000000000,0.000000000,0.000000000,0.000000000,0.000000000,0.864241314,-0.423996551,1.911403445,-0.526725327,-1.060440919,-0.119279789,0.090154780,0.301207336,0.122095200,0.055367183,0.308569013,0.122416491
1702559781.892191,0.000000000,0.000000000,0.000000000,0.000000000,0.000000000,0.000000000,0.971733987,2.543323040,-4.451970100,3.740963936,-0.471924037,0.690952718,0.000000000,0.000000000,0.000000000,0.000000000,0.000000000,0.000000000,0.000000000,0.000000000,0.000000000,0.000000000,0.000000000,0.000000000,0.862569115,-0.423666319,1.909728317,-0.529658000,-1.060282194,-0.119050758,0.090154780,0.301207336,0.122095200,0.056497403,0.308427006,0.122393246
1702559781.903037,0.000000000,0.000000000,0.000000000,0.000000000,0.000000000,0.000000000,0.852654099,2.486155748,-4.823055267,3.170994282,-0.431605756,0.777231276,0.000000000,0.000000000,0.000000000,0.000000000,0.000000000,0.000000000,0.000000000,0.000000000,0.000000000,0.000000000,0.000000000,0.000000000,0.860538987,-0.423124099,1.908292340,-0.532632218,-1.060400439,-0.118965536,0.090154780,0.301207336,0.122095200,0.057639125,0.308180926,0.122416939
1702559781.914519,0.000000000,0.000000000,0.000000000,0.000000000,0.000000000,0.000000000,0.558328748,2.501063347,-4.471883774,2.768892765,-0.506548226,0.851721406,0.000000000,0.000000000,0.000000000,0.000000000,0.000000000,0.000000000,0.000000000,0.000000000,0.000000000,0.000000000,0.000000000,0.000000000,0.859234305,-0.422774693,1.906520273,-0.535032791,-1.060333860,-0.118858477,0.093304015,0.300246739,0.122095200,0.058638186,0.308180319,0.122491107
1702559781.925532,0.000000000,0.000000000,0.000000000,0.000000000,0.000000000,0.000000000,0.803400040,2.360819817,-4.171426773,3.058633804,-0.506417394,0.932428241,0.000000000,0.000000000,0.000000000,0.000000000,0.000000000,0.000000000,0.000000000,0.000000000,0.000000000,0.000000000,0.000000000,0.000000000,0.856860895,-0.422326216,1.904660854,-0.537422180,-1.060396710,-0.118717862,0.093304015,0.300246739,0.122095200,0.059968401,0.308138762,0.122622686
1702559781.937658,0.000000000,0.000000000,0.000000000,0.000000000,0.000000000,0.000000000,0.696347713,2.470957041,-4.656896114,2.872447014,-0.489153177,0.949550092,0.000000000,0.000000000,0.000000000,0.000000000,0.000000000,0.000000000,0.000000000,0.000000000,0.000000000,0.000000000,0.000000000,0.000000000,0.855344492,-0.422096119,1.903589730,-0.539623016,-1.060422809,-0.118543692,0.093304015,0.300246739,0.122095200,0.060822984,0.307941533,0.122590507
1702559781.948539,0.000000000,0.000000000,0.000000000,0.000000000,0.000000000,0.000000000,0.748669744,2.388911724,-4.334181309,2.734236002,-0.529561460,0.886249185,0.000000000,0.000000000,0.000000000,0.000000000,0.000000000,0.000000000,0.000000000,0.000000000,0.000000000,0.000000000,0.000000000,0.000000000,0.853126877,-0.421672144,1.901654677,-0.542763415,-1.060474474,-0.118248081,0.097487019,0.298914745,0.122095200,0.062165294,0.307776484,0.122637419
1702559781.959657,0.000000000,0.000000000,0.000000000,0.000000000,0.000000000,0.000000000,0.397244036,2.545886993,-4.330152988,3.074088812,-0.546821713,0.909322321,0.000000000,0.000000000,0.000000000,0.000000000,0.000000000,0.000000000,0.000000000,0.000000000,0.000000000,0.000000000,0.000000000,0.000000000,0.851216059,-0.421418078,1.900247463,-0.546177055,-1.060500573,-0.118029702,0.097487019,0.298914745,0.122095200,0.063290669,0.307411139,0.122520046
1702559781.970453,0.000000000,0.000000000,0.000000000,0.000000000,0.000000000,0.000000000,0.513753891,2.348788500,-4.339625835,2.989155769,-0.569719553,0.926674545,0.000000000,0.000000000,0.000000000,0.000000000,0.000000000,0.000000000,0.000000000,0.000000000,0.000000000,0.000000000,0.000000000,0.000000000,0.849122548,-0.420893436,1.898969146,-0.547960308,-1.060526140,-0.117674436,0.097487019,0.298914745,0.122095200,0.064379337,0.307336920,0.122653689
1702559781.981428,0.000000000,0.000000000,0.000000000,0.000000000,0.000000000,0.000000000,0.840507746,2.326518297,-4.347025871,2.739989042,-0.575589418,0.167778164,0.000000000,0.000000000,0.000000000,0.000000000,0.000000000,0.000000000,0.000000000,0.000000000,0.000000000,0.000000000,0.000000000,0.000000000,0.846834360,-0.420578650,1.897681774,-0.550153687,-1.060459561,-0.116650184,0.100611844,0.297877492,0.122095200,0.065555681,0.307158580,0.122672951
1702559781.992454,0.000000000,0.000000000,0.000000000,0.000000000,0.000000000,0.000000000,0.811418772,2.361976862,-4.391005039,3.459194183,-0.598520935,0.368348539,0.000000000,0.000000000,0.000000000,0.000000000,0.000000000,0.000000000,0.000000000,0.000000000,0.000000000,0.000000000,0.000000000,0.000000000,0.844741116,-0.420215927,1.896396532,-0.552354524,-1.060430266,-0.115492774,0.100611844,0.297877492,0.122095200,0.066668354,0.306988746,0.122708846
1702559782.003641,0.000000000,0.000000000,0.000000000,0.000000000,0.000000000,0.000000000,0.957019150,2.527125120,-4.467815876,2.838582039,-0.592766464,0.518438160,0.000000000,0.000000000,0.000000000,0.000000000,0.000000000,0.000000000,0.000000000,0.000000000,0.000000000,0.000000000,0.000000000,0.000000000,0.842087808,-0.420033767,1.895561365,-0.554743912,-1.060496312,-0.115377726,0.100611844,0.297877492,0.122095200,0.067814956,0.306590234,0.122611457
1702559782.014560,0.000000000,0.000000000,0.000000000,0.000000000,0.000000000,0.000000000,0.644556940,2.578150511,-4.391110420,3.310978413,-0.513334692,0.489457756,0.000000000,0.000000000,0.000000000,0.000000000,0.000000000,0.000000000,0.000000000,0.000000000,0.000000000,0.000000000,0.000000000,0.000000000,0.840673403,-0.420000744,1.894332050,-0.557495490,-1.060803641,-0.115318604,0.103725636,0.296807574,0.122095200,0.068633979,0.306278724,0.122518437
1702559782.025341,0.000000000,0.000000000,0.000000000,0.000000000,0.000000000,0.000000000,0.629901290,2.791643620,-4.470754147,2.767606735,-0.690952718,0.564229012,0.000000000,0.000000000,0.000000000,0.000000000,0.000000000,0.000000000,0.000000000,0.000000000,0.000000000,0.000000000,0.000000000,0.000000000,0.838441408,-0.419818584,1.893402606,-0.559507774,-1.060644384,-0.115292505,0.103725636,0.296807574,0.122095200,0.069706207,0.306022668,0.122458884
1702559782.036614,0.000000000,0.000000000,0.000000000,0.000000000,0.000000000,0.000000000,0.403489143,2.670423985,-4.423241615,2.971058607,-0.535314858,0.610979259,0.000000000,0.000000000,0.000000000,0.000000000,0.000000000,0.000000000,0.000000000,0.000000000,0.000000000,0.000000000,0.000000000,0.000000000,0.836289574,-0.419614586,1.892311776,-0.561638303,-1.060725877,-0.115252025,0.103725636,0.296807574,0.122095200,0.070749076,0.305772462,0.122442591
1702559782.047802,0.000000000,0.000000000,0.000000000,0.000000000,0.000000000,0.000000000,0.333030134,2.791341066,-4.294091702,2.551558733,-0.645173192,0.610247016,0.000000000,0.000000000,0.000000000,0.000000000,0.000000000,0.000000000,0.000000000,0.000000000,0.000000000,0.000000000,0.000000000,0.000000000,0.834103651,-0.419337084,1.890941313,-0.563465764,-1.060659298,-0.115248296,0.106828054,0.295705107,0.122095200,0.071896676,0.305673309,0.122512910
1702559782.058619,0.000000000,0.000000000,0.000000000,0.000000000,0.000000000,0.000000000,0.432563812,2.740442276,-4.095263004,2.509602547,-0.627293408,0.506548226,0.000000000,0.000000000,0.000000000,0.000000000,0.000000000,0.000000000,0.000000000,0.000000000,0.000000000,0.000000000,0.000000000,0.000000000,0.831547549,-0.419024429,1.889683236,-0.565703352,-1.060696582,-0.115255753,0.106828054,0.295705107,0.122095200,0.073130741,0.305426638,0.122537201
1702559782.069497,0.000000000,0.000000000,0.000000000,0.000000000,0.000000000,0.000000000,0.425850987,2.670423985,-4.465814114,3.033099174,-0.684911191,0.472204655,0.000000000,0.000000000,0.000000000,0.000000000,0.000000000,0.000000000,0.000000000,0.000000000,0.000000000,0.000000000,0.000000000,0.000000000,0.829551510,-0.418598856,1.888962584,-0.567752921,-1.060666755,-0.115263210,0.106828054,0.295705107,0.122095200,0.074072083,0.305120667,0.122522206
1702559782.081073,0.000000000,0.000000000,0.000000000,0.000000000,0.000000000,0.000000000,0.695253015,2.455016851,-4.263829708,2.347998619,-0.633126378,0.500695705,0.000000000,0.000000000,0.000000000,0.000000000,0.000000000,0.000000000,0.000000000,0.000000000,0.000000000,0.000000000,0.000000000,0.000000000,0.827511795,-0.418133868,1.888127417,-0.569339100,-1.060655569,-0.115266938,0.110946329,0.294184731,0.122095200,0.075030683,0.304933131,0.122594293
1702559782.092002,0.000000000,0.000000000,0.000000000,0.000000000,0.000000000,0.000000000,0.716390431,2.397953987,-4.195775986,2.820299864,-0.610436976,0.425889909,0.000000000,0.000000000,0.000000000,0.000000000,0.000000000,0.000000000,0.000000000,0.000000000,0.000000000,0.000000000,0.000000000,0.000000000,0.824848634,-0.417613486,1.886981192,-0.571832351,-1.060888330,-0.115281852,0.110946329,0.294184731,0.122095200,0.076256312,0.304588612,0.122648918
1702559782.102851,0.000000000,0.000000000,0.000000000,0.000000000,0.000000000,0.000000000,0.707365394,2.474539518,-4.242967129,2.198500156,-0.673526227,0.380509973,0.000000000,0.000000000,0.000000000,0.000000000,0.000000000,0.000000000,0.000000000,0.000000000,0.000000000,0.000000000,0.000000000,0.000000000,0.822292798,-0.417323202,1.886257878,-0.573293362,-1.060692321,-0.115299961,0.110946329,0.294184731,0.122095200,0.077364378,0.304349197,0.122651971
1702559782.114421,0.000000000,0.000000000,0.000000000,0.000000000,0.000000000,0.000000000,0.779953539,2.573013783,-4.168722630,2.533460140,-0.610247016,0.374102563,0.000000000,0.000000000,0.000000000,0.000000000,0.000000000,0.000000000,0.000000000,0.000000000,0.000000000,0.000000000,0.000000000,0.000000000,0.820089831,-0.417165010,1.885479170,-0.574580734,-1.060877677,-0.115307418,0.114020884,0.293006794,0.122095200,0.078273266,0.304139132,0.122687129
1702559782.125314,0.000000000,0.000000000,0.000000000,0.000000000,0.000000000,0.000000000,0.876082897,2.677000999,-3.938872814,2.239194155,-0.725097656,0.293548316,0.000000000,0.000000000,0.000000000,0.000000000,0.000000000,0.000000000,0.000000000,0.000000000,0.000000000,0.000000000,0.000000000,0.000000000,0.817200568,-0.416963675,1.884386208,-0.576814593,-1.060655569,-0.115332985,0.114020884,0.293006794,0.122095200,0.079616601,0.303811564,0.122631845
1702559782.136253,0.000000000,0.000000000,0.000000000,0.000000000,0.000000000,0.000000000,0.651202023,2.465207338,-4.266376972,2.488053083,-0.644531250,0.305055678,0.000000000,0.000000000,0.000000000,0.000000000,0.000000000,0.000000000,0.000000000,0.000000000,0.000000000,0.000000000,0.000000000,0.000000000,0.814810114,-0.416449152,1.883682601,-0.578838063,-1.060921886,-0.115340442,0.114020884,0.293006794,0.122095200,0.080612484,0.303440214,0.122674248
1702559782.147846,0.000000000,0.000000000,0.000000000,0.000000000,0.000000000,0.000000000,0.690593183,2.545060873,-4.110497952,2.078609705,-0.673526227,0.299301982,0.000000000,0.000000000,0.000000000,0.000000000,0.000000000,0.000000000,0.000000000,0.000000000,0.000000000,0.000000000,0.000000000,0.000000000,0.812234838,-0.416137562,1.883040247,-0.580461526,-1.060759433,-0.115347898,0.117082936,0.291796727,0.122095200,0.081707378,0.303130443,0.122655777
1702559782.158873,0.000000000,0.000000000,0.000000000,0.000000000,0.000000000,0.000000000,0.379856646,2.430709839,-4.259385109,2.576975107,-0.685418665,0.271450698,0.000000000,0.000000000,0.000000000,0.000000000,0.000000000,0.000000000,0.000000000,0.000000000,0.000000000,0.000000000,0.000000000,0.000000000,0.810004973,-0.415729034,1.882178448,-0.582536661,-1.060825479,-0.115359616,0.117082936,0.291796727,0.122095200,0.082734246,0.302806630,0.122669401
1702559782.169928,0.000000000,0.000000000,0.000000000,0.000000000,0.000000000,0.000000000,0.759713292,2.498512983,-4.185126781,2.112374783,-0.673304975,0.264718175,0.000000000,0.000000000,0.000000000,0.000000000,0.000000000,0.000000000,0.000000000,0.000000000,0.000000000,0.000000000,0.000000000,0.000000000,0.807127694,-0.415550069,1.881301735,-0.584175570,-1.060733334,-0.115366541,0.117082936,0.291796727,0.122095200,0.083954751,0.302508200,0.122658605
1702559782.181044,0.000000000,0.000000000,0.000000000,0.000000000,0.000000000,0.000000000,0.456949800,2.558240652,-3.959681749,2.222232819,-0.696347713,0.174170136,0.000000000,0.000000000,0.000000000,0.000000000,0.000000000,0.000000000,0.000000000,0.000000000,0.000000000,0.000000000,0.000000000,0.000000000,0.804328445,-0.415330625,1.880350454,-0.585773467,-1.060929342,-0.115392640,0.120132149,0.290554660,0.122095200,0.085106611,0.302219951,0.122704876
1702559782.192077,0.000000000,0.000000000,0.000000000,0.000000000,0.000000000,0.000000000,0.513334692,2.532616615,-3.990232944,2.348950386,-0.719550073,0.121396437,0.000000000,0.000000000,0.000000000,0.000000000,0.000000000,0.000000000,0.000000000,0.000000000,0.000000000,0.000000000,0.000000000,0.000000000,0.801903903,-0.414989740,1.879687860,-0.588048339,-1.060762629,-0.115422467,0.120132149,0.290554660,0.122095200,0.086197304,0.301789521,0.122622076
1702559782.202927,0.000000000,0.000000000,0.000000000,0.000000000,0.000000000,0.000000000,0.402873129,2.482723236,-4.120593071,2.343671799,-0.650311470,0.069056921,0.000000000,0.000000000,0.000000000,0.000000000,0.000000000,0.000000000,0.000000000,0.000000000,0.000000000,0.000000000,0.000000000,0.000000000,0.799241008,-0.414750056,1.878892107,-0.589764480,-1.060947985,-0.115462947,0.120132149,0.290554660,0.122095200,0.087276704,0.301442818,0.122634136
1702559782.214589,0.000000000,0.000000000,0.000000000,0.000000000,0.000000000,0.000000000,0.546821713,2.483236790,-4.161001682,2.061170340,-0.736809433,-0.011509486,0.000000000,0.000000000,0.000000000,0.000000000,0.000000000,0.000000000,0.000000000,0.000000000,0.000000000,0.000000000,0.000000000,0.000000000,0.796977055,-0.414445923,1.878622062,-0.591536015,-1.060803641,-0.115481056,0.124177216,0.288849031,0.122095200,0.088180423,0.301007702,0.122539382
1702559782.225447,0.000000000,0.000000000,0.000000000,0.000000000,0.000000000,0.000000000,0.203460902,2.463137627,-4.103814125,2.112272978,-0.679279149,-0.052111421,0.000000000,0.000000000,0.000000000,0.000000000,0.000000000,0.000000000,0.000000000,0.000000000,0.000000000,0.000000000,0.000000000,0.000000000,0.794547720,-0.414099179,1.878039895,-0.592837768,-1.060992193,-0.115510884,0.124177216,0.288849031,0.122095200,0.089118790,0.300708121,0.122595765
1702559782.237278,0.000000000,0.000000000,0.000000000,0.000000000,0.000000000,0.000000000,0.219360664,2.607209921,-4.143610954,1.996331930,-0.759626091,-0.144328222,0.000000000,0.000000000,0.000000000,0.000000000,0.000000000,0.000000000,0.000000000,0.000000000,0.000000000,0.000000000,0.000000000,0.000000000,0.791799604,-0.413926606,1.877453467,-0.593940317,-1.060862763,-0.115540711,0.124177216,0.288849031,0.122095200,0.090201096,0.300428126,0.122597463
1702559782.248388,0.000000000,0.000000000,0.000000000,0.000000000,0.000000000,0.000000000,0.115238644,2.453471899,-3.942204952,1.894018769,-0.679936945,-0.218982920,0.000000000,0.000000000,0.000000000,0.000000000,0.000000000,0.000000000,0.000000000,0.000000000,0.000000000,0.000000000,0.000000000,0.000000000,0.789114605,-0.413568677,1.876599125,-0.595353390,-1.060870220,-0.115611019,0.127195172,0.287532836,0.122095200,0.091335464,0.300165779,0.122671598
1702559782.259254,0.000000000,0.000000000,0.000000000,0.000000000,0.000000000,0.000000000,0.075032666,2.394664764,-3.999749660,1.703491449,-0.661820471,-0.356979668,0.000000000,0.000000000,0.000000000,0.000000000,0.000000000,0.000000000,0.000000000,0.000000000,0.000000000,0.000000000,0.000000000,0.000000000,0.786330003,-0.413187845,1.875885931,-0.596329705,-1.060925614,-0.115691979,0.127195172,0.287532836,0.122095200,0.092430440,0.299936645,0.122785252
1702559782.270085,0.000000000,0.000000000,0.000000000,0.000000000,0.000000000,0.000000000,0.152364910,2.422917843,-3.919402599,1.980835676,-0.731056273,-0.466276288,0.000000000,0.000000000,0.000000000,0.000000000,0.000000000,0.000000000,0.000000000,0.000000000,0.000000000,0.000000000,0.000000000,0.000000000,0.783430620,-0.412949759,1.875219075,-0.598223745,-1.060914429,-0.115795842,0.127195172,0.287532836,0.122095200,0.093596940,0.299493333,0.122737467
1702559782.281324,0.000000000,0.000000000,0.000000000,0.000000000,0.000000000,0.000000000,-0.024415307,2.405544758,-3.562204599,1.513891220,-0.696419001,-0.581485450,0.000000000,0.000000000,0.000000000,0.000000000,0.000000000,0.000000000,0.000000000,0.000000000,0.000000000,0.000000000,0.000000000,0.000000000,0.780948021,-0.412915670,1.873980173,-0.599573435,-1.060900048,-0.115892249,0.130199179,0.286185110,0.122095200,0.094746570,0.299327213,0.122791806
1702559782.292171,0.000000000,0.000000000,0.000000000,0.000000000,0.000000000,0.000000000,0.342636853,2.538944244,-3.688857794,2.050756693,-0.736629605,-0.656066000,0.000000000,0.000000000,0.000000000,0.000000000,0.000000000,0.000000000,0.000000000,0.000000000,0.000000000,0.000000000,0.000000000,0.000000000,0.777941579,-0.412679181,1.873721846,-0.601112742,-1.060859035,-0.115998775,0.130199179,0.286185110,0.122095200,0.095822893,0.298829473,0.122715529
1702559782.302994,0.000000000,0.000000000,0.000000000,0.000000000,0.000000000,0.000000000,0.607554793,2.469113350,-3.683682919,2.072674513,-0.736629605,-0.690665066,0.000000000,0.000000000,0.000000000,0.000000000,0.000000000,0.000000000,0.000000000,0.000000000,0.000000000,0.000000000,0.000000000,0.000000000,0.774828343,-0.412391560,1.873273902,-0.602846993,-1.060855307,-0.116136194,0.130199179,0.286185110,0.122095200,0.096986237,0.298330651,0.122665820
1702559782.313991,0.000000000,0.000000000,0.000000000,0.000000000,0.000000000,0.000000000,0.115811966,2.222232819,-3.924751759,1.605944633,-0.673304975,-0.759713292,0.000000000,0.000000000,0.000000000,0.000000000,0.000000000,0.000000000,0.000000000,0.000000000,0.000000000,0.000000000,0.000000000,0.000000000,0.772596082,-0.412014456,1.872957519,-0.604045415,-1.060969822,-0.116354573,0.130199179,0.286185110,0.122095200,0.097803676,0.297983188,0.122693453
1702559782.324955,0.000000000,0.000000000,0.000000000,0.000000000,0.000000000,0.000000000,0.420450836,2.463272095,-3.971710920,1.512129188,-0.730875075,-0.702290893,0.000000000,0.000000000,0.000000000,0.000000000,0.000000000,0.000000000,0.000000000,0.000000000,0.000000000,0.000000000,0.000000000,0.000000000,0.769295360,-0.411979835,1.872692268,-0.604859277,-1.060755172,-0.116650184,0.134182256,0.284339350,0.122095200,0.098951562,0.297587263,0.122631461
1702559782.335786,0.000000000,0.000000000,0.000000000,0.000000000,0.000000000,0.000000000,-0.020749021,2.440343618,-3.672986984,1.889274359,-0.730875075,-0.460379452,0.000000000,0.000000000,0.000000000,0.000000000,0.000000000,0.000000000,0.000000000,0.000000000,0.000000000,0.000000000,0.000000000,0.000000000,0.766780803,-0.411957997,1.871835263,-0.606431608,-1.060870220,-0.117393739,0.134182256,0.284339350,0.122095200,0.099985543,0.297244330,0.122606622
1702559782.346617,0.000000000,0.000000000,0.000000000,0.000000000,0.000000000,0.000000000,0.051471990,2.670256615,-3.798287630,1.432942629,-0.684911191,0.322265625,0.000000000,0.000000000,0.000000000,0.000000000,0.000000000,0.000000000,0.000000000,0.000000000,0.000000000,0.000000000,0.000000000,0.000000000,0.764517116,-0.411904734,1.871453365,-0.607481958,-1.060933071,-0.119176459,0.134182256,0.284339350,0.122095200,0.100804108,0.296909095,0.122567951
1702559782.357429,0.000000000,0.000000000,0.000000000,0.000000000,0.000000000,0.000000000,0.139188677,2.537580729,-4.005301476,0.846905768,-0.656141639,-0.299301982,0.000000000,0.000000000,0.000000000,0.000000000,0.000000000,0.000000000,0.000000000,0.000000000,0.000000000,0.000000000,0.000000000,0.000000000,0.761522924,-0.411616580,1.871375601,-0.607954936,-1.060818022,-0.119557291,0.137152439,0.282918632,0.122095200,0.101788837,0.296565428,0.122594981
1702559782.368522,0.000000000,0.000000000,0.000000000,0.000000000,0.000000000,0.000000000,-0.256909162,2.261877775,-4.094357014,1.280465961,-0.702173054,-0.471888959,0.000000000,0.000000000,0.000000000,0.000000000,0.000000000,0.000000000,0.000000000,0.000000000,0.000000000,0.000000000,0.000000000,0.000000000,0.758706631,-0.411090872,1.871233921,-0.609057484,-1.060840393,-0.119779398,0.137152439,0.282918632,0.122095200,0.102756869,0.296138220,0.122638133
1702559782.379491,0.000000000,0.000000000,0.000000000,0.000000000,0.000000000,0.000000000,-0.187449217,2.281499863,-4.155067921,1.588976145,-0.656066000,-0.633126378,0.000000000,0.000000000,0.000000000,0.000000000,0.000000000,0.000000000,0.000000000,0.000000000,0.000000000,0.000000000,0.000000000,0.000000000,0.756106854,-0.410832013,1.870954289,-0.610784811,-1.060906972,-0.119872076,0.137152439,0.282918632,0.122095200,0.103694080,0.295617016,0.122561322
1702559782.390360,0.000000000,0.000000000,0.000000000,0.000000000,0.000000000,0.000000000,0.294618130,2.238957644,-4.149205685,1.513508320,-0.673403323,-0.598603964,0.000000000,0.000000000,0.000000000,0.000000000,0.000000000,0.000000000,0.000000000,0.000000000,0.000000000,0.000000000,0.000000000,0.000000000,0.752642880,-0.410615764,1.870559609,-0.611953938,-1.060966094,-0.120020148,0.140107582,0.281466888,0.122095200,0.104887682,0.295139703,0.122556417
1702559782.401309,0.000000000,0.000000000,0.000000000,0.000000000,0.000000000,0.000000000,-0.301232100,2.342244148,-3.804864645,1.532588720,-0.662020624,-0.696918190,0.000000000,0.000000000,0.000000000,0.000000000,0.000000000,0.000000000,0.000000000,0.000000000,0.000000000,0.000000000,0.000000000,0.000000000,0.750552032,-0.410452779,1.869970517,-0.613525736,-1.060796184,-0.120153306,0.140107582,0.281466888,0.122095200,0.105796389,0.294785925,0.122501095
1702559782.412053,0.000000000,0.000000000,0.000000000,0.000000000,0.000000000,0.000000000,0.221389398,2.424960136,-3.493930340,1.450606227,-0.650387824,-0.759713292,0.000000000,0.000000000,0.000000000,0.000000000,0.000000000,0.000000000,0.000000000,0.000000000,0.000000000,0.000000000,0.000000000,0.000000000,0.747214825,-0.410336665,1.868911644,-0.614990475,-1.060958637,-0.120300845,0.140107582,0.281466888,0.122095200,0.107115061,0.294409934,0.122554703
1702559782.422845,0.000000000,0.000000000,0.000000000,0.000000000,0.000000000,0.000000000,-0.071182244,2.422808409,-3.602929115,0.805684626,-0.627504528,-0.690665066,0.000000000,0.000000000,0.000000000,0.000000000,0.000000000,0.000000000,0.000000000,0.000000000,0.000000000,0.000000000,0.000000000,0.000000000,0.744393472,-0.410281271,1.868469027,-0.615508193,-1.060885134,-0.120533606,0.143047360,0.279984279,0.122095200,0.108114697,0.294126918,0.122577075
1702559782.433988,0.000000000,0.000000000,0.000000000,0.000000000,0.000000000,0.000000000,-0.367673606,2.413461208,-3.539634943,1.624530435,-0.661895514,-0.696347713,0.000000000,0.000000000,0.000000000,0.000000000,0.000000000,0.000000000,0.000000000,0.000000000,0.000000000,0.000000000,0.000000000,0.000000000,0.741545488,-0.410110829,1.867984332,-0.616999031,-1.060755172,-0.120741332,0.143047360,0.279984279,0.122095200,0.109202434,0.293668731,0.122520394
1702559782.444981,0.000000000,0.000000000,0.000000000,0.000000000,0.000000000,0.000000000,-0.087085068,2.361717463,-3.167639732,0.966865361,-0.615757525,-0.472765386,0.000000000,0.000000000,0.000000000,0.000000000,0.000000000,0.000000000,0.000000000,0.000000000,0.000000000,0.000000000,0.000000000,0.000000000,0.738271397,-0.409813620,1.867015474,-0.618448856,-1.060832936,-0.121218571,0.143047360,0.279984279,0.122095200,0.110509988,0.293286269,0.122604294
1702559782.455994,0.000000000,0.000000000,0.000000000,0.000000000,0.000000000,0.000000000,-0.030990241,2.376715899,-3.498883963,0.777082086,-0.662195683,-0.067111261,0.000000000,0.000000000,0.000000000,0.000000000,0.000000000,0.000000000,0.000000000,0.000000000,0.000000000,0.000000000,0.000000000,0.000000000,0.735238590,-0.409745443,1.866696960,-0.618999597,-1.060807370,-0.122301945,0.146942607,0.277959734,0.122095200,0.111525757,0.292928277,0.122610451
1702559782.466991,0.000000000,0.000000000,0.000000000,0.000000000,0.000000000,0.000000000,0.167778164,2.647488356,-3.510864973,0.823250175,-0.673526227,-0.288254619,0.000000000,0.000000000,0.000000000,0.000000000,0.000000000,0.000000000,0.000000000,0.000000000,0.000000000,0.000000000,0.000000000,0.000000000,0.732042264,-0.409717746,1.866397620,-0.619743152,-1.060747715,-0.122942169,0.146942607,0.277959734,0.122095200,0.112596110,0.292504383,0.122576671
1702559782.477993,0.000000000,0.000000000,0.000000000,0.000000000,0.000000000,0.000000000,0.057834450,2.710703850,-3.448171854,1.394976377,-0.604494631,-0.380205214,0.000000000,0.000000000,0.000000000,0.000000000,0.000000000,0.000000000,0.000000000,0.000000000,0.000000000,0.000000000,0.000000000,0.000000000,0.729053132,-0.409683658,1.865900675,-0.621844386,-1.060895787,-0.123085979,0.146942607,0.277959734,0.122095200,0.113674126,0.291865532,0.122439582
1702559782.488783,0.000000000,0.000000000,0.000000000,0.000000000,0.000000000,0.000000000,-0.097999744,2.704735518,-3.539171696,0.874720991,-0.586983800,-0.420726418,0.000000000,0.000000000,0.000000000,0.000000000,0.000000000,0.000000000,0.000000000,0.000000000,0.000000000,0.000000000,0.000000000,0.000000000,0.725959337,-0.409655961,1.865552866,-0.622994339,-1.060880873,-0.123178657,0.149845285,0.276405742,0.122095200,0.114732942,0.291373789,0.122371250
1702559782.499661,0.000000000,0.000000000,0.000000000,0.000000000,0.000000000,0.000000000,-0.178767934,2.860940933,-3.579565763,0.529561460,-0.592850268,-0.483535409,0.000000000,0.000000000,0.000000000,0.000000000,0.000000000,0.000000000,0.000000000,0.000000000,0.000000000,0.000000000,0.000000000,0.000000000,0.723471679,-0.409585654,1.865379760,-0.623438554,-1.060737062,-0.123226594,0.149845285,0.276405742,0.122095200,0.115566556,0.291057782,0.122355509
1702559782.510494,0.000000000,0.000000000,0.000000000,0.000000000,0.000000000,0.000000000,-0.024415307,2.701427460,-3.304505587,1.134618759,-0.621512294,-0.587011993,0.000000000,0.000000000,0.000000000,0.000000000,0.000000000,0.000000000,0.000000000,0.000000000,0.000000000,0.000000000,0.000000000,0.000000000,0.720163500,-0.409287379,1.864851922,-0.624788777,-1.060751976,-0.123267074,0.149845285,0.276405742,0.122095200,0.116762473,0.290558768,0.122372808
1702559782.521450,0.000000000,0.000000000,0.000000000,0.000000000,0.000000000,0.000000000,-0.016276872,2.470789671,-3.257433653,0.748669744,-0.564229012,-0.506417394,0.000000000,0.000000000,0.000000000,0.000000000,0.000000000,0.000000000,0.000000000,0.000000000,0.000000000,0.000000000,0.000000000,0.000000000,0.717225501,-0.408821326,1.864230873,-0.626016494,-1.060799913,-0.123344839,0.152731530,0.274821439,0.122095200,0.117878003,0.290157354,0.122470055
1702559782.532485,0.000000000,0.000000000,0.000000000,0.000000000,0.000000000,0.000000000,-0.397743940,2.452195883,-3.475984097,0.317346841,-0.575503111,-0.633440137,0.000000000,0.000000000,0.000000000,0.000000000,0.000000000,0.000000000,0.000000000,0.000000000,0.000000000,0.000000000,0.000000000,0.000000000,0.714501619,-0.408501214,1.864075344,-0.626430882,-1.060740791,-0.123370937,0.152731530,0.274821439,0.122095200,0.118773648,0.289820253,0.122532585
1702559782.543362,0.000000000,0.000000000,0.000000000,0.000000000,0.000000000,0.000000000,-0.251370996,2.556039095,-3.451704502,0.426472694,-0.621938407,-0.661820471,0.000000000,0.000000000,0.000000000,0.000000000,0.000000000,0.000000000,0.000000000,0.000000000,0.000000000,0.000000000,0.000000000,0.000000000,0.711130057,-0.408315858,1.863810093,-0.626985885,-1.060755172,-0.123430060,0.152731530,0.274821439,0.122095200,0.119863695,0.289386277,0.122566357
1702559782.554512,0.000000000,0.000000000,0.000000000,0.000000000,0.000000000,0.000000000,0.062247068,2.621751308,-3.401447773,0.650387824,-0.506548226,-0.673304975,0.000000000,0.000000000,0.000000000,0.000000000,0.000000000,0.000000000,0.000000000,0.000000000,0.000000000,0.000000000,0.000000000,0.000000000,0.707602967,-0.408066586,1.863420206,-0.628468733,-1.060825479,-0.123507824,0.155601026,0.273206999,0.122095200,0.121065564,0.288775793,0.122537126
1702559782.566593,0.000000000,0.000000000,0.000000000,0.000000000,0.000000000,0.000000000,-0.322317004,2.454497576,-3.297472715,0.495041728,-0.506940246,-0.748116612,0.000000000,0.000000000,0.000000000,0.000000000,0.000000000,0.000000000,0.000000000,0.000000000,0.000000000,0.000000000,0.000000000,0.000000000,0.705300132,-0.407777367,1.863113410,-0.629704440,-1.060803641,-0.123648439,0.155601026,0.273206999,0.122095200,0.121903164,0.288348181,0.122525488
1702559782.577573,0.000000000,0.000000000,0.000000000,0.000000000,0.000000000,0.000000000,-0.546973109,2.372811317,-3.429846287,0.075032666,-0.540945888,-0.857939363,0.000000000,0.000000000,0.000000000,0.000000000,0.000000000,0.000000000,0.000000000,0.000000000,0.000000000,0.000000000,0.000000000,0.000000000,0.701610055,-0.407309716,1.862797027,-0.630126284,-1.060707235,-0.123818349,0.155601026,0.273206999,0.122095200,0.123141387,0.287931750,0.122652596
1702559782.588533,0.000000000,0.000000000,0.000000000,0.000000000,0.000000000,0.000000000,-0.110694699,2.310814381,-3.199720144,-0.038603991,-0.563994229,-0.915076554,0.000000000,0.000000000,0.000000000,0.000000000,0.000000000,0.000000000,0.000000000,0.000000000,0.000000000,0.000000000,0.000000000,0.000000000,0.698384701,-0.407011975,1.862473186,-0.630421895,-1.060684864,-0.123958963,0.159400424,0.271007838,0.122095200,0.124208234,0.287577018,0.122754682
1702559782.599683,0.000000000,0.000000000,0.000000000,0.000000000,0.000000000,0.000000000,-0.105799675,2.279234409,-3.206264734,0.719711065,-0.529561460,-0.943848073,0.000000000,0.000000000,0.000000000,0.000000000,0.000000000,0.000000000,0.000000000,0.000000000,0.000000000,0.000000000,0.000000000,0.000000000,0.695392906,-0.406939537,1.861979436,-0.631897819,-1.060699778,-0.124158701,0.159400424,0.271007838,0.122095200,0.125275513,0.287032419,0.122690007
1702559782.610629,0.000000000,0.000000000,0.000000000,0.000000000,0.000000000,0.000000000,-0.391364872,2.416992188,-3.217416048,0.379856646,-0.494907916,-0.834517121,0.000000000,0.000000000,0.000000000,0.000000000,0.000000000,0.000000000,0.000000000,0.000000000,0.000000000,0.000000000,0.000000000,0.000000000,0.692026670,-0.406934210,1.861643345,-0.633406766,-1.060725877,-0.124584274,0.159400424,0.271007838,0.122095200,0.126395026,0.286386169,0.122577296
1702559782.621519,0.000000000,0.000000000,0.000000000,0.000000000,0.000000000,0.000000000,-0.753080189,2.526653528,-3.326261520,-0.011509486,-0.448869973,-0.587096632,0.000000000,0.000000000,0.000000000,0.000000000,0.000000000,0.000000000,0.000000000,0.000000000,0.000000000,0.000000000,0.000000000,0.000000000,0.689565377,-0.406933678,1.861599669,-0.633584133,-1.060710963,-0.125161114,0.162229620,0.269323772,0.122095200,0.127123069,0.286050078,0.122563151
1702559782.632712,0.000000000,0.000000000,0.000000000,0.000000000,0.000000000,0.000000000,-0.387110770,2.514928102,-3.274630785,-0.052111421,-0.500794947,-0.202154562,0.000000000,0.000000000,0.000000000,0.000000000,0.000000000,0.000000000,0.000000000,0.000000000,0.000000000,0.000000000,0.000000000,0.000000000,0.685906992,-0.406927819,1.861416977,-0.634013434,-1.060629470,-0.126485238,0.162229620,0.269323772,0.122095200,0.128259228,0.285546072,0.122539229
1702559782.643668,0.000000000,0.000000000,0.000000000,0.000000000,0.000000000,0.000000000,-0.038603991,2.676574230,-3.109910488,-0.016276872,-0.477678388,-0.500662684,0.000000000,0.000000000,0.000000000,0.000000000,0.000000000,0.000000000,0.000000000,0.000000000,0.000000000,0.000000000,0.000000000,0.000000000,0.682713330,-0.406905448,1.861066505,-0.634745804,-1.060666755,-0.126969933,0.162229620,0.269323772,0.122095200,0.129295453,0.285070770,0.122524110
1702559782.654641,0.000000000,0.000000000,0.000000000,0.000000000,0.000000000,0.000000000,-0.247453958,2.624471903,-3.147865534,0.615757525,-0.477643698,-0.541221261,0.000000000,0.000000000,0.000000000,0.000000000,0.000000000,0.000000000,0.000000000,0.000000000,0.000000000,0.000000000,0.000000000,0.000000000,0.679897037,-0.406870827,1.860596723,-0.636558351,-1.060692321,-0.127091906,0.165041025,0.267610171,0.122095200,0.130304179,0.284453643,0.122407916
1702559782.665732,0.000000000,0.000000000,0.000000000,0.000000000,0.000000000,0.000000000,-0.990885913,2.608327627,-2.810442448,0.105014205,-0.426006526,-0.644556940,0.000000000,0.000000000,0.000000000,0.000000000,0.000000000,0.000000000,0.000000000,0.000000000,0.000000000,0.000000000,0.000000000,0.000000000,0.676841858,-0.406687602,1.859978337,-0.637631072,-1.060603904,-0.127239978,0.165041025,0.267610171,0.122095200,0.131434975,0.284003885,0.122433515
1702559782.676762,0.000000000,0.000000000,0.000000000,0.000000000,0.000000000,0.000000000,-0.496911317,2.486701727,-2.900390625,-0.224508747,-0.454770386,-0.662020624,0.000000000,0.000000000,0.000000000,0.000000000,0.000000000,0.000000000,0.000000000,0.000000000,0.000000000,0.000000000,0.000000000,0.000000000,0.673382945,-0.406499050,1.859688585,-0.637904845,-1.060629470,-0.127261816,0.165041025,0.267610171,0.122095200,0.132524371,0.283573414,0.122506460
1702559782.687658,0.000000000,0.000000000,0.000000000,0.000000000,0.000000000,0.000000000,-0.477504998,2.526751757,-2.825584650,-0.109340124,-0.443115234,-0.633021772,0.000000000,0.000000000,0.000000000,0.000000000,0.000000000,0.000000000,0.000000000,0.000000000,0.000000000,0.000000000,0.000000000,0.000000000,0.670744285,-0.406366424,1.859438248,-0.638470501,-1.060529868,-0.127328928,0.167834332,0.265867224,0.122095200,0.133404120,0.283183392,0.122512730
1702559782.698673,0.000000000,0.000000000,0.000000000,0.000000000,0.000000000,0.000000000,-0.634850204,2.635697603,-2.969470024,0.082395390,-0.402996421,-0.771908224,0.000000000,0.000000000,0.000000000,0.000000000,0.000000000,0.000000000,0.000000000,0.000000000,0.000000000,0.000000000,0.000000000,0.000000000,0.667110135,-0.406201841,1.859265142,-0.639569321,-1.060559163,-0.127409888,0.167834332,0.265867224,0.122095200,0.134533583,0.282526259,0.122465249
1702559782.709591,0.000000000,0.000000000,0.000000000,0.000000000,0.000000000,0.000000000,-0.388306618,2.676011324,-2.998420000,-0.052111421,-0.408586770,-0.846123397,0.000000000,0.000000000,0.000000000,0.000000000,0.000000000,0.000000000,0.000000000,0.000000000,0.000000000,0.000000000,0.000000000,0.000000000,0.663553750,-0.406192254,1.859179921,-0.640545636,-1.060559163,-0.127491380,0.167834332,0.265867224,0.122095200,0.135599909,0.281869579,0.122370924
1702559782.720624,0.000000000,0.000000000,0.000000000,0.000000000,0.000000000,0.000000000,-0.224508747,2.653036594,-3.096100092,-0.293548316,-0.316720068,-0.776890337,0.000000000,0.000000000,0.000000000,0.000000000,0.000000000,0.000000000,0.000000000,0.000000000,0.000000000,0.000000000,0.000000000,0.000000000,0.660340380,-0.406113957,1.859194302,-0.640933925,-1.060622014,-0.127565416,0.171530058,0.263497975,0.122095200,0.136507255,0.281352903,0.122351613
1702559782.731598,0.000000000,0.000000000,0.000000000,0.000000000,0.000000000,0.000000000,-0.454770386,2.503849030,-3.274529696,-0.282041132,-0.368483365,-0.915022254,0.000000000,0.000000000,0.000000000,0.000000000,0.000000000,0.000000000,0.000000000,0.000000000,0.000000000,0.000000000,0.000000000,0.000000000,0.656983731,-0.405884925,1.859243304,-0.641414892,-1.060555967,-0.127650637,0.171530058,0.263497975,0.122095200,0.137491225,0.280805210,0.122346893
1702559782.742498,0.000000000,0.000000000,0.000000000,0.000000000,0.000000000,0.000000000,-0.395238191,2.549513817,-3.303302765,0.282217205,-0.345476359,-0.811602414,0.000000000,0.000000000,0.000000000,0.000000000,0.000000000,0.000000000,0.000000000,0.000000000,0.000000000,0.000000000,0.000000000,0.000000000,0.653585538,-0.405721939,1.859214010,-0.642672436,-1.060559163,-0.127750240,0.171530058,0.263497975,0.122095200,0.138512823,0.280100637,0.122254536
1702559782.753408,0.000000000,0.000000000,0.000000000,0.000000000,0.000000000,0.000000000,-0.190254986,2.464542150,-3.343906879,0.218680248,-0.362548828,-0.886249185,0.000000000,0.000000000,0.000000000,0.000000000,0.000000000,0.000000000,0.000000000,0.000000000,0.000000000,0.000000000,0.000000000,0.000000000,0.650124227,-0.405277724,1.859077656,-0.644606957,-1.060481399,-0.127854103,0.174279947,0.261687301,0.122095200,0.139651742,0.279296038,0.122175352
1702559782.764168,0.000000000,0.000000000,0.000000000,0.000000000,0.000000000,0.000000000,-0.592850268,2.595797539,-3.253674984,0.040692180,-0.305218488,-0.938464403,0.000000000,0.000000000,0.000000000,0.000000000,0.000000000,0.000000000,0.000000000,0.000000000,0.000000000,0.000000000,0.000000000,0.000000000,0.647076506,-0.405181318,1.858834243,-0.645512964,-1.060488856,-0.127994718,0.174279947,0.261687301,0.122095200,0.140614745,0.278747816,0.122141430
1702559782.774956,0.000000000,0.000000000,0.000000000,0.000000000,0.000000000,0.000000000,-0.687228143,2.676178217,-3.251475573,0.149733961,-0.276227683,-0.863211513,0.000000000,0.000000000,0.000000000,0.000000000,0.000000000,0.000000000,0.000000000,0.000000000,0.000000000,0.000000000,0.000000000,0.000000000,0.643865799,-0.405132316,1.858542360,-0.646393405,-1.060493117,-0.128168356,0.174279947,0.261687301,0.122095200,0.141631201,0.278186145,0.122105179
1702559782.785752,0.000000000,0.000000000,0.000000000,0.000000000,0.000000000,0.000000000,-0.078272976,2.388301611,-2.992820501,0.466169715,-0.270534128,-0.576193213,0.000000000,0.000000000,0.000000000,0.000000000,0.000000000,0.000000000,0.000000000,0.000000000,0.000000000,0.000000000,0.000000000,0.000000000,0.640041766,-0.404794094,1.857967650,-0.648217138,-1.060533597,-0.128663704,0.177010724,0.259847931,0.122095200,0.142953109,0.277424935,0.122094395
1702559782.796569,0.000000000,0.000000000,0.000000000,0.000000000,0.000000000,0.000000000,-0.852984190,2.195538044,-2.842988729,-0.063563213,-0.241767704,0.328020364,0.000000000,0.000000000,0.000000000,0.000000000,0.000000000,0.000000000,0.000000000,0.000000000,0.000000000,0.000000000,0.000000000,0.000000000,0.637103767,-0.404314725,1.857461117,-0.648597970,-1.060511226,-0.130557744,0.177010724,0.259847931,0.122095200,0.143986439,0.277076204,0.122269994
1702559782.807611,0.000000000,0.000000000,0.000000000,0.000000000,0.000000000,0.000000000,-0.547457278,2.376771688,-2.654340506,-0.166986749,-0.230189726,-0.362548828,0.000000000,0.000000000,0.000000000,0.000000000,0.000000000,0.000000000,0.000000000,0.000000000,0.000000000,0.000000000,0.000000000,0.000000000,0.633805175,-0.404165055,1.857021163,-0.648731128,-1.060448376,-0.131023797,0.177010724,0.259847931,0.122095200,0.145067869,0.276685237,0.122366543
1702559782.818804,0.000000000,0.000000000,0.000000000,0.000000000,0.000000000,0.000000000,-0.218755960,2.221450090,-2.745109081,-0.219360664,-0.213624254,-0.431644112,0.000000000,0.000000000,0.000000000,0.000000000,0.000000000,0.000000000,0.000000000,0.000000000,0.000000000,0.000000000,0.000000000,0.000000000,0.630100452,-0.404104868,1.856680278,-0.648982530,-1.060437190,-0.131138313,0.179722090,0.257980065,0.122095200,0.146212785,0.276175693,0.122412177
1702559782.829611,0.000000000,0.000000000,0.000000000,0.000000000,0.000000000,0.000000000,-0.608861625,2.405544758,-2.768037558,-0.166887552,-0.247520864,-0.374102563,0.000000000,0.000000000,0.000000000,0.000000000,0.000000000,0.000000000,0.000000000,0.000000000,0.000000000,0.000000000,0.000000000,0.000000000,0.627381364,-0.404079302,1.856533804,-0.649382004,-1.060367415,-0.131171869,0.179722090,0.257980065,0.122095200,0.147040088,0.275733775,0.122393131
1702559782.840438,0.000000000,0.000000000,0.000000000,0.000000000,0.000000000,0.000000000,-0.590387285,2.330848455,-2.929441214,-0.143868580,-0.225612342,-0.477782339,0.000000000,0.000000000,0.000000000,0.000000000,0.000000000,0.000000000,0.000000000,0.000000000,0.000000000,0.000000000,0.000000000,0.000000000,0.623864127,-0.404081432,1.856517293,-0.649855514,-1.060345045,-0.131190511,0.179722090,0.257980065,0.122095200,0.148034005,0.275123251,0.122339800
1702559782.851355,0.000000000,0.000000000,0.000000000,0.000000000,0.000000000,0.000000000,-0.139188677,2.520636797,-3.073118925,0.114662446,-0.195999488,-0.546700597,0.000000000,0.000000000,0.000000000,0.000000000,0.000000000,0.000000000,0.000000000,0.000000000,0.000000000,0.000000000,0.000000000,0.000000000,0.620049682,-0.404078236,1.856548718,-0.650828634,-1.060396710,-0.131245905,0.183306535,0.255445606,0.122095200,0.149090169,0.274349486,0.122229600
1702559782.862345,0.000000000,0.000000000,0.000000000,0.000000000,0.000000000,0.000000000,-0.633675396,2.578125000,-3.096185684,0.420726418,-0.138592571,-0.604494631,0.000000000,0.000000000,0.000000000,0.000000000,0.000000000,0.000000000,0.000000000,0.000000000,0.000000000,0.000000000,0.000000000,0.000000000,0.617284255,-0.404076106,1.856550849,-0.651964205,-1.060415352,-0.131345507,0.183306535,0.255445606,0.122095200,0.149877521,0.273703801,0.122103062
1702559782.873341,0.000000000,0.000000000,0.000000000,0.000000000,0.000000000,0.000000000,-0.711775899,2.538494110,-3.119091988,0.040283203,-0.138113841,-0.684814453,0.000000000,0.000000000,0.000000000,0.000000000,0.000000000,0.000000000,0.000000000,0.000000000,0.000000000,0.000000000,0.000000000,0.000000000,0.613886328,-0.404058529,1.856524217,-0.652588983,-1.060370611,-0.131452566,0.183306535,0.255445606,0.122095200,0.150845979,0.273074818,0.122038177
1702559782.884179,0.000000000,0.000000000,0.000000000,0.000000000,0.000000000,0.000000000,-0.077422149,2.572601795,-3.107566595,-0.168467596,-0.126735061,-0.702455938,0.000000000,0.000000000,0.000000000,0.000000000,0.000000000,0.000000000,0.000000000,0.000000000,0.000000000,0.000000000,0.000000000,0.000000000,0.610332340,-0.404056398,1.856526880,-0.652588983,-1.060300304,-0.131548973,0.185971456,0.253512054,0.122095200,0.151831957,0.272539786,0.122032332
1702559782.895103,0.000000000,0.000000000,0.000000000,0.000000000,0.000000000,0.000000000,-0.552605212,2.514822721,-3.159437895,-0.207490206,-0.120849609,-0.615757525,0.000000000,0.000000000,0.000000000,0.000000000,0.000000000,0.000000000,0.000000000,0.000000000,0.000000000,0.000000000,0.000000000,0.000000000,0.606690733,-0.404054801,1.856477878,-0.652803634,-1.060267281,-0.131733796,0.185971456,0.253512054,0.122095200,0.152852896,0.271953478,0.122014101
1702559782.906032,0.000000000,0.000000000,0.000000000,0.000000000,0.000000000,0.000000000,-0.080154300,2.556375980,-3.124910116,-0.322265625,-0.086512759,-0.685418665,0.000000000,0.000000000,0.000000000,0.000000000,0.000000000,0.000000000,0.000000000,0.000000000,0.000000000,0.000000000,0.000000000,0.000000000,0.602942068,-0.404040420,1.856477878,-0.652921878,-1.060263552,-0.131871215,0.185971456,0.253512054,0.122095200,0.153876870,0.271355604,0.122004478
1702559782.917110,0.000000000,0.000000000,0.000000000,0.000000000,0.000000000,0.000000000,-0.399530053,2.509074688,-3.205474615,-0.391998976,-0.053056110,-0.621618807,0.000000000,0.000000000,0.000000000,0.000000000,0.000000000,0.000000000,0.000000000,0.000000000,0.000000000,0.000000000,0.000000000,0.000000000,0.600327642,-0.404021777,1.856475747,-0.653040122,-1.060274737,-0.132029939,0.188615982,0.251550700,0.122095200,0.154588783,0.270929491,0.121997685
1702559782.928063,0.000000000,0.000000000,0.000000000,0.000000000,0.000000000,0.000000000,-0.501191556,2.618465185,-3.268699169,-0.299301982,-0.023727413,-0.656267822,0.000000000,0.000000000,0.000000000,0.000000000,0.000000000,0.000000000,0.000000000,0.000000000,0.000000000,0.000000000,0.000000000,0.000000000,0.596452477,-0.403995146,1.856409701,-0.653439597,-1.060282194,-0.132359106,0.188615982,0.251550700,0.122095200,0.155669540,0.270262374,0.121972002
1702559782.939203,0.000000000,0.000000000,0.000000000,0.000000000,0.000000000,0.000000000,-0.302767307,2.601150274,-3.320890665,-0.264780730,-0.023018973,-0.333824724,0.000000000,0.000000000,0.000000000,0.000000000,0.000000000,0.000000000,0.000000000,0.000000000,0.000000000,0.000000000,0.000000000,0.000000000,0.593005547,-0.403981297,1.856351112,-0.653976490,-1.060285390,-0.132917305,0.188615982,0.251550700,0.122095200,0.156632949,0.269627701,0.121925629
1702559782.950280,0.000000000,0.000000000,0.000000000,0.000000000,0.000000000,0.000000000,-0.184241682,2.675980330,-3.253079653,0.213236347,0.017264230,0.100502267,0.000000000,0.000000000,0.000000000,0.000000000,0.000000000,0.000000000,0.000000000,0.000000000,0.000000000,0.000000000,0.000000000,0.000000000,0.590057961,-0.403941883,1.856222215,-0.655163195,-1.060237453,-0.134060333,0.191239825,0.249561762,0.122095200,0.157513089,0.268954054,0.121820954
1702559782.961282,0.000000000,0.000000000,0.000000000,0.000000000,0.000000000,0.000000000,-0.870869696,2.733721256,-3.130585670,-0.018198097,0.046396222,-0.287794709,0.000000000,0.000000000,0.000000000,0.000000000,0.000000000,0.000000000,0.000000000,0.000000000,0.000000000,0.000000000,0.000000000,0.000000000,0.586647517,-0.403850270,1.855901037,-0.656199164,-1.060244910,-0.134541300,0.191239825,0.249561762,0.122095200,0.158563800,0.268276617,0.121785524
1702559782.972242,0.000000000,0.000000000,0.000000000,0.000000000,0.000000000,0.000000000,-0.382636338,2.733509064,-3.188314676,-0.061980482,0.036396194,-0.385739565,0.000000000,0.000000000,0.000000000,0.000000000,0.000000000,0.000000000,0.000000000,0.000000000,0.000000000,0.000000000,0.000000000,0.000000000,0.583191000,-0.403631358,1.855828067,-0.656690784,-1.060152232,-0.134600423,0.191239825,0.249561762,0.122095200,0.159569885,0.267659875,0.121796291
1702559782.983586,0.000000000,0.000000000,0.000000000,0.000000000,0.000000000,0.000000000,-0.828063369,2.555209637,-3.228456974,-0.127776042,-0.051792689,-0.425889909,0.000000000,0.000000000,0.000000000,0.000000000,0.000000000,0.000000000,0.000000000,0.000000000,0.000000000,0.000000000,0.000000000,0.000000000,0.579746467,-0.403419370,1.855699170,-0.656983199,-1.059986051,-0.134693101,0.194705610,0.246867311,0.122095200,0.160600709,0.267096105,0.121830881
1702559782.994729,0.000000000,0.000000000,0.000000000,0.000000000,0.000000000,0.000000000,-0.379987389,2.313435316,-3.159437895,-0.063563213,0.064339988,-0.425889909,0.000000000,0.000000000,0.000000000,0.000000000,0.000000000,0.000000000,0.000000000,0.000000000,0.000000000,0.000000000,0.000000000,0.000000000,0.576090213,-0.402932012,1.855513814,-0.657382673,-1.060052630,-0.134737309,0.194705610,0.246867311,0.122095200,0.161677601,0.266493256,0.121960094
1702559783.005640,0.000000000,0.000000000,0.000000000,0.000000000,0.000000000,0.000000000,-0.275387168,2.270587206,-3.124910116,0.391364872,0.109491460,-0.460379452,0.000000000,0.000000000,0.000000000,0.000000000,0.000000000,0.000000000,0.000000000,0.000000000,0.000000000,0.000000000,0.000000000,0.000000000,0.572550872,-0.402604976,1.855287978,-0.658481493,-1.060063815,-0.134770865,0.194705610,0.246867311,0.122095200,0.162746906,0.265761651,0.121968068
1702559783.016934,0.000000000,0.000000000,0.000000000,0.000000000,0.000000000,0.000000000,-0.898200929,2.256593227,-2.889345169,0.346051037,0.126735061,-0.523808062,0.000000000,0.000000000,0.000000000,0.000000000,0.000000000,0.000000000,0.000000000,0.000000000,0.000000000,0.000000000,0.000000000,0.000000000,0.569408342,-0.402362095,1.854852284,-0.659380044,-1.060093642,-0.134837444,0.197280075,0.244814860,0.122095200,0.163757545,0.265168501,0.122012508
1702559783.028143,0.000000000,0.000000000,0.000000000,0.000000000,0.000000000,0.000000000,-0.149623320,2.147012949,-2.917660475,0.127126426,0.155378073,-0.483706594,0.000000000,0.000000000,0.000000000,0.000000000,0.000000000,0.000000000,0.000000000,0.000000000,0.000000000,0.000000000,0.000000000,0.000000000,0.565194955,-0.402097910,1.854542825,-0.659665002,-1.060063815,-0.134863543,0.197280075,0.244814860,0.122095200,0.165012742,0.264498743,0.122105281
1702559783.039324,0.000000000,0.000000000,0.000000000,0.000000000,0.000000000,0.000000000,-0.527493715,2.049496651,-2.946518421,0.041895162,0.092792444,-0.604932725,0.000000000,0.000000000,0.000000000,0.000000000,0.000000000,0.000000000,0.000000000,0.000000000,0.000000000,0.000000000,0.000000000,0.000000000,0.561633510,-0.402031863,1.854406471,-0.659768333,-1.059912015,-0.134885381,0.197280075,0.244814860,0.122095200,0.166043464,0.263925252,0.122122933
1702559783.050558,0.000000000,0.000000000,0.000000000,0.000000000,0.000000000,0.000000000,-0.028773716,2.181055307,-3.015534878,0.028773716,0.109491460,-0.610029936,0.000000000,0.000000000,0.000000000,0.000000000,0.000000000,0.000000000,0.000000000,0.000000000,0.000000000,0.000000000,0.000000000,0.000000000,0.557926389,-0.401981796,1.854340958,-0.659986712,-1.059893373,-0.134933850,0.199832907,0.242735562,0.122095200,0.167055830,0.263280071,0.122122189
1702559783.062171,0.000000000,0.000000000,0.000000000,0.000000000,0.000000000,0.000000000,-0.634850204,2.111998558,-3.078792810,-0.033555631,0.161235541,-0.592850268,0.000000000,0.000000000,0.000000000,0.000000000,0.000000000,0.000000000,0.000000000,0.000000000,0.000000000,0.000000000,0.000000000,0.000000000,0.554995581,-0.401944512,1.854304206,-0.660145436,-1.059897634,-0.134992440,0.199832907,0.242735562,0.122095200,0.167844429,0.262766328,0.122121528
1702559783.073097,0.000000000,0.000000000,0.000000000,0.000000000,0.000000000,0.000000000,-0.049504176,2.176054001,-3.107582808,-0.155484602,0.184241682,-0.592766464,0.000000000,0.000000000,0.000000000,0.000000000,0.000000000,0.000000000,0.000000000,0.000000000,0.000000000,0.000000000,0.000000000,0.000000000,0.550647970,-0.401948773,1.854299412,-0.660123598,-1.059912015,-0.135118141,0.199832907,0.242735562,0.122095200,0.168982424,0.262038825,0.122124803
1702559783.084209,0.000000000,0.000000000,0.000000000,0.000000000,0.000000000,0.000000000,-0.487559557,2.153043270,-3.170884132,-0.241767704,0.224508747,-0.679084063,0.000000000,0.000000000,0.000000000,0.000000000,0.000000000,0.000000000,0.000000000,0.000000000,0.000000000,0.000000000,0.000000000,0.000000000,0.547598118,-0.401943979,1.854297282,-0.660123598,-1.059923200,-0.135173535,0.202363824,0.240629645,0.122095200,0.169779258,0.261522606,0.122127451
1702559783.095293,0.000000000,0.000000000,0.000000000,0.000000000,0.000000000,0.000000000,-0.408627301,2.135288954,-3.090345144,-0.224729896,0.218755960,-0.771157086,0.000000000,0.000000000,0.000000000,0.000000000,0.000000000,0.000000000,0.000000000,0.000000000,0.000000000,0.000000000,0.000000000,0.000000000,0.544053717,-0.401950371,1.854199277,-0.660245571,-1.059875263,-0.135329063,0.202363824,0.240629645,0.122095200,0.170750082,0.260914423,0.122124787
1702559783.106045,0.000000000,0.000000000,0.000000000,0.000000000,0.000000000,0.000000000,-0.459010661,2.113119602,-3.228493214,-0.282041132,0.241767704,-0.759626091,0.000000000,0.000000000,0.000000000,0.000000000,0.000000000,0.000000000,0.000000000,0.000000000,0.000000000,0.000000000,0.000000000,0.000000000,0.540811318,-0.401946642,1.854150808,-0.660315879,-1.059830522,-0.135384457,0.202363824,0.240629645,0.122095200,0.171623440,0.260355984,0.122122533
1702559783.116995,0.000000000,0.000000000,0.000000000,0.000000000,0.000000000,0.000000000,-0.370499998,2.158028603,-3.194401026,0.136788681,0.230189726,-0.817193806,0.000000000,0.000000000,0.000000000,0.000000000,0.000000000,0.000000000,0.000000000,0.000000000,0.000000000,0.000000000,0.000000000,0.000000000,0.537535098,-0.401942381,1.854029368,-0.661018953,-1.059723463,-0.135525072,0.205703813,0.237780750,0.122095200,0.172552916,0.259674712,0.122056832
1702559783.128099,0.000000000,0.000000000,0.000000000,0.000000000,0.000000000,0.000000000,-0.590527534,2.037309170,-3.149190903,0.310969204,0.270472944,-0.892653286,0.000000000,0.000000000,0.000000000,0.000000000,0.000000000,0.000000000,0.000000000,0.000000000,0.000000000,0.000000000,0.000000000,0.000000000,0.533847152,-0.401940251,1.853854132,-0.662009649,-1.059778857,-0.135647577,0.205703813,0.237780750,0.122095200,0.173568312,0.258865178,0.121981178
1702559783.139318,0.000000000,0.000000000,0.000000000,0.000000000,0.000000000,0.000000000,-0.420253873,2.181662560,-3.153646708,0.500662684,0.305218488,-0.777082086,0.000000000,0.000000000,0.000000000,0.000000000,0.000000000,0.000000000,0.000000000,0.000000000,0.000000000,0.000000000,0.000000000,0.000000000,0.530261738,-0.401941316,1.853622969,-0.663171320,-1.059757019,-0.135824944,0.205703813,0.237780750,0.122095200,0.174593300,0.258046991,0.121888794
1702559783.150662,0.000000000,0.000000000,0.000000000,0.000000000,0.000000000,0.000000000,-1.002383113,2.215583801,-3.101806641,0.195661277,0.328070819,-0.817679942,0.000000000,0.000000000,0.000000000,0.000000000,0.000000000,0.000000000,0.000000000,0.000000000,0.000000000,0.000000000,0.000000000,0.000000000,0.527416151,-0.401931729,1.853398731,-0.663478649,-1.059757019,-0.135969287,0.208182523,0.235613626,0.122095200,0.175405736,0.257529224,0.121895625
1702559783.162432,0.000000000,0.000000000,0.000000000,0.000000000,0.000000000,0.000000000,-0.310382932,2.232907057,-3.050014019,0.051792689,0.351086527,-0.668764532,0.000000000,0.000000000,0.000000000,0.000000000,0.000000000,0.000000000,0.000000000,0.000000000,0.000000000,0.000000000,0.000000000,0.000000000,0.523377733,-0.401937055,1.853257584,-0.663489301,-1.059679255,-0.136394328,0.208182523,0.235613626,0.122095200,0.176509372,0.256845000,0.121910713
1702559783.173604,0.000000000,0.000000000,0.000000000,0.000000000,0.000000000,0.000000000,-0.859019518,2.152650833,-2.946434259,0.069296286,0.207250670,-0.168467596,0.000000000,0.000000000,0.000000000,0.000000000,0.000000000,0.000000000,0.000000000,0.000000000,0.000000000,0.000000000,0.000000000,0.000000000,0.519699641,-0.401940783,1.853033878,-0.663648558,-1.059427852,-0.137452135,0.208182523,0.235613626,0.122095200,0.177590014,0.256209410,0.121909444
1702559783.185028,0.000000000,0.000000000,0.000000000,0.000000000,0.000000000,0.000000000,-0.067357540,2.199223280,-3.027191877,0.028773716,0.224508747,-0.328070819,0.000000000,0.000000000,0.000000000,0.000000000,0.000000000,0.000000000,0.000000000,0.000000000,0.000000000,0.000000000,0.000000000,0.000000000,0.515629532,-0.401937055,1.852897524,-0.663703952,-1.059312804,-0.138391699,0.210638403,0.233420665,0.122095200,0.178705701,0.255501531,0.121918208
1702559783.196152,0.000000000,0.000000000,0.000000000,0.000000000,0.000000000,0.000000000,-0.715904891,2.255888700,-3.101854801,-0.024415307,0.201416016,-0.420135677,0.000000000,0.000000000,0.000000000,0.000000000,0.000000000,0.000000000,0.000000000,0.000000000,0.000000000,0.000000000,0.000000000,0.000000000,0.512046515,-0.401937055,1.852894861,-0.663744965,-1.059065130,-0.138532314,0.210638403,0.233420665,0.122095200,0.179682397,0.254857342,0.121893575
1702559783.206950,0.000000000,0.000000000,0.000000000,0.000000000,0.000000000,0.000000000,-0.075032666,2.296402216,-3.107566595,-0.046396222,0.172738180,-0.546821713,0.000000000,0.000000000,0.000000000,0.000000000,0.000000000,0.000000000,0.000000000,0.000000000,0.000000000,0.000000000,0.000000000,0.000000000,0.508258968,-0.401934924,1.852875154,-0.663852024,-1.058920786,-0.138577055,0.210638403,0.233420665,0.122095200,0.180689856,0.254159854,0.121873661
1702559783.217941,0.000000000,0.000000000,0.000000000,0.000000000,0.000000000,0.000000000,-0.374456495,2.296257973,-3.205397367,-0.145698458,0.138592571,-0.587011993,0.000000000,0.000000000,0.000000000,0.000000000,0.000000000,0.000000000,0.000000000,0.000000000,0.000000000,0.000000000,0.000000000,0.000000000,0.505133482,-0.401930663,1.852819227,-0.663829653,-1.058783900,-0.138617535,0.213876932,0.230456941,0.122095200,0.181535888,0.253611904,0.121875657
1702559783.229043,0.000000000,0.000000000,0.000000000,0.000000000,0.000000000,0.000000000,-0.069296286,2.290416718,-3.171385765,-0.235944480,-0.132484138,-0.587688625,0.000000000,0.000000000,0.000000000,0.000000000,0.000000000,0.000000000,0.000000000,0.000000000,0.000000000,0.000000000,0.000000000,0.000000000,0.500956314,-0.401918945,1.852622153,-0.663893037,-1.058262453,-0.138624992,0.213876932,0.230456941,0.122095200,0.182789693,0.252885437,0.121862722
1702559783.240236,0.000000000,0.000000000,0.000000000,0.000000000,0.000000000,0.000000000,-0.254252851,2.221397877,-3.050062656,-0.322471082,-0.506417394,-0.586983800,0.000000000,0.000000000,0.000000000,0.000000000,0.000000000,0.000000000,0.000000000,0.000000000,0.000000000,0.000000000,0.000000000,0.000000000,0.497745607,-0.401918413,1.852403242,-0.663970268,-1.057404382,-0.138632448,0.213876932,0.230456941,0.122095200,0.183886159,0.252337589,0.121821248
1702559783.251249,0.000000000,0.000000000,0.000000000,0.000000000,0.000000000,0.000000000,-0.863384128,2.284749031,-3.050361395,-0.328827053,-0.466134191,-0.592850268,0.000000000,0.000000000,0.000000000,0.000000000,0.000000000,0.000000000,0.000000000,0.000000000,0.000000000,0.000000000,0.000000000,0.000000000,0.495026519,-0.401913086,1.852189123,-0.664118340,-1.056834999,-0.138654819,0.216278501,0.228204631,0.122095200,0.184785424,0.251855607,0.121796362
1702559783.262606,0.000000000,0.000000000,0.000000000,0.000000000,0.000000000,0.000000000,-0.090075985,2.377154827,-2.958077908,-0.305218488,-0.385567784,-0.563964844,0.000000000,0.000000000,0.000000000,0.000000000,0.000000000,0.000000000,0.000000000,0.000000000,0.000000000,0.000000000,0.000000000,0.000000000,0.490666925,-0.401909358,1.851833325,-0.664410755,-1.056723678,-0.138717670,0.216278501,0.228204631,0.122095200,0.186030619,0.251053129,0.121817137
1702559783.273626,0.000000000,0.000000000,0.000000000,0.000000000,0.000000000,0.000000000,-0.797608256,2.290647984,-3.067472458,-0.374765933,-0.385610729,-0.644634008,0.000000000,0.000000000,0.000000000,0.000000000,0.000000000,0.000000000,0.000000000,0.000000000,0.000000000,0.000000000,0.000000000,0.000000000,0.487568070,-0.401909358,1.851782192,-0.664521543,-1.056682666,-0.138791173,0.216278501,0.228204631,0.122095200,0.186835690,0.250462393,0.121810257
1702559783.284468,0.000000000,0.000000000,0.000000000,0.000000000,0.000000000,0.000000000,-0.598520935,2.405654669,-3.021261930,-0.213003263,-0.402873129,-0.644556940,0.000000000,0.000000000,0.000000000,0.000000000,0.000000000,0.000000000,0.000000000,0.000000000,0.000000000,0.000000000,0.000000000,0.000000000,0.484196775,-0.401908825,1.851789649,-0.664968954,-1.056697579,-0.138813543,0.218656352,0.225927297,0.122095200,0.187675507,0.249737405,0.121760463
1702559783.295280,0.000000000,0.000000000,0.000000000,0.000000000,0.000000000,0.000000000,-0.498840332,2.353753328,-3.113449097,0.054594286,-0.431759179,-0.736629605,0.000000000,0.000000000,0.000000000,0.000000000,0.000000000,0.000000000,0.000000000,0.000000000,0.000000000,0.000000000,0.000000000,0.000000000,0.480404433,-0.401906695,1.851840782,-0.665682681,-1.056805171,-0.138854023,0.218656352,0.225927297,0.122095200,0.188581372,0.248866347,0.121681539
1702559783.306074,0.000000000,0.000000000,0.000000000,0.000000000,0.000000000,0.000000000,-0.860233068,2.526338816,-3.176623583,0.345332533,-0.420135677,-0.667575002,0.000000000,0.000000000,0.000000000,0.000000000,0.000000000,0.000000000,0.000000000,0.000000000,0.000000000,0.000000000,0.000000000,0.000000000,0.477186269,-0.401900836,1.851818944,-0.667114396,-1.056830737,-0.138876394,0.218656352,0.225927297,0.122095200,0.189389694,0.247966764,0.121529777
1702559783.317784,0.000000000,0.000000000,0.000000000,0.000000000,0.000000000,0.000000000,-0.115668900,2.520603895,-3.199642420,0.063302174,-0.496110916,-0.713796973,0.000000000,0.000000000,0.000000000,0.000000000,0.000000000,0.000000000,0.000000000,0.000000000,0.000000000,0.000000000,0.000000000,0.000000000,0.473271955,-0.401881661,1.851784856,-0.667498957,-1.056853108,-0.138946701,0.221010224,0.223625187,0.122095200,0.190368475,0.247150877,0.121500165
1702559783.328604,0.000000000,0.000000000,0.000000000,0.000000000,0.000000000,0.000000000,-0.859385669,2.532322407,-3.337830544,-0.092075892,-0.535469532,-0.667649448,0.000000000,0.000000000,0.000000000,0.000000000,0.000000000,0.000000000,0.000000000,0.000000000,0.000000000,0.000000000,0.000000000,0.000000000,0.469871631,-0.401860356,1.851775268,-0.667528784,-1.056823281,-0.138957887,0.221010224,0.223625187,0.122095200,0.191220807,0.246499182,0.121502076
1702559783.339476,0.000000000,0.000000000,0.000000000,0.000000000,0.000000000,0.000000000,-0.176061288,2.526653528,-3.303302765,0.058687095,-0.598520935,-0.777423024,0.000000000,0.000000000,0.000000000,0.000000000,0.000000000,0.000000000,0.000000000,0.000000000,0.000000000,0.000000000,0.000000000,0.000000000,0.466006053,-0.401850236,1.851675666,-0.667872864,-1.056820085,-0.138998367,0.221010224,0.223625187,0.122095200,0.192208801,0.245704753,0.121483641
1702559783.350550,0.000000000,0.000000000,0.000000000,0.000000000,0.000000000,0.000000000,-0.625337005,2.555339336,-3.303723812,-0.086321145,-0.621512294,-0.737168968,0.000000000,0.000000000,0.000000000,0.000000000,0.000000000,0.000000000,0.000000000,0.000000000,0.000000000,0.000000000,0.000000000,0.000000000,0.462744213,-0.401845975,1.851631457,-0.667983652,-1.056860565,-0.139024466,0.224110976,0.220517604,0.122095200,0.193014901,0.245060911,0.121483479
1702559783.362108,0.000000000,0.000000000,0.000000000,0.000000000,0.000000000,0.000000000,-0.270534128,2.509094477,-3.383832932,-0.184511110,-0.684838653,-0.823250175,0.000000000,0.000000000,0.000000000,0.000000000,0.000000000,0.000000000,0.000000000,0.000000000,0.000000000,0.000000000,0.000000000,0.000000000,0.459000341,-0.401845975,1.851619207,-0.668006023,-1.056893588,-0.139179994,0.224110976,0.220517604,0.122095200,0.193927039,0.244333685,0.121485807
1702559783.373189,0.000000000,0.000000000,0.000000000,0.000000000,0.000000000,0.000000000,-0.570445716,2.583937407,-3.349265575,-0.230261639,-0.679279149,-0.788483858,0.000000000,0.000000000,0.000000000,0.000000000,0.000000000,0.000000000,0.000000000,0.000000000,0.000000000,0.000000000,0.000000000,0.000000000,0.454993615,-0.401841714,1.851568074,-0.667976195,-1.056978809,-0.139361089,0.224110976,0.220517604,0.122095200,0.194901230,0.243568850,0.121506112
1702559783.384487,0.000000000,0.000000000,0.000000000,0.000000000,0.000000000,0.000000000,-0.877442658,2.601150274,-3.337929487,-0.276287615,-0.679669082,-0.639009774,0.000000000,0.000000000,0.000000000,0.000000000,0.000000000,0.000000000,0.000000000,0.000000000,0.000000000,0.000000000,0.000000000,0.000000000,0.452281985,-0.401842246,1.851482853,-0.668039046,-1.056971352,-0.139660429,0.226407901,0.218158672,0.122095200,0.195591847,0.243040652,0.121513083
1702559783.395430,0.000000000,0.000000000,0.000000000,0.000000000,0.000000000,0.000000000,-0.151383653,2.768055439,-3.119102716,-0.040692180,-0.753893316,0.086512759,0.000000000,0.000000000,0.000000000,0.000000000,0.000000000,0.000000000,0.000000000,0.000000000,0.000000000,0.000000000,0.000000000,0.000000000,0.448004948,-0.401827333,1.851203221,-0.668501371,-1.056968157,-0.140843937,0.226407901,0.218158672,0.122095200,0.196727171,0.242153246,0.121513974
1702559783.406576,0.000000000,0.000000000,0.000000000,0.000000000,0.000000000,0.000000000,-0.629901290,2.739475489,-3.234186172,0.173503369,-0.794175386,-0.236575231,0.000000000,0.000000000,0.000000000,0.000000000,0.000000000,0.000000000,0.000000000,0.000000000,0.000000000,0.000000000,0.000000000,0.000000000,0.444475461,-0.401818278,1.850959808,-0.669015893,-1.057001180,-0.141843155,0.226407901,0.218158672,0.122095200,0.197656013,0.241391180,0.121504153
1702559783.417636,0.000000000,0.000000000,0.000000000,0.000000000,0.000000000,0.000000000,-0.167283967,2.762330770,-3.194068909,0.247721478,-0.834517121,-0.236575231,0.000000000,0.000000000,0.000000000,0.000000000,0.000000000,0.000000000,0.000000000,0.000000000,0.000000000,0.000000000,0.000000000,0.000000000,0.440651428,-0.401757025,1.850713732,-0.669707250,-1.057016094,-0.141991227,0.228679997,0.215775815,0.122095200,0.198663619,0.240533799,0.121488472
1702559783.428572,0.000000000,0.000000000,0.000000000,0.000000000,0.000000000,0.000000000,-0.875118375,2.741674662,-2.952233791,0.328474373,-0.892003715,-0.213003263,0.000000000,0.000000000,0.000000000,0.000000000,0.000000000,0.000000000,0.000000000,0.000000000,0.000000000,0.000000000,0.000000000,0.000000000,0.437323808,-0.401602562,1.850385098,-0.670395411,-1.057060302,-0.142046621,0.228679997,0.215775815,0.122095200,0.199580066,0.239789891,0.121516176
1702559783.439418,0.000000000,0.000000000,0.000000000,0.000000000,0.000000000,0.000000000,-0.594607294,2.598475218,-3.107609510,0.115238644,-0.897758365,-0.161132813,0.000000000,0.000000000,0.000000000,0.000000000,0.000000000,0.000000000,0.000000000,0.000000000,0.000000000,0.000000000,0.000000000,0.000000000,0.433981541,-0.401363943,1.850151272,-0.670654270,-1.057159904,-0.142039164,0.228679997,0.215775815,0.122095200,0.200461670,0.239117160,0.121603393
1702559783.450306,0.000000000,0.000000000,0.000000000,0.000000000,0.000000000,0.000000000,-0.631712496,2.636733770,-2.934941769,0.017264230,-0.892282188,-0.155484602,0.000000000,0.000000000,0.000000000,0.000000000,0.000000000,0.000000000,0.000000000,0.000000000,0.000000000,0.000000000,0.000000000,0.000000000,0.430262170,-0.401118932,1.849825302,-0.670802342,-1.057204645,-0.142054078,0.228679997,0.215775815,0.122095200,0.201477417,0.238403206,0.121716250
1702559783.461242,0.000000000,0.000000000,0.000000000,0.000000000,0.000000000,0.000000000,-0.466169715,2.480534554,-2.963894129,-0.047454827,-0.926585138,-0.150065333,0.000000000,0.000000000,0.000000000,0.000000000,0.000000000,0.000000000,0.000000000,0.000000000,0.000000000,0.000000000,0.000000000,0.000000000,0.426569431,-0.400866997,1.849586682,-0.670854007,-1.057227016,-0.142046621,0.230927017,0.213369296,0.122095200,0.202460862,0.237696968,0.121824886
1702559783.472256,0.000000000,0.000000000,0.000000000,0.000000000,0.000000000,0.000000000,-0.374765933,2.480401039,-2.837111712,-0.052111421,-0.984061122,-0.201498210,0.000000000,0.000000000,0.000000000,0.000000000,0.000000000,0.000000000,0.000000000,0.000000000,0.000000000,0.000000000,0.000000000,0.000000000,0.422847663,-0.400725317,1.849255918,-0.671009003,-1.057197188,-0.142013065,0.230927017,0.213369296,0.122095200,0.203480737,0.236968397,0.121902722
1702559783.483170,0.000000000,0.000000000,0.000000000,0.000000000,0.000000000,0.000000000,-0.761389673,2.509490490,-2.854561567,-0.086321145,-1.047426462,-0.184511110,0.000000000,0.000000000,0.000000000,0.000000000,0.000000000,0.000000000,0.000000000,0.000000000,0.000000000,0.000000000,0.000000000,0.000000000,0.419583427,-0.400708805,1.849080682,-0.671005807,-1.057212102,-0.142049817,0.230927017,0.213369296,0.122095200,0.204311996,0.236331458,0.121939374
1702559783.494154,0.000000000,0.000000000,0.000000000,0.000000000,0.000000000,0.000000000,-0.090990476,2.451520681,-2.900413513,-0.126604348,-1.059013486,-0.218982920,0.000000000,0.000000000,0.000000000,0.000000000,0.000000000,0.000000000,0.000000000,0.000000000,0.000000000,0.000000000,0.000000000,0.000000000,0.415623040,-0.400656607,1.849014635,-0.671035102,-1.057256311,-0.142034903,0.233883607,0.210124253,0.122095200,0.205263883,0.235527085,0.121965926
1702559783.504958,0.000000000,0.000000000,0.000000000,0.000000000,0.000000000,0.000000000,-0.468402177,2.298247337,-3.004245996,-0.149733961,-1.047616124,-0.189993694,0.000000000,0.000000000,0.000000000,0.000000000,0.000000000,0.000000000,0.000000000,0.000000000,0.000000000,0.000000000,0.000000000,0.000000000,0.412044550,-0.400471251,1.849056181,-0.671027645,-1.057415568,-0.142057274,0.233883607,0.210124253,0.122095200,0.206072088,0.234795449,0.122024821
1702559783.515903,0.000000000,0.000000000,0.000000000,0.000000000,0.000000000,0.000000000,-0.122076541,2.218563557,-3.159485102,-0.178397045,-0.961111069,-0.207490206,0.000000000,0.000000000,0.000000000,0.000000000,0.000000000,0.000000000,0.000000000,0.000000000,0.000000000,0.000000000,0.000000000,0.000000000,0.408456473,-0.400125040,1.849078019,-0.671023917,-1.057619033,-0.142024250,0.233883607,0.210124253,0.122095200,0.206893656,0.234069077,0.122135782
1702559783.526804,0.000000000,0.000000000,0.000000000,0.000000000,0.000000000,0.000000000,-0.850943387,2.106267452,-3.078922272,-0.190689638,-1.001341820,-0.178489834,0.000000000,0.000000000,0.000000000,0.000000000,0.000000000,0.000000000,0.000000000,0.000000000,0.000000000,0.000000000,0.000000000,0.000000000,0.405289708,-0.399944478,1.849046593,-0.671160803,-1.057681884,-0.142034903,0.236071159,0.207663553,0.122095200,0.207648079,0.233397973,0.122182182
1702559783.537718,0.000000000,0.000000000,0.000000000,0.000000000,0.000000000,0.000000000,-0.812723756,2.164273024,-3.022166491,-0.230477288,-1.133918047,-0.126735061,0.000000000,0.000000000,0.000000000,0.000000000,0.000000000,0.000000000,0.000000000,0.000000000,0.000000000,0.000000000,0.000000000,0.000000000,0.402276075,-0.399949271,1.848953915,-0.671234839,-1.057659513,-0.142046621,0.236071159,0.207663553,0.122095200,0.208387146,0.232769318,0.122186912
1702559783.548588,0.000000000,0.000000000,0.000000000,0.000000000,0.000000000,0.000000000,-0.269553065,2.284640312,-3.038771391,-0.328222215,-1.116657495,-0.109491460,0.000000000,0.000000000,0.000000000,0.000000000,0.000000000,0.000000000,0.000000000,0.000000000,0.000000000,0.000000000,0.000000000,0.000000000,0.398084526,-0.399946608,1.848747254,-0.671342431,-1.057678155,-0.142005608,0.236071159,0.207663553,0.122095200,0.209427727,0.231902194,0.122213156
1702559783.559572,0.000000000,0.000000000,0.000000000,0.000000000,0.000000000,0.000000000,-0.466702253,2.152343273,-2.877578735,-0.270534128,-1.127988458,-0.166887552,0.000000000,0.000000000,0.000000000,0.000000000,0.000000000,0.000000000,0.000000000,0.000000000,0.000000000,0.000000000,0.000000000,0.000000000,0.394399244,-0.399946608,1.848508635,-0.671597029,-1.057777758,-0.142031707,0.238232823,0.205180081,0.122095200,0.210336876,0.231111608,0.122234408
1702559783.570761,0.000000000,0.000000000,0.000000000,0.000000000,0.000000000,0.000000000,-0.512463033,2.111998558,-2.969497681,-0.345332533,-1.081952929,-0.161132813,0.000000000,0.000000000,0.000000000,0.000000000,0.000000000,0.000000000,0.000000000,0.000000000,0.000000000,0.000000000,0.000000000,0.000000000,0.390871887,-0.399948206,1.848440458,-0.671693435,-1.057907187,-0.142042360,0.238232823,0.205180081,0.122095200,0.211141230,0.230358932,0.122245526
1702559783.581607,0.000000000,0.000000000,0.000000000,0.000000000,0.000000000,0.000000000,-0.773729444,2.244534254,-2.952457905,-0.334221303,-1.099216223,-0.155378073,0.000000000,0.000000000,0.000000000,0.000000000,0.000000000,0.000000000,0.000000000,0.000000000,0.000000000,0.000000000,0.000000000,0.000000000,0.387473693,-0.399947141,1.848284397,-0.671923000,-1.057937015,-0.142046621,0.238232823,0.205180081,0.122095200,0.211967437,0.229615387,0.122249886
1702559783.593180,0.000000000,0.000000000,0.000000000,0.000000000,0.000000000,0.000000000,-0.466382802,2.111990690,-2.946434259,-0.454624712,-1.053117990,-0.178397045,0.000000000,0.000000000,0.000000000,0.000000000,0.000000000,0.000000000,0.000000000,0.000000000,0.000000000,0.000000000,0.000000000,0.000000000,0.384170575,-0.399943945,1.848262559,-0.671963480,-1.058154861,-0.142031707,0.241074362,0.201833831,0.122095200,0.212678165,0.228910576,0.122267620
1702559783.604156,0.000000000,0.000000000,0.000000000,0.000000000,0.000000000,0.000000000,-0.641905427,2.209828854,-2.963692665,-0.173503369,-0.880494535,-0.172738180,0.000000000,0.000000000,0.000000000,0.000000000,0.000000000,0.000000000,0.000000000,0.000000000,0.000000000,0.000000000,0.000000000,0.000000000,0.379774495,-0.399945010,1.848201839,-0.672455632,-1.058513855,-0.142031707,0.241074362,0.201833831,0.122095200,0.213607746,0.227883622,0.122252123
1702559783.615162,0.000000000,0.000000000,0.000000000,0.000000000,0.000000000,0.000000000,-0.316981375,2.232959032,-3.021261930,0.259984493,-0.538921773,-0.178489834,0.000000000,0.000000000,0.000000000,0.000000000,0.000000000,0.000000000,0.000000000,0.000000000,0.000000000,0.000000000,0.000000000,0.000000000,0.376128094,-0.399946076,1.848226340,-0.673435675,-1.059264867,-0.142039164,0.241074362,0.201833831,0.122095200,0.214227953,0.226904858,0.122199281
1702559783.626128,0.000000000,0.000000000,0.000000000,0.000000000,0.000000000,0.000000000,-0.838318229,2.238661766,-3.004064083,0.460415423,-0.288254619,-0.161132813,0.000000000,0.000000000,0.000000000,0.000000000,0.000000000,0.000000000,0.000000000,0.000000000,0.000000000,0.000000000,0.000000000,0.000000000,0.372885696,-0.399945010,1.848197045,-0.674634098,-1.060263552,-0.142054078,0.243174704,0.199298286,0.122095200,0.214707234,0.225975976,0.122152275
1702559783.637411,0.000000000,0.000000000,0.000000000,0.000000000,0.000000000,0.000000000,-0.650107741,2.273130894,-3.090639830,0.132484138,-0.524187267,-0.138233677,0.000000000,0.000000000,0.000000000,0.000000000,0.000000000,0.000000000,0.000000000,0.000000000,0.000000000,0.000000000,0.000000000,0.000000000,0.369494693,-0.399945010,1.848243384,-0.674978178,-1.060500573,-0.142031707,0.243174704,0.199298286,0.122095200,0.215391738,0.225171798,0.122125238
1702559783.648195,0.000000000,0.000000000,0.000000000,0.000000000,0.000000000,0.000000000,-0.775951982,2.204254389,-3.199823380,-0.046396222,-0.546821713,-0.132484138,0.000000000,0.000000000,0.000000000,0.000000000,0.000000000,0.000000000,0.000000000,0.000000000,0.000000000,0.000000000,0.000000000,0.000000000,0.365361467,-0.399949271,1.848270016,-0.674925980,-1.060522411,-0.142013065,0.243174704,0.199298286,0.122095200,0.216306118,0.224286849,0.122126970
1702559783.659115,0.000000000,0.000000000,0.000000000,0.000000000,0.000000000,0.000000000,-0.575934529,2.204186678,-3.130628109,-0.069056921,-0.506450117,-0.144328222,0.000000000,0.000000000,0.000000000,0.000000000,0.000000000,0.000000000,0.000000000,0.000000000,0.000000000,0.000000000,0.000000000,0.000000000,0.361924391,-0.399946076,1.848180001,-0.674963265,-1.060514955,-0.142024250,0.245248380,0.196740885,0.122095200,0.217109206,0.223546498,0.122138726
1702559783.670022,0.000000000,0.000000000,0.000000000,0.000000000,0.000000000,0.000000000,-0.398118466,2.261621475,-3.130712271,-0.120986551,-0.483432680,-0.138233677,0.000000000,0.000000000,0.000000000,0.000000000,0.000000000,0.000000000,0.000000000,0.000000000,0.000000000,0.000000000,0.000000000,0.000000000,0.358248696,-0.399941815,1.848092116,-0.674955808,-1.060485660,-0.142009337,0.245248380,0.196740885,0.122095200,0.217968499,0.222759966,0.122153613
1702559783.681174,0.000000000,0.000000000,0.000000000,0.000000000,0.000000000,0.000000000,-0.689537346,2.181055307,-3.108205795,-0.139188677,-0.460379452,-0.161235541,0.000000000,0.000000000,0.000000000,0.000000000,0.000000000,0.000000000,0.000000000,0.000000000,0.000000000,0.000000000,0.000000000,0.000000000,0.354709355,-0.399942880,1.848023939,-0.674955808,-1.060470746,-0.142046621,0.245248380,0.196740885,0.122095200,0.218783360,0.221995823,0.122163920
1702559783.692192,0.000000000,0.000000000,0.000000000,0.000000000,0.000000000,0.000000000,-0.139188677,2.181237459,-3.027000666,-0.155484602,-0.397077292,-0.166986749,0.000000000,0.000000000,0.000000000,0.000000000,0.000000000,0.000000000,0.000000000,0.000000000,0.000000000,0.000000000,0.000000000,0.000000000,0.350673601,-0.399942880,1.848002102,-0.675000549,-1.060459561,-0.142034903,0.247295161,0.194161910,0.122095200,0.219687168,0.221104514,0.122161844
1702559783.703067,0.000000000,0.000000000,0.000000000,0.000000000,0.000000000,0.000000000,-0.997962713,2.123695135,-3.154234648,-0.166887552,-0.385610729,-0.178397045,0.000000000,0.000000000,0.000000000,0.000000000,0.000000000,0.000000000,0.000000000,0.000000000,0.000000000,0.000000000,0.000000000,0.000000000,0.347482335,-0.399947141,1.848062822,-0.674985635,-1.060440919,-0.142049817,0.247295161,0.194161910,0.122095200,0.220374448,0.220397068,0.122150272
1702559783.714176,0.000000000,0.000000000,0.000000000,0.000000000,0.000000000,0.000000000,-0.135816813,2.100489140,-3.153788328,-0.126735061,-0.351039350,-0.172642291,0.000000000,0.000000000,0.000000000,0.000000000,0.000000000,0.000000000,0.000000000,0.000000000,0.000000000,0.000000000,0.000000000,0.000000000,0.343490256,-0.399944478,1.848014352,-0.675270061,-1.060404167,-0.142027979,0.247295161,0.194161910,0.122095200,0.221273276,0.219462660,0.122124948
1702559783.725302,0.000000000,0.000000000,0.000000000,0.000000000,0.000000000,0.000000000,-0.811439157,2.244379282,-3.199823380,-0.253470123,-0.293491900,-0.184511110,0.000000000,0.000000000,0.000000000,0.000000000,0.000000000,0.000000000,0.000000000,0.000000000,0.000000000,0.000000000,0.000000000,0.000000000,0.340143195,-0.399942880,1.848031396,-0.675284974,-1.060400439,-0.142027979,0.249981979,0.190690204,0.122095200,0.222001283,0.218715589,0.122120494
1702559783.736276,0.000000000,0.000000000,0.000000000,0.000000000,0.000000000,0.000000000,-0.057834450,2.181055307,-3.205474615,-0.259538263,-0.299301982,-0.178767934,0.000000000,0.000000000,0.000000000,0.000000000,0.000000000,0.000000000,0.000000000,0.000000000,0.000000000,0.000000000,0.000000000,0.000000000,0.336080543,-0.399942347,1.847972807,-0.675322259,-1.060389253,-0.142009337,0.249981979,0.190690204,0.122095200,0.222910972,0.217811334,0.122125763
1702559783.747140,0.000000000,0.000000000,0.000000000,0.000000000,0.000000000,0.000000000,-0.754946887,2.227204561,-3.211399317,-0.316720068,-0.270472944,-0.184511110,0.000000000,0.000000000,0.000000000,0.000000000,0.000000000,0.000000000,0.000000000,0.000000000,0.000000000,0.000000000,0.000000000,0.000000000,0.332665305,-0.399942880,1.847887586,-0.675344629,-1.060367415,-0.142046621,0.249981979,0.190690204,0.122095200,0.223688903,0.217054265,0.122136142
1702559783.758222,0.000000000,0.000000000,0.000000000,0.000000000,0.000000000,0.000000000,-0.331385285,2.284698248,-3.262939453,-0.339578599,-0.253274113,-0.195999488,0.000000000,0.000000000,0.000000000,0.000000000,0.000000000,0.000000000,0.000000000,0.000000000,0.000000000,0.000000000,0.000000000,0.000000000,0.329198935,-0.399940749,1.847851367,-0.675433046,-1.060352502,-0.142046621,0.251965139,0.188061991,0.122095200,0.224454766,0.216263608,0.122132026
1702559783.769197,0.000000000,0.000000000,0.000000000,0.000000000,0.000000000,0.000000000,-0.861060381,2.198379755,-3.154486418,-0.259027362,-0.184511110,-0.230261639,0.000000000,0.000000000,0.000000000,0.000000000,0.000000000,0.000000000,0.000000000,0.000000000,0.000000000,0.000000000,0.000000000,0.000000000,0.325520843,-0.399938086,1.847734187,-0.675655154,-1.060348241,-0.142054078,0.251965139,0.188061991,0.122095200,0.225286670,0.215405147,0.122128147
1702559783.780251,0.000000000,0.000000000,0.000000000,0.000000000,0.000000000,0.000000000,-0.197765663,2.261679888,-3.170884132,-0.374102563,-0.167283967,-0.224508747,0.000000000,0.000000000,0.000000000,0.000000000,0.000000000,0.000000000,0.000000000,0.000000000,0.000000000,0.000000000,0.000000000,0.000000000,0.321618780,-0.399935423,1.847739514,-0.675676992,-1.060315217,-0.142079644,0.251965139,0.188061991,0.122095200,0.226131481,0.214518661,0.122122900
1702559783.791240,0.000000000,0.000000000,0.000000000,0.000000000,0.000000000,0.000000000,-0.496544659,2.290647984,-3.170947075,-0.351227969,-0.126604348,-0.282041132,0.000000000,0.000000000,0.000000000,0.000000000,0.000000000,0.000000000,0.000000000,0.000000000,0.000000000,0.000000000,0.000000000,0.000000000,0.318303410,-0.399930629,1.847661217,-0.675795236,-1.060274737,-0.142064730,0.253920668,0.185413155,0.122095200,0.226877116,0.213752017,0.122121478
1702559783.802162,0.000000000,0.000000000,0.000000000,0.000000000,0.000000000,0.000000000,-0.847531259,2.336489439,-3.165129900,-0.356979668,-0.097999744,-0.299301982,0.000000000,0.000000000,0.000000000,0.000000000,0.000000000,0.000000000,0.000000000,0.000000000,0.000000000,0.000000000,0.000000000,0.000000000,0.314827452,-0.399928499,1.847646836,-0.675865544,-1.060263552,-0.142075916,0.253920668,0.185413155,0.122095200,0.227625053,0.212949177,0.122115889
1702559783.812923,0.000000000,0.000000000,0.000000000,0.000000000,0.000000000,0.000000000,-0.251239210,2.399976254,-3.193903208,-0.144328222,-0.052111421,-0.264780730,0.000000000,0.000000000,0.000000000,0.000000000,0.000000000,0.000000000,0.000000000,0.000000000,0.000000000,0.000000000,0.000000000,0.000000000,0.311309949,-0.399929031,1.847607954,-0.676320944,-1.060234257,-0.142079644,0.253920668,0.185413155,0.122095200,0.228381437,0.212057503,0.122069725
1702559783.823820,0.000000000,0.000000000,0.000000000,0.000000000,0.000000000,0.000000000,-0.913337767,2.416992188,-3.274772406,0.357211500,-0.040692180,-0.270534128,0.000000000,0.000000000,0.000000000,0.000000000,0.000000000,0.000000000,0.000000000,0.000000000,0.000000000,0.000000000,0.000000000,0.000000000,0.307838785,-0.399932227,1.847493438,-0.677452788,-1.060229996,-0.142083373,0.255848352,0.182743986,0.122095200,0.229126576,0.211044175,0.121963192
1702559783.834682,0.000000000,0.000000000,0.000000000,0.000000000,0.000000000,0.000000000,-0.301232100,2.393973112,-2.976454020,0.253274113,-0.011509486,-0.218755960,0.000000000,0.000000000,0.000000000,0.000000000,0.000000000,0.000000000,0.000000000,0.000000000,0.000000000,0.000000000,0.000000000,0.000000000,0.303520469,-0.399926368,1.847201555,-0.678540423,-1.060234257,-0.142083373,0.255848352,0.182743986,0.122095200,0.230109899,0.209863038,0.121895677
1702559783.845427,0.000000000,0.000000000,0.000000000,0.000000000,0.000000000,0.000000000,-0.883179665,2.388246298,-3.027000666,0.150065333,0.028773716,-0.241767704,0.000000000,0.000000000,0.000000000,0.000000000,0.000000000,0.000000000,0.000000000,0.000000000,0.000000000,0.000000000,0.000000000,0.000000000,0.300670088,-0.399921575,1.846926184,-0.678776911,-1.060219344,-0.142090829,0.255848352,0.182743986,0.122095200,0.230804260,0.209188467,0.121917475
1702559783.856296,0.000000000,0.000000000,0.000000000,0.000000000,0.000000000,0.000000000,-0.147505641,2.526391268,-2.963782310,0.036396194,0.052111421,-0.287794709,0.000000000,0.000000000,0.000000000,0.000000000,0.000000000,0.000000000,0.000000000,0.000000000,0.000000000,0.000000000,0.000000000,0.000000000,0.296410362,-0.399918379,1.846794624,-0.678817391,-1.060056358,-0.142094558,0.258374917,0.179153972,0.122095200,0.231780352,0.208205162,0.121923691
1702559783.868144,0.000000000,0.000000000,0.000000000,0.000000000,0.000000000,0.000000000,-0.725211799,2.451689482,-3.015485525,0.028773716,0.063563213,-0.287794709,0.000000000,0.000000000,0.000000000,0.000000000,0.000000000,0.000000000,0.000000000,0.000000000,0.000000000,0.000000000,0.000000000,0.000000000,0.293038800,-0.399902932,1.846673184,-0.678880242,-1.060030792,-0.142102015,0.258374917,0.179153972,0.122095200,0.232531279,0.207422736,0.121940147
1702559783.879290,0.000000000,0.000000000,0.000000000,0.000000000,0.000000000,0.000000000,-0.058687095,2.509127378,-2.952205658,0.023018973,0.138233677,-0.356840491,0.000000000,0.000000000,0.000000000,0.000000000,0.000000000,0.000000000,0.000000000,0.000000000,0.000000000,0.000000000,0.000000000,0.000000000,0.288486925,-0.399891215,1.846538961,-0.678832305,-1.060023335,-0.142138766,0.258374917,0.179153972,0.122095200,0.233526535,0.206386611,0.121971446
1702559783.890227,0.000000000,0.000000000,0.000000000,0.000000000,0.000000000,0.000000000,-0.927656770,2.405544758,-2.923415184,0.018198097,0.155378073,-0.379987389,0.000000000,0.000000000,0.000000000,0.000000000,0.000000000,0.000000000,0.000000000,0.000000000,0.000000000,0.000000000,0.000000000,0.000000000,0.285497793,-0.399891215,1.846544287,-0.678817391,-1.059982322,-0.142182975,0.260236812,0.176438503,0.122095200,0.234151059,0.205688854,0.121968892
1702559783.901097,0.000000000,0.000000000,0.000000000,0.000000000,0.000000000,0.000000000,-0.054594286,2.566673517,-2.975341320,0.057834450,0.178397045,-0.402832031,0.000000000,0.000000000,0.000000000,0.000000000,0.000000000,0.000000000,0.000000000,0.000000000,0.000000000,0.000000000,0.000000000,0.000000000,0.281286536,-0.399886953,1.846480904,-0.678832305,-1.059982322,-0.142230912,0.260236812,0.176438503,0.122095200,0.235038283,0.204704728,0.121979454
1702559783.912669,0.000000000,0.000000000,0.000000000,0.000000000,0.000000000,0.000000000,-0.659163117,2.543655157,-3.027262926,0.018198097,0.212925494,-0.397077292,0.000000000,0.000000000,0.000000000,0.000000000,0.000000000,0.000000000,0.000000000,0.000000000,0.000000000,0.000000000,0.000000000,0.000000000,0.278141610,-0.399888551,1.846493154,-0.678776911,-1.059967941,-0.142245825,0.260236812,0.176438503,0.122095200,0.235681651,0.203974059,0.121981840
1702559783.923619,0.000000000,0.000000000,0.000000000,0.000000000,0.000000000,0.000000000,-0.125685498,2.526332378,-3.015507698,0.058687095,0.189906523,-0.425850987,0.000000000,0.000000000,0.000000000,0.000000000,0.000000000,0.000000000,0.000000000,0.000000000,0.000000000,0.000000000,0.000000000,0.000000000,0.274032618,-0.399884290,1.846448946,-0.678917526,-1.059819869,-0.142283110,0.262070169,0.173703685,0.122095200,0.236566029,0.202974849,0.121963382
1702559783.934635,0.000000000,0.000000000,0.000000000,0.000000000,0.000000000,0.000000000,-0.818752527,2.514928102,-3.021240234,0.012867997,0.213003263,-0.431644112,0.000000000,0.000000000,0.000000000,0.000000000,0.000000000,0.000000000,0.000000000,0.000000000,0.000000000,0.000000000,0.000000000,0.000000000,0.270727103,-0.399876833,1.846446815,-0.678895156,-1.059764476,-0.142290567,0.262070169,0.173703685,0.122095200,0.237251736,0.202194865,0.121963907
1702559783.945554,0.000000000,0.000000000,0.000000000,0.000000000,0.000000000,0.000000000,-0.511266112,2.641483545,-3.055773973,-0.011509486,0.264780730,-0.397244036,0.000000000,0.000000000,0.000000000,0.000000000,0.000000000,0.000000000,0.000000000,0.000000000,0.000000000,0.000000000,0.000000000,0.000000000,0.266932098,-0.399861387,1.846431902,-0.678961735,-1.059764476,-0.142301219,0.262070169,0.173703685,0.122095200,0.238022231,0.201281443,0.121963519
1702559783.956367,0.000000000,0.000000000,0.000000000,0.000000000,0.000000000,0.000000000,-0.615111828,2.612811804,-3.044346333,-0.046396222,0.305055678,-0.546730876,0.000000000,0.000000000,0.000000000,0.000000000,0.000000000,0.000000000,0.000000000,0.000000000,0.000000000,0.000000000,0.000000000,0.000000000,0.263292889,-0.399814515,1.846378638,-0.678946821,-1.059752758,-0.142320394,0.264469906,0.170027682,0.122095200,0.238781573,0.200423247,0.121986732
1702559783.967218,0.000000000,0.000000000,0.000000000,0.000000000,0.000000000,0.000000000,-0.588786483,2.665843964,-3.055790424,-0.087085068,0.322471082,-0.495041728,0.000000000,0.000000000,0.000000000,0.000000000,0.000000000,0.000000000,0.000000000,0.000000000,0.000000000,0.000000000,0.000000000,0.000000000,0.259702415,-0.399644606,1.846371182,-0.678887699,-1.059727191,-0.142397626,0.264469906,0.170027682,0.122095200,0.239530775,0.199581719,0.122040552
1702559783.977993,0.000000000,0.000000000,0.000000000,0.000000000,0.000000000,0.000000000,-0.484390765,2.532250643,-3.033099174,-0.086321145,0.397118986,-0.587096632,0.000000000,0.000000000,0.000000000,0.000000000,0.000000000,0.000000000,0.000000000,0.000000000,0.000000000,0.000000000,0.000000000,0.000000000,0.256058678,-0.399444336,1.846271579,-0.678902612,-1.059719735,-0.142441834,0.264469906,0.170027682,0.122095200,0.240317677,0.198719996,0.122112261
1702559783.988995,0.000000000,0.000000000,0.000000000,0.000000000,0.000000000,0.000000000,-0.880494535,2.325265169,-2.940673828,-0.074811660,0.374102563,-0.552455366,0.000000000,0.000000000,0.000000000,0.000000000,0.000000000,0.000000000,0.000000000,0.000000000,0.000000000,0.000000000,0.000000000,0.000000000,0.252672468,-0.399289340,1.846042548,-0.678961735,-1.059645699,-0.142479118,0.266235898,0.167248887,0.122095200,0.241107327,0.197916556,0.122183536
1702559784.000175,0.000000000,0.000000000,0.000000000,0.000000000,0.000000000,0.000000000,-0.218377143,2.307680607,-2.727900028,-0.057834450,0.345476359,-0.558239758,0.000000000,0.000000000,0.000000000,0.000000000,0.000000000,0.000000000,0.000000000,0.000000000,0.000000000,0.000000000,0.000000000,0.000000000,0.248556287,-0.399214772,1.845850267,-0.679039499,-1.059449690,-0.142523859,0.266235898,0.167248887,0.122095200,0.242044347,0.196918891,0.122213955
1702559784.011230,0.000000000,0.000000000,0.000000000,0.000000000,0.000000000,0.000000000,-0.421512872,2.376736879,-2.825672626,-0.103745103,0.195745870,-0.621538937,0.000000000,0.000000000,0.000000000,0.000000000,0.000000000,0.000000000,0.000000000,0.000000000,0.000000000,0.000000000,0.000000000,0.000000000,0.244756488,-0.399214772,1.845716577,-0.678987834,-1.059109338,-0.142571796,0.266235898,0.167248887,0.122095200,0.242925537,0.196006488,0.122215935
1702559784.022085,0.000000000,0.000000000,0.000000000,0.000000000,0.000000000,0.000000000,-0.308456391,2.549409628,-2.894841909,-0.138113841,-0.094909653,-0.598603964,0.000000000,0.000000000,0.000000000,0.000000000,0.000000000,0.000000000,0.000000000,0.000000000,0.000000000,0.000000000,0.000000000,0.000000000,0.241183059,-0.399195064,1.845692076,-0.679046956,-1.058425438,-0.142582449,0.267972694,0.164451752,0.122095200,0.243800914,0.195099092,0.122165046
1702559784.032892,0.000000000,0.000000000,0.000000000,0.000000000,0.000000000,0.000000000,-0.837290406,2.457282066,-2.888904095,-0.189993694,-0.448869973,-0.535314858,0.000000000,0.000000000,0.000000000,0.000000000,0.000000000,0.000000000,0.000000000,0.000000000,0.000000000,0.000000000,0.000000000,0.000000000,0.238023485,-0.399190803,1.845711250,-0.679180114,-1.057374555,-0.142616005,0.267972694,0.164451752,0.122095200,0.244661461,0.194253918,0.122065092
1702559784.043671,0.000000000,0.000000000,0.000000000,0.000000000,0.000000000,0.000000000,-0.059248708,2.537868023,-3.004328728,-0.276287615,-0.340746909,-0.558328748,0.000000000,0.000000000,0.000000000,0.000000000,0.000000000,0.000000000,0.000000000,0.000000000,0.000000000,0.000000000,0.000000000,0.000000000,0.233914493,-0.399191868,1.845738415,-0.679172657,-1.056772148,-0.142601091,0.267972694,0.164451752,0.122095200,0.245595223,0.193219398,0.122013306
1702559784.054658,0.000000000,0.000000000,0.000000000,0.000000000,0.000000000,0.000000000,-0.692962885,2.474599838,-2.923409462,-0.293717504,-0.237064689,-0.696537912,0.000000000,0.000000000,0.000000000,0.000000000,0.000000000,0.000000000,0.000000000,0.000000000,0.000000000,0.000000000,0.000000000,0.000000000,0.230331476,-0.399186542,1.845653193,-0.679294630,-1.056767887,-0.142627190,0.269680104,0.161636583,0.122095200,0.246313846,0.192320848,0.122015946
1702559784.065485,0.000000000,0.000000000,0.000000000,0.000000000,0.000000000,0.000000000,-0.232764974,2.618408203,-2.946434259,-0.161235541,-0.305055678,-0.679059684,0.000000000,0.000000000,0.000000000,0.000000000,0.000000000,0.000000000,0.000000000,0.000000000,0.000000000,0.000000000,0.000000000,0.000000000,0.226650988,-0.399184412,1.845616442,-0.679605687,-1.056609162,-0.142704954,0.269680104,0.161636583,0.122095200,0.247059065,0.191345994,0.121976205
1702559784.076444,0.000000000,0.000000000,0.000000000,0.000000000,0.000000000,0.000000000,-0.691168368,2.635672331,-2.986800671,0.220565140,-0.368303567,-0.696347713,0.000000000,0.000000000,0.000000000,0.000000000,0.000000000,0.000000000,0.000000000,0.000000000,0.000000000,0.000000000,0.000000000,0.000000000,0.223335618,-0.399184412,1.845597267,-0.680234193,-1.056627272,-0.142749163,0.269680104,0.161636583,0.122095200,0.247666927,0.190401335,0.121911804
1702559784.087648,0.000000000,0.000000000,0.000000000,0.000000000,0.000000000,0.000000000,-0.473045498,2.629924059,-2.923432112,0.494941384,-0.316510886,-0.788483858,0.000000000,0.000000000,0.000000000,0.000000000,0.000000000,0.000000000,0.000000000,0.000000000,0.000000000,0.000000000,0.000000000,0.000000000,0.220015456,-0.399181216,1.845628692,-0.681044327,-1.056616619,-0.142830656,0.271910616,0.157855505,0.122095200,0.248252740,0.189411351,0.121817290
1702559784.098585,0.000000000,0.000000000,0.000000000,0.000000000,0.000000000,0.000000000,-0.736629605,2.618414402,-2.969804287,0.529561460,-0.328827053,-0.788588762,0.000000000,0.000000000,0.000000000,0.000000000,0.000000000,0.000000000,0.000000000,0.000000000,0.000000000,0.000000000,0.000000000,0.000000000,0.215881963,-0.399181216,1.845638812,-0.682076035,-1.056727407,-0.142893506,0.271910616,0.157855505,0.122095200,0.248955760,0.188179853,0.121710919
1702559784.109549,0.000000000,0.000000000,0.000000000,0.000000000,0.000000000,0.000000000,-0.300130665,2.572891712,-3.027131557,0.345284581,-0.356979668,-0.708043933,0.000000000,0.000000000,0.000000000,0.000000000,0.000000000,0.000000000,0.000000000,0.000000000,0.000000000,0.000000000,0.000000000,0.000000000,0.211887488,-0.399176955,1.845640943,-0.682209193,-1.056749777,-0.142956357,0.271910616,0.157855505,0.122095200,0.249693548,0.187158083,0.121698899
1702559784.120548,0.000000000,0.000000000,0.000000000,0.000000000,0.000000000,0.000000000,-0.352216601,2.595414639,-2.986761570,0.328020364,-0.385610729,-0.753893316,0.000000000,0.000000000,0.000000000,0.000000000,0.000000000,0.000000000,0.000000000,0.000000000,0.000000000,0.000000000,0.000000000,0.000000000,0.208674384,-0.399166302,1.845636149,-0.682239021,-1.056746049,-0.143019207,0.273548736,0.154999460,0.122095200,0.250296173,0.186349271,0.121699190
1702559784.131407,0.000000000,0.000000000,0.000000000,0.000000000,0.000000000,0.000000000,-0.106112219,2.560860634,-3.050149441,0.357211500,-0.437360495,-0.707833409,0.000000000,0.000000000,0.000000000,0.000000000,0.000000000,0.000000000,0.000000000,0.000000000,0.000000000,0.000000000,0.000000000,0.000000000,0.204407201,-0.399140203,1.845577560,-0.682313057,-1.056731135,-0.143078330,0.273548736,0.154999460,0.122095200,0.251114055,0.185268998,0.121707525
1702559784.142279,0.000000000,0.000000000,0.000000000,0.000000000,0.000000000,0.000000000,-0.679059684,2.613166809,-3.026994944,0.310809404,-0.529561460,-0.679279149,0.000000000,0.000000000,0.000000000,0.000000000,0.000000000,0.000000000,0.000000000,0.000000000,0.000000000,0.000000000,0.000000000,0.000000000,0.200797286,-0.399100256,1.845565309,-0.682286958,-1.056723678,-0.143107624,0.273548736,0.154999460,0.122095200,0.251793616,0.184368053,0.121723268
1702559784.153661,0.000000000,0.000000000,0.000000000,0.000000000,0.000000000,0.000000000,-0.605589330,2.659588099,-3.078792810,0.264780730,-0.500695705,-0.713611364,0.000000000,0.000000000,0.000000000,0.000000000,0.000000000,0.000000000,0.000000000,0.000000000,0.000000000,0.000000000,0.000000000,0.000000000,0.197498961,-0.399031014,1.845594604,-0.682327438,-1.056772148,-0.143167279,0.275156858,0.152126418,0.122095200,0.252383923,0.183530448,0.121737146
1702559784.164378,0.000000000,0.000000000,0.000000000,0.000000000,0.000000000,0.000000000,-0.508505702,2.440255404,-3.084563732,0.270534128,-0.558210075,-0.725097656,0.000000000,0.000000000,0.000000000,0.000000000,0.000000000,0.000000000,0.000000000,0.000000000,0.000000000,0.000000000,0.000000000,0.000000000,0.193499426,-0.398919161,1.845582353,-0.682353537,-1.056797714,-0.143429334,0.275156858,0.152126418,0.122095200,0.253126322,0.182519205,0.121770140
1702559784.175333,0.000000000,0.000000000,0.000000000,0.000000000,0.000000000,0.000000000,-0.444272131,2.491810560,-3.061609745,0.264968276,-0.587237597,-0.656066000,0.000000000,0.000000000,0.000000000,0.000000000,0.000000000,0.000000000,0.000000000,0.000000000,0.000000000,0.000000000,0.000000000,0.000000000,0.189804556,-0.398910106,1.845572766,-0.682313057,-1.056805171,-0.143736663,0.275156858,0.152126418,0.122095200,0.253803871,0.181592120,0.121779412
1702559784.186619,0.000000000,0.000000000,0.000000000,0.000000000,0.000000000,0.000000000,-0.432563812,2.589640856,-3.050062656,0.316563189,-0.621938407,-0.081384361,0.000000000,0.000000000,0.000000000,0.000000000,0.000000000,0.000000000,0.000000000,0.000000000,0.000000000,0.000000000,0.000000000,0.000000000,0.185870801,-0.398886138,1.845497132,-0.682319981,-1.056815824,-0.144702325,0.276734806,0.149236694,0.122095200,0.254544372,0.180597363,0.121799502
1702559784.197617,0.000000000,0.000000000,0.000000000,0.000000000,0.000000000,0.000000000,-0.731961727,2.480354309,-2.986800671,0.333824724,-0.627926588,-0.041895162,0.000000000,0.000000000,0.000000000,0.000000000,0.000000000,0.000000000,0.000000000,0.000000000,0.000000000,0.000000000,0.000000000,0.000000000,0.182745315,-0.398830744,1.845509383,-0.682301871,-1.056827542,-0.145752676,0.276734806,0.149236694,0.122095200,0.255107728,0.179805575,0.121815975
1702559784.208529,0.000000000,0.000000000,0.000000000,0.000000000,0.000000000,0.000000000,-0.140018955,2.480401039,-3.056207657,0.339578599,-0.627293408,-0.207250670,0.000000000,0.000000000,0.000000000,0.000000000,0.000000000,0.000000000,0.000000000,0.000000000,0.000000000,0.000000000,0.000000000,0.000000000,0.178789722,-0.398648051,1.845499795,-0.682402006,-1.056875479,-0.145859735,0.276734806,0.149236694,0.122095200,0.255825474,0.178782370,0.121862222
1702559784.220032,0.000000000,0.000000000,0.000000000,0.000000000,0.000000000,0.000000000,-0.676837087,2.417053699,-3.124825478,0.305218488,-0.679669082,-0.201744571,0.000000000,0.000000000,0.000000000,0.000000000,0.000000000,0.000000000,0.000000000,0.000000000,0.000000000,0.000000000,0.000000000,0.000000000,0.175299117,-0.398543122,1.845546134,-0.682346080,-1.056930872,-0.145848550,0.278791501,0.145358326,0.122095200,0.256432789,0.177901862,0.121894358
