tud-amr/mobile-manipulator-compliance/recordings/2023-12-14/no_null_no_fric.csv
__time,/record/cur_comp.0,/record/cur_comp.1,/record/cur_comp.2,/record/cur_comp.3,/record/cur_comp.4,/record/cur_comp.5,/record/cur_fb.0,/record/cur_fb.1,/record/cur_fb.2,/record/cur_fb.3,/record/cur_fb.4,/record/cur_fb.5,/record/cur_fric.0,/record/cur_fric.1,/record/cur_fric.2,/record/cur_fric.3,/record/cur_fric.4,/record/cur_fric.5,/record/cur_null.0,/record/cur_null.1,/record/cur_null.2,/record/cur_null.3,/record/cur_null.4,/record/cur_null.5,/record/pos_q.0,/record/pos_q.1,/record/pos_q.2,/record/pos_q.3,/record/pos_q.4,/record/pos_q.5,/record/pos_t.0,/record/pos_t.1,/record/pos_t.2,/record/pos_x.0,/record/pos_x.1,/record/pos_x.2
1702560571.652493,-0.430514947,0.076969611,-0.311489546,-0.256085360,0.447228418,-0.000000000,-0.448906839,1.709168434,-2.848969936,-0.057834450,0.088030644,-0.351227969,-0.256388676,-0.529070199,0.399429519,0.171422837,0.209597499,-0.276988817,-0.040533756,-0.001737825,0.020852715,0.151408837,0.081534118,0.005061306,0.822192930,-0.350271730,1.934114350,-0.701720577,-0.933437962,0.000947020,0.153630648,0.274127531,0.122024584,0.108581380,0.283496056,0.108940494
1702560571.663779,-0.394188432,0.074081125,-0.263211766,-0.244271764,0.369104429,0.000000000,-0.414501339,1.576841593,-2.831707954,-0.092255555,0.089337640,-0.385610729,-0.256388676,-0.529070199,0.399429519,0.171422837,0.209597499,-0.276988817,-0.040533756,-0.001737825,0.020852715,0.151408837,0.081534118,0.005061306,0.822093327,-0.350271730,1.934102100,-0.701798341,-0.923662030,0.000961667,0.153630648,0.274127531,0.122024584,0.110964925,0.284284931,0.108344160
1702560571.674821,-0.335382216,0.070546658,-0.190967102,-0.222614981,0.241016435,-0.000000000,-0.402832031,1.709507465,-2.843425512,-0.080771670,-0.054594286,-0.339578599,-0.256388676,-0.529070199,0.399429519,0.171422837,0.209597499,-0.276988817,-0.040533756,-0.001737825,0.020852715,0.151408837,0.081534118,0.005061306,0.821901047,-0.350271730,1.934068011,-0.702005535,-0.913645349,0.000957939,0.153630648,0.274127531,0.122024584,0.113457981,0.285053267,0.107746053
1702560571.686195,-0.377258451,0.073769630,-0.215620141,-0.251341371,0.300474498,0.000000000,-0.386254311,1.674877405,-2.888904095,-0.122076541,-0.061980482,-0.339968473,-0.256388676,-0.529070199,0.399429519,0.171422837,0.209597499,-0.276988817,-0.040533756,-0.001737825,0.020852715,0.151408837,0.081534118,0.005061306,0.821523677,-0.350267469,1.934055761,-0.702434304,-0.904095253,0.000976581,0.157443091,0.271955791,0.122024584,0.115911622,0.285704180,0.107171888
1702560571.697537,-0.276185761,0.086016734,-0.230002210,-0.122398697,0.185572509,0.000000000,-0.333824724,1.559545994,-2.763002157,-0.096467070,-0.043826818,-0.420135677,-0.256388676,-0.529070199,0.399429519,0.171422837,0.209597499,-0.276988817,-0.040533756,-0.001737825,0.020852715,0.151408837,0.081534118,0.005061306,0.820705820,-0.350271730,1.934104763,-0.705182686,-0.894774189,0.000965396,0.157443091,0.271955791,0.122024584,0.118601782,0.285844928,0.106407773
1702560571.708728,-0.317289530,0.089367849,-0.269694060,-0.144480395,0.264365806,-0.000000000,-0.310969204,1.600191116,-2.831386328,-0.034528460,-0.132858559,-0.402873129,-0.256388676,-0.529070199,0.399429519,0.171422837,0.209597499,-0.276988817,-0.040533756,-0.001737825,0.020852715,0.151408837,0.081534118,0.005061306,0.820773997,-0.350269067,1.934048836,-0.709344142,-0.886910407,0.000976581,0.157443091,0.271955791,0.122024584,0.120827928,0.285754772,0.105639920
1702560571.719893,-0.300412075,0.090660901,-0.253657163,-0.136918718,0.227648720,0.000000000,-0.358460933,1.766715527,-2.866006374,-0.092970721,0.033555631,-0.385610729,-0.256388676,-0.529070199,0.399429519,0.171422837,0.209597499,-0.276988817,-0.040533756,-0.001737825,0.020852715,0.151408837,0.081534118,0.005061306,0.820844305,-0.350268534,1.934031792,-0.714537306,-0.878591757,0.000987500,0.160282320,0.270292170,0.122024584,0.123239646,0.285510066,0.104773604
1702560571.731156,-0.316643305,0.088352899,-0.241479871,-0.164617005,0.239021355,0.000000000,-0.328222215,1.743696690,-2.888972759,-0.034528460,-0.034528460,-0.351227969,-0.256388676,-0.529070199,0.399429519,0.171422837,0.209597499,-0.276988817,-0.040533756,-0.001737825,0.020852715,0.151408837,0.081534118,0.005061306,0.820808086,-0.350268534,1.933966278,-0.718897966,-0.871205214,0.000961667,0.160282320,0.270292170,0.122024584,0.125410519,0.285340998,0.104057575
1702560571.742662,-0.259803281,0.093032701,-0.243584880,-0.101626293,0.178059930,0.000000000,-0.281982422,1.675618887,-2.865885258,-0.065107487,-0.080771670,-0.345332533,-0.256388676,-0.529070199,0.399429519,0.171422837,0.209597499,-0.276988817,-0.040533756,-0.001737825,0.020852715,0.151408837,0.081534118,0.005061306,0.820574260,-0.350270664,1.934021672,-0.724682884,-0.862719850,0.000965396,0.160282320,0.270292170,0.122024584,0.127990856,0.284952247,0.103168402
1702560571.754254,-0.262719648,0.098071463,-0.254172790,-0.099115442,0.178889926,0.000000000,-0.299744248,1.726576447,-2.837298393,-0.047454827,-0.062247068,-0.380205214,-0.256388676,-0.529070199,0.399429519,0.171422837,0.209597499,-0.276988817,-0.040533756,-0.001737825,0.020852715,0.151408837,0.081534118,0.005061306,0.820396627,-0.350271197,1.934012085,-0.730579123,-0.854656331,0.000983772,0.163103973,0.268598908,0.122024584,0.130486573,0.284541911,0.102330329
1702560571.765771,-0.261133447,0.100100809,-0.265569728,-0.092979504,0.189045867,0.000000000,-0.299301982,1.778671980,-2.877377510,-0.046037946,-0.023727413,-0.402996421,-0.256388676,-0.529070199,0.399429519,0.171422837,0.209597499,-0.276988817,-0.040533756,-0.001737825,0.020852715,0.151408837,0.081534118,0.005061306,0.820381980,-0.350271197,1.934024335,-0.735398912,-0.847684175,0.000965396,0.163103973,0.268598908,0.122024584,0.132583654,0.284250001,0.101646343
1702560571.777245,-0.303566571,0.101834319,-0.290929323,-0.127769237,0.256239953,0.000000000,-0.248055458,1.784722090,-2.894687414,-0.023727413,-0.058687095,-0.385567784,-0.256388676,-0.529070199,0.399429519,0.171422837,0.209597499,-0.276988817,-0.040533756,-0.001737825,0.020852715,0.151408837,0.081534118,0.005061306,0.820221391,-0.350268534,1.934033923,-0.741890101,-0.842375962,0.000939563,0.165907740,0.266876191,0.122024584,0.134451834,0.283533960,0.100914976
1702560571.788481,-0.276092710,0.101157854,-0.261963776,-0.116368385,0.200097407,0.000000000,-0.282041132,1.806989431,-2.877394676,-0.084967762,0.077207983,-0.385954112,-0.256388676,-0.529070199,0.399429519,0.171422837,0.209597499,-0.276988817,-0.040533756,-0.001737825,0.020852715,0.151408837,0.081534118,0.005061306,0.820145758,-0.350268534,1.933900232,-0.747885942,-0.836584120,0.000965396,0.165907740,0.266876191,0.122024584,0.136421074,0.282997909,0.100251045
1702560571.799927,-0.259395068,0.103055390,-0.272025227,-0.095556777,0.195120652,0.000000000,-0.288254619,1.651861906,-2.923500299,-0.043826818,0.018198097,-0.374102563,-0.256388676,-0.529070199,0.399429519,0.171422837,0.209597499,-0.276988817,-0.040533756,-0.001737825,0.020852715,0.151408837,0.081534118,0.005061306,0.819897551,-0.350270664,1.933985453,-0.753822660,-0.831113454,0.000957939,0.165907740,0.266876191,0.122024584,0.138299863,0.282363719,0.099576323
1702560571.811522,-0.271163536,0.110871823,-0.297366356,-0.095221046,0.212601114,0.000000000,-0.241699219,1.755347490,-2.819877148,-0.075032666,-0.028773716,-0.362594485,-0.256388676,-0.529070199,0.399429519,0.171422837,0.209597499,-0.276988817,-0.040533756,-0.001737825,0.020852715,0.151408837,0.081534118,0.005061306,0.819948684,-0.350266403,1.933975866,-0.759755118,-0.826375158,0.000976581,0.169617741,0.264533743,0.122024584,0.139945008,0.281749712,0.098965051
1702560571.822904,-0.270450817,0.106544167,-0.266578110,-0.113936488,0.190300567,-0.000000000,-0.293717504,1.818498850,-2.958139658,-0.046396222,0.056677647,-0.345332533,-0.256388676,-0.529070199,0.399429519,0.171422837,0.209597499,-0.276988817,-0.040533756,-0.001737825,0.020852715,0.151408837,0.081534118,0.005061306,0.819916992,-0.350266936,1.933975866,-0.765480914,-0.821651775,0.000961667,0.169617741,0.264533743,0.122024584,0.141594606,0.281159565,0.098381120
1702560571.835140,-0.256299392,0.110402826,-0.287550493,-0.090023445,0.193811546,-0.000000000,-0.283446670,1.732216001,-2.941034079,-0.154415965,-0.017264230,-0.391364872,-0.256388676,-0.529070199,0.399429519,0.171422837,0.209597499,-0.276988817,-0.040533756,-0.001737825,0.020852715,0.151408837,0.081534118,0.005061306,0.819912198,-0.350269599,1.933968409,-0.770862630,-0.818781420,0.000961667,0.169617741,0.264533743,0.122024584,0.142755979,0.280493857,0.097894354
1702560571.846376,-0.342368949,0.115314394,-0.350869529,-0.152676516,0.335817756,0.000000000,-0.277185142,1.743725181,-2.906168222,-0.099008352,-0.020749021,-0.362731457,-0.256388676,-0.529070199,0.399429519,0.171422837,0.209597499,-0.276988817,-0.040533756,-0.001737825,0.020852715,0.151408837,0.081534118,0.005061306,0.819914595,-0.350268534,1.933917276,-0.777520533,-0.815777907,0.000935835,0.172378581,0.262743038,0.122024584,0.144072424,0.279647171,0.097330146
1702560571.857504,-0.313434379,0.116852785,-0.345479175,-0.127349025,0.300919356,0.000000000,-0.305489630,1.686620951,-2.900442123,-0.142364487,0.069056921,-0.339724869,-0.256388676,-0.529070199,0.399429519,0.171422837,0.209597499,-0.276988817,-0.040533756,-0.001737825,0.020852715,0.151408837,0.081534118,0.005061306,0.819880507,-0.350272795,1.933966278,-0.782277471,-0.812711544,0.000980310,0.172378581,0.262743038,0.122024584,0.145229748,0.279086556,0.096888745
1702560571.869192,-0.290561911,0.113357513,-0.308582480,-0.123625284,0.246705159,0.000000000,-0.293548316,1.634438276,-2.894778728,-0.103745103,0.144900739,-0.357211500,-0.256388676,-0.529070199,0.399429519,0.171422837,0.209597499,-0.276988817,-0.040533756,-0.001737825,0.020852715,0.151408837,0.081534118,0.005061306,0.819895154,-0.350270664,1.933975866,-0.787725766,-0.809711759,0.000980310,0.172378581,0.262743038,0.122024584,0.146430817,0.278430848,0.096418467
1702560571.881540,-0.341792120,0.116876644,-0.344807379,-0.163365305,0.327062016,-0.000000000,-0.316563189,1.599984288,-3.009780169,-0.120986551,0.150065333,-0.351463616,-0.256388676,-0.529070199,0.399429519,0.171422837,0.209597499,-0.276988817,-0.040533756,-0.001737825,0.020852715,0.151408837,0.081534118,0.005061306,0.819899948,-0.350269067,1.933926864,-0.792172180,-0.809027859,0.000969124,0.175120518,0.260923520,0.122024584,0.146995462,0.277774936,0.096099740
1702560571.893660,-0.286671839,0.118035297,-0.319505432,-0.118011455,0.243575619,0.000000000,-0.356979668,1.761036038,-3.004064083,-0.190689638,0.147953987,-0.362959653,-0.256388676,-0.529070199,0.399429519,0.171422837,0.209597499,-0.276988817,-0.040533756,-0.001737825,0.020852715,0.151408837,0.081534118,0.005061306,0.819778241,-0.350266936,1.933883188,-0.796884377,-0.807344741,0.000972853,0.175120518,0.260923520,0.122024584,0.147866473,0.277136690,0.095739145
1702560571.905070,-0.278931709,0.118751422,-0.317381563,-0.113382581,0.233712515,0.000000000,-0.300130665,1.766715527,-2.975291491,-0.092255555,0.098505341,-0.339578599,-0.256388676,-0.529070199,0.399429519,0.171422837,0.209597499,-0.276988817,-0.040533756,-0.001737825,0.020852715,0.151408837,0.081534118,0.005061306,0.819831771,-0.350266936,1.934031792,-0.802473287,-0.804540965,0.000932106,0.175120518,0.260923520,0.122024584,0.148991335,0.276416603,0.095255691
1702560571.916664,-0.373056537,0.127478450,-0.415073715,-0.171617060,0.415199565,0.000000000,-0.282041132,1.732177734,-2.975207806,-0.155803755,0.105014205,-0.391491741,-0.256388676,-0.529070199,0.399429519,0.171422837,0.209597499,-0.276988817,-0.040533756,-0.001737825,0.020852715,0.151408837,0.081534118,0.005061306,0.819826977,-0.350269599,1.933990247,-0.807681365,-0.802232537,0.000950482,0.177843251,0.259075389,0.122024584,0.150033090,0.275770599,0.094856878
1702560571.927742,-0.365402552,0.116139662,-0.339483528,-0.200988332,0.347329015,0.000000000,-0.357535869,1.715000391,-3.026994944,-0.184151784,0.277722239,-0.379987389,-0.256388676,-0.529070199,0.399429519,0.171422837,0.209597499,-0.276988817,-0.040533756,-0.001737825,0.020852715,0.151408837,0.081534118,0.005061306,0.819839228,-0.350262675,1.933819804,-0.810200183,-0.802377413,0.000947020,0.177843251,0.259075389,0.122024584,0.150265649,0.275405355,0.094729671
1702560571.939227,-0.364287862,0.123196637,-0.382449261,-0.181299864,0.379540362,0.000000000,-0.362731457,1.795516729,-3.113363743,-0.172738180,0.230261639,-0.339578599,-0.256388676,-0.529070199,0.399429519,0.171422837,0.209597499,-0.276988817,-0.040533756,-0.001737825,0.020852715,0.151408837,0.081534118,0.005061306,0.819780638,-0.350268534,1.933746834,-0.813669749,-0.802495658,0.000961667,0.177843251,0.259075389,0.122024584,0.150581383,0.274847297,0.094515491
1702560571.950414,-0.366584880,0.133922083,-0.434636591,-0.161511934,0.414541462,0.000000000,-0.408586770,1.790474296,-3.021245718,-0.207490206,0.247520864,-0.356979668,-0.256388676,-0.529070199,0.399429519,0.171422837,0.209597499,-0.276988817,-0.040533756,-0.001737825,0.020852715,0.151408837,0.081534118,0.005061306,0.819780638,-0.350269599,1.933727659,-0.818589140,-0.802421089,0.000957939,0.181443173,0.256567056,0.122024584,0.151045966,0.274064247,0.094193617
1702560571.961530,-0.396281021,0.129879828,-0.420041781,-0.204561503,0.434258114,-0.000000000,-0.351086527,1.629242778,-3.119331121,-0.241562173,0.258963436,-0.408586770,-0.256388676,-0.529070199,0.399429519,0.171422837,0.209597499,-0.276988817,-0.040533756,-0.001737825,0.020852715,0.151408837,0.081534118,0.005061306,0.819819520,-0.350270664,1.933776129,-0.823804142,-0.802539866,0.000957939,0.181443173,0.256567056,0.122024584,0.151463479,0.273203610,0.093846140
1702560571.973299,-0.374594815,0.134016367,-0.439787605,-0.174180860,0.428875575,-0.000000000,-0.408951372,1.737970591,-3.050209284,-0.270534128,0.293548316,-0.368707985,-0.256388676,-0.529070199,0.399429519,0.171422837,0.209597499,-0.276988817,-0.040533756,-0.001737825,0.020852715,0.151408837,0.081534118,0.005061306,0.819817390,-0.350266936,1.933849099,-0.827325906,-0.802661839,0.000961667,0.181443173,0.256567056,0.122024584,0.151734245,0.272603245,0.093607433
1702560571.984361,-0.402826072,0.135427530,-0.447051042,-0.205332934,0.457624376,0.000000000,-0.426200807,1.847353220,-3.084563732,-0.248055458,0.316510886,-0.356979668,-0.256388676,-0.529070199,0.399429519,0.171422837,0.209597499,-0.276988817,-0.040533756,-0.001737825,0.020852715,0.151408837,0.081534118,0.005061306,0.819795286,-0.350266936,1.933858687,-0.833062355,-0.802646925,0.000950482,0.184119939,0.254652955,0.122024584,0.152266825,0.271673299,0.093238216
1702560571.995344,-0.411625759,0.133154385,-0.435967417,-0.222647418,0.458111351,0.000000000,-0.408748835,1.692051172,-3.090302467,-0.218982920,0.322265625,-0.334221303,-0.256388676,-0.529070199,0.399429519,0.171422837,0.209597499,-0.276988817,-0.040533756,-0.001737825,0.020852715,0.151408837,0.081534118,0.005061306,0.819800346,-0.350267469,1.933822468,-0.836539378,-0.802580346,0.000961667,0.184119939,0.254652955,0.122024584,0.152612798,0.271130426,0.093023878
1702560572.006519,-0.413139105,0.132540491,-0.433020867,-0.227699222,0.457756750,-0.000000000,-0.385610729,1.766940475,-3.061717987,-0.249121234,0.322317004,-0.385567784,-0.256388676,-0.529070199,0.399429519,0.171422837,0.209597499,-0.276988817,-0.040533756,-0.001737825,0.020852715,0.151408837,0.081534118,0.005061306,0.819809933,-0.350266936,1.933763878,-0.839343154,-0.802536138,0.000961667,0.184119939,0.254652955,0.122024584,0.152897582,0.270701991,0.092858791
1702560572.017972,-0.400294727,0.142326253,-0.479659307,-0.195722541,0.477222287,0.000000000,-0.391364872,1.668875575,-3.084547758,-0.269737273,0.328020364,-0.408627301,-0.256388676,-0.529070199,0.399429519,0.171422837,0.209597499,-0.276988817,-0.040533756,-0.001737825,0.020852715,0.151408837,0.081534118,0.005061306,0.819805139,-0.350266403,1.933766541,-0.845586669,-0.802528681,0.000947020,0.186776514,0.252710928,0.122024584,0.153482805,0.269696723,0.092469228
1702560572.029287,-0.390149367,0.143744535,-0.486329194,-0.185713978,0.473903048,-0.000000000,-0.363688856,1.674640059,-3.153604507,-0.264968276,0.368348539,-0.356979668,-0.256388676,-0.529070199,0.399429519,0.171422837,0.209597499,-0.276988817,-0.040533756,-0.001737825,0.020852715,0.151408837,0.081534118,0.005061306,0.819822184,-0.350267469,1.933768672,-0.849965971,-0.802543594,0.000961667,0.186776514,0.252710928,0.122024584,0.153885874,0.268993442,0.092199033
1702560572.040927,-0.398751281,0.142196694,-0.480170519,-0.202190834,0.478460620,0.000000000,-0.408627301,1.640111804,-3.124830961,-0.219888434,0.333824724,-0.391364872,-0.256388676,-0.529070199,0.399429519,0.171422837,0.209597499,-0.276988817,-0.040533756,-0.001737825,0.020852715,0.151408837,0.081534118,0.005061306,0.819836565,-0.350269067,1.933788379,-0.855721595,-0.802606445,0.000961667,0.189412607,0.250741188,0.122024584,0.154406471,0.268059812,0.091845150
1702560572.052324,-0.437843095,0.142988580,-0.486757576,-0.245452545,0.516509787,-0.000000000,-0.420253873,1.818508029,-3.130585670,-0.259027362,0.385610729,-0.374102563,-0.256388676,-0.529070199,0.399429519,0.171422837,0.209597499,-0.276988817,-0.040533756,-0.001737825,0.020852715,0.151408837,0.081534118,0.005061306,0.819795286,-0.350266936,1.933805423,-0.859349886,-0.802547323,0.000961667,0.189412607,0.250741188,0.122024584,0.154773686,0.267471645,0.091622472
1702560572.063017,-0.396419828,0.148788720,-0.511433430,-0.192170319,0.497793541,0.000000000,-0.437965840,1.680424333,-3.142137289,-0.290543288,0.397118986,-0.351463616,-0.256388676,-0.529070199,0.399429519,0.171422837,0.209597499,-0.276988817,-0.040533756,-0.001737825,0.020852715,0.151408837,0.081534118,0.005061306,0.819775845,-0.350269599,1.933800630,-0.863922001,-0.802510571,0.000965396,0.189412607,0.250741188,0.122024584,0.155227871,0.266740172,0.091348946
1702560572.074400,-0.462876725,0.147452002,-0.509280924,-0.270548300,0.552743055,0.000000000,-0.397118986,1.686493278,-3.159353971,-0.307111412,0.379813045,-0.339968473,-0.256388676,-0.529070199,0.399429519,0.171422837,0.209597499,-0.276988817,-0.040533756,-0.001737825,0.020852715,0.151408837,0.081534118,0.005061306,0.819790492,-0.350266936,1.933759084,-0.868552705,-0.802510571,0.000969124,0.192895038,0.248072134,0.122024584,0.155683489,0.266013776,0.091084633
1702560572.085689,-0.442630202,0.150287635,-0.521732940,-0.246096132,0.544501943,0.000000000,-0.466169715,1.813191652,-3.176618338,-0.397118986,0.425889909,-0.420135677,-0.256388676,-0.529070199,0.399429519,0.171422837,0.209597499,-0.276988817,-0.040533756,-0.001737825,0.020852715,0.151408837,0.081534118,0.005061306,0.819790492,-0.350264273,1.933732453,-0.872773283,-0.802513767,0.000965396,0.192895038,0.248072134,0.122024584,0.156100952,0.265346601,0.090844087
1702560572.097403,-0.418189813,0.153519505,-0.535833745,-0.218466623,0.534440664,-0.000000000,-0.362731457,1.795562983,-3.159401178,-0.357211500,0.437398344,-0.402996421,-0.256388676,-0.529070199,0.399429519,0.171422837,0.209597499,-0.276988817,-0.040533756,-0.001737825,0.020852715,0.151408837,0.081534118,0.005061306,0.819780638,-0.350265338,1.933751628,-0.880574214,-0.802503114,0.000969124,0.192895038,0.248072134,0.122024584,0.156865597,0.264093577,0.090389813
1702560572.108655,-0.468001262,0.152621989,-0.534726839,-0.278542434,0.575381195,-0.000000000,-0.385954112,1.870300293,-3.216906786,-0.345380485,0.403201789,-0.385954112,-0.256388676,-0.529070199,0.399429519,0.171422837,0.209597499,-0.276988817,-0.040533756,-0.001737825,0.020852715,0.151408837,0.081534118,0.005061306,0.819822184,-0.350264273,1.933751628,-0.884195048,-0.802528681,0.000954211,0.195482219,0.246038577,0.122024584,0.157206416,0.263520013,0.090184591
1702560572.119961,-0.429315648,0.157754617,-0.557024537,-0.231152002,0.559307141,0.000000000,-0.420726418,1.784425139,-3.205412626,-0.376880765,0.477955580,-0.374102563,-0.256388676,-0.529070199,0.399429519,0.171422837,0.209597499,-0.276988817,-0.040533756,-0.001737825,0.020852715,0.151408837,0.081534118,0.005061306,0.819802476,-0.350269599,1.933771335,-0.890487033,-0.802521224,0.000969124,0.195482219,0.246038577,0.122024584,0.157833423,0.262507974,0.089825212
1702560572.131346,-0.413294240,0.159297180,-0.563176352,-0.214936719,0.550904760,-0.000000000,-0.437360495,1.835799098,-3.193887711,-0.374235332,0.437511921,-0.368707985,-0.256388676,-0.529070199,0.399429519,0.171422837,0.209597499,-0.276988817,-0.040533756,-0.001737825,0.020852715,0.151408837,0.081534118,0.005061306,0.819834434,-0.350269067,1.933754291,-0.896190458,-0.802480744,0.000976581,0.195482219,0.246038577,0.122024584,0.158411997,0.261614139,0.089512342
1702560572.142625,-0.459268798,0.158792712,-0.563296827,-0.271096277,0.588677710,0.000000000,-0.414701015,1.715154767,-3.234247446,-0.316510886,0.460523278,-0.363278866,-0.256388676,-0.529070199,0.399429519,0.171422837,0.209597499,-0.276988817,-0.040533756,-0.001737825,0.020852715,0.151408837,0.081534118,0.005061306,0.819819520,-0.350270664,1.933734583,-0.900599588,-0.802491397,0.000961667,0.198047964,0.243978039,0.122024584,0.158864105,0.260915549,0.089274930
1702560572.154268,-0.431254879,0.162051397,-0.577275940,-0.238800192,0.576352529,0.000000000,-0.466702253,1.691982627,-3.222661495,-0.448168546,0.494941384,-0.397452414,-0.256388676,-0.529070199,0.399429519,0.171422837,0.209597499,-0.276988817,-0.040533756,-0.001737825,0.020852715,0.151408837,0.081534118,0.005061306,0.819802476,-0.350266936,1.933734583,-0.906939509,-0.802447188,0.000961667,0.198047964,0.243978039,0.122024584,0.159524590,0.259910751,0.088933409
1702560572.165487,-0.434112188,0.161311942,-0.574392879,-0.248973144,0.577744564,0.000000000,-0.420450836,1.726768255,-3.222661495,-0.333775103,0.483432680,-0.403858364,-0.256388676,-0.529070199,0.399429519,0.171422837,0.209597499,-0.276988817,-0.040533756,-0.001737825,0.020852715,0.151408837,0.081534118,0.005061306,0.819795286,-0.350266936,1.933737246,-0.912828291,-0.802484472,0.000943292,0.198047964,0.243978039,0.122024584,0.160120499,0.258971524,0.088620755
1702560572.176286,-0.449497755,0.164750498,-0.591103130,-0.263475698,0.601537659,-0.000000000,-0.408748835,1.870512843,-3.205397367,-0.371169776,0.483432680,-0.408627301,-0.256388676,-0.529070199,0.399429519,0.171422837,0.209597499,-0.276988817,-0.040533756,-0.001737825,0.020852715,0.151408837,0.081534118,0.005061306,0.819817390,-0.350262675,1.933727659,-0.916896536,-0.802473287,0.000969124,0.200591990,0.241890746,0.122024584,0.160540524,0.258335343,0.088410615
1702560572.187609,-0.433953860,0.166528624,-0.599235768,-0.248573155,0.596030735,0.000000000,-0.431644112,1.645896792,-3.280385256,-0.356979668,0.477678388,-0.408627301,-0.256388676,-0.529070199,0.399429519,0.171422837,0.209597499,-0.276988817,-0.040533756,-0.001737825,0.020852715,0.151408837,0.081534118,0.005061306,0.819761197,-0.350266936,1.933773465,-0.923432466,-0.802491397,0.000954211,0.200591990,0.241890746,0.122024584,0.161216209,0.257276465,0.088062637
1702560572.198822,-0.423759832,0.167334056,-0.602494810,-0.240340618,0.590961710,-0.000000000,-0.426200807,1.784425139,-3.262944221,-0.428873181,0.494907916,-0.368348539,-0.256388676,-0.529070199,0.399429519,0.171422837,0.209597499,-0.276988817,-0.040533756,-0.001737825,0.020852715,0.151408837,0.081534118,0.005061306,0.819807536,-0.350260012,1.933739377,-0.929657339,-0.802484472,0.000950482,0.200591990,0.241890746,0.122024584,0.161868443,0.256313101,0.087755395
1702560572.209874,-0.422390413,0.174197270,-0.634301637,-0.232455671,0.612499235,-0.000000000,-0.397118986,1.795562983,-3.262944221,-0.360533655,0.523808062,-0.403489143,-0.256388676,-0.529070199,0.399429519,0.171422837,0.209597499,-0.276988817,-0.040533756,-0.001737825,0.020852715,0.151408837,0.081534118,0.005061306,0.819792889,-0.350262142,1.933737246,-0.934865416,-0.802465830,0.000980310,0.203949759,0.239066466,0.122024584,0.162426477,0.255492069,0.087494645
1702560572.220998,-0.422964908,0.173440774,-0.630630188,-0.240750380,0.611244283,0.000000000,-0.437701106,1.738170624,-3.234170914,-0.424448878,0.541221261,-0.334221303,-0.256388676,-0.529070199,0.399429519,0.171422837,0.209597499,-0.276988817,-0.040533756,-0.001737825,0.020852715,0.151408837,0.081534118,0.005061306,0.819819520,-0.350266936,1.933712745,-0.942873542,-0.802417893,0.000954211,0.203949759,0.239066466,0.122024584,0.163289404,0.254248272,0.087104731
1702560572.232128,-0.429685630,0.172078007,-0.624869436,-0.257664756,0.613448246,-0.000000000,-0.426006526,1.789956450,-3.286084414,-0.438305974,0.558476985,-0.391491741,-0.256388676,-0.529070199,0.399429519,0.171422837,0.209597499,-0.276988817,-0.040533756,-0.001737825,0.020852715,0.151408837,0.081534118,0.005061306,0.819800346,-0.350268534,1.933703158,-0.949113328,-0.802432807,0.000954211,0.203949759,0.239066466,0.122024584,0.163962649,0.253266682,0.086806495
1702560572.243216,-0.440688746,0.175561008,-0.641388519,-0.269643691,0.633785930,0.000000000,-0.403201789,1.795489192,-3.326246500,-0.443264693,0.558239758,-0.391491741,-0.256388676,-0.529070199,0.399429519,0.171422837,0.209597499,-0.276988817,-0.040533756,-0.001737825,0.020852715,0.151408837,0.081534118,0.005061306,0.819807536,-0.350266403,1.933703158,-0.956625573,-0.802440264,0.000943292,0.206442029,0.236917640,0.122024584,0.164771823,0.252090222,0.086453449
1702560572.254436,-0.429068942,0.176227566,-0.644251828,-0.262537577,0.628199740,-0.000000000,-0.431644112,1.876611114,-3.274469376,-0.420253873,0.546700597,-0.374235332,-0.256388676,-0.529070199,0.399429519,0.171422837,0.209597499,-0.276988817,-0.040533756,-0.001737825,0.020852715,0.151408837,0.081534118,0.005061306,0.819829374,-0.350262675,1.933678657,-0.962895720,-0.802436003,0.000954211,0.206442029,0.236917640,0.122024584,0.165458526,0.251121770,0.086170234
1702560572.265584,-0.401167137,0.178824702,-0.655600266,-0.233325045,0.616959992,-0.000000000,-0.402832031,1.870433331,-3.280223608,-0.396409482,0.546700597,-0.322471082,-0.256388676,-0.529070199,0.399429519,0.171422837,0.209597499,-0.276988817,-0.040533756,-0.001737825,0.020852715,0.151408837,0.081534118,0.005061306,0.819790492,-0.350266403,1.933688244,-0.969864147,-0.802443460,0.000965396,0.206442029,0.236917640,0.122024584,0.166229115,0.250023740,0.085852396
1702560572.276971,-0.444535788,0.178354717,-0.654460081,-0.289425102,0.647900437,0.000000000,-0.374235332,1.904828668,-3.291733265,-0.449386120,0.552575231,-0.362594485,-0.256388676,-0.529070199,0.399429519,0.171422837,0.209597499,-0.276988817,-0.040533756,-0.001737825,0.020852715,0.151408837,0.081534118,0.005061306,0.819831771,-0.350260012,1.933683451,-0.975156913,-0.802440264,0.000957939,0.208911660,0.234742833,0.122024584,0.166807384,0.249208811,0.085620638
1702560572.288001,-0.408962836,0.181508781,-0.668185119,-0.251816980,0.633362165,-0.000000000,-0.402996421,1.819236279,-3.355059624,-0.421080530,0.535222054,-0.414701015,-0.256388676,-0.529070199,0.399429519,0.171422837,0.209597499,-0.276988817,-0.040533756,-0.001737825,0.020852715,0.151408837,0.081534118,0.005061306,0.819773448,-0.350263208,1.933695701,-0.984000739,-0.802436003,0.000961667,0.208911660,0.234742833,0.122024584,0.167805634,0.247821073,0.085234105
1702560572.299753,-0.372319404,0.184330845,-0.679926055,-0.212634943,0.616878390,0.000000000,-0.352733374,1.881836176,-3.361011267,-0.389838725,0.575589418,-0.403201789,-0.256388676,-0.529070199,0.399429519,0.171422837,0.209597499,-0.276988817,-0.040533756,-0.001737825,0.020852715,0.151408837,0.081534118,0.005061306,0.819817390,-0.350263208,1.933634981,-0.991987026,-0.802428546,0.000954211,0.208911660,0.234742833,0.122024584,0.168713333,0.246610379,0.084909742
1702560572.311169,-0.398985274,0.185543399,-0.686234772,-0.249325775,0.641129380,-0.000000000,-0.351086527,1.893529177,-3.355059624,-0.411172271,0.523681641,-0.408586770,-0.256388676,-0.529070199,0.399429519,0.171422837,0.209597499,-0.276988817,-0.040533756,-0.001737825,0.020852715,0.151408837,0.081534118,0.005061306,0.819805139,-0.350265338,1.933615274,-0.999417778,-0.802450916,0.000969124,0.211358382,0.232542284,0.122024584,0.169560414,0.245463211,0.084608341
1702560572.322200,-0.409400306,0.183552234,-0.676831652,-0.270586867,0.641807498,-0.000000000,-0.414381474,1.818726420,-3.355094433,-0.517607093,0.627689242,-0.379856646,-0.256388676,-0.529070199,0.399429519,0.171422837,0.209597499,-0.276988817,-0.040533756,-0.001737825,0.020852715,0.151408837,0.081534118,0.005061306,0.819805139,-0.350269599,1.933562010,-1.005727872,-0.802428546,0.000954211,0.211358382,0.232542284,0.122024584,0.170302573,0.244508660,0.084364811
1702560572.333028,-0.352105512,0.187922046,-0.695147179,-0.204824159,0.616899504,0.000000000,-0.385610729,1.847308397,-3.349305153,-0.493232191,0.575474322,-0.351227969,-0.256388676,-0.529070199,0.399429519,0.171422837,0.209597499,-0.276988817,-0.040533756,-0.001737825,0.020852715,0.151408837,0.081534118,0.005061306,0.819785432,-0.350265338,1.933478920,-1.013587926,-0.802432807,0.000965396,0.211358382,0.232542284,0.122024584,0.171236939,0.243322084,0.084075774
1702560572.344181,-0.410000509,0.183502932,-0.671244228,-0.286165318,0.635310526,0.000000000,-0.356794089,1.818508029,-3.314857244,-0.468402177,0.541068256,-0.402832031,-0.256388676,-0.529070199,0.399429519,0.171422837,0.209597499,-0.276988817,-0.040533756,-0.001737825,0.020852715,0.151408837,0.081534118,0.005061306,0.819819520,-0.350262142,1.933345229,-1.019853811,-0.802432807,0.000950482,0.214584576,0.229568593,0.122024584,0.171995331,0.242408382,0.083864975
1702560572.355046,-0.381847006,0.185929440,-0.682420605,-0.257768997,0.626247265,0.000000000,-0.397452414,1.881941915,-3.332001209,-0.556754708,0.586983800,-0.402996421,-0.256388676,-0.529070199,0.399429519,0.171422837,0.209597499,-0.276988817,-0.040533756,-0.001737825,0.020852715,0.151408837,0.081534118,0.005061306,0.819761197,-0.350262675,1.932931374,-1.028575664,-0.802458373,0.000957939,0.214584576,0.229568593,0.122024584,0.173143707,0.241188990,0.083624693
1702560572.366134,-0.365516517,0.181082697,-0.653292754,-0.252340362,0.589507972,0.000000000,-0.356840491,1.663130760,-3.361735582,-0.489153177,0.581229091,-0.380205214,-0.256388676,-0.529070199,0.399429519,0.171422837,0.209597499,-0.276988817,-0.040533756,-0.001737825,0.020852715,0.151408837,0.081534118,0.005061306,0.819829374,-0.350263208,1.932493018,-1.035806679,-0.802462102,0.000954211,0.214584576,0.229568593,0.122024584,0.174106313,0.240233078,0.083452420
1702560572.377542,-0.356508199,0.186225859,-0.677628210,-0.243485894,0.603797800,0.000000000,-0.333973497,1.726432681,-3.275303364,-0.429721713,0.546730876,-0.386254311,-0.256388676,-0.529070199,0.399429519,0.171422837,0.209597499,-0.276988817,-0.040533756,-0.001737825,0.020852715,0.151408837,0.081534118,0.005061306,0.819812330,-0.350264806,1.931935884,-1.044846513,-0.802469559,0.000954211,0.216976803,0.227308922,0.122024584,0.175345154,0.239027225,0.083249045
1702560572.388896,-0.372745738,0.182598422,-0.659063936,-0.274488064,0.599201160,0.000000000,-0.379856646,1.783979654,-3.372520208,-0.481923252,0.529717743,-0.368483365,-0.256388676,-0.529070199,0.399429519,0.171422837,0.209597499,-0.276988817,-0.040533756,-0.001737825,0.020852715,0.151408837,0.081534118,0.005061306,0.819826977,-0.350266403,1.931185938,-1.053357975,-0.802458373,0.000961667,0.216976803,0.227308922,0.122024584,0.176582542,0.237973771,0.083112814
1702560572.400699,-0.336119398,0.189482668,-0.695169985,-0.230573025,0.608752674,0.000000000,-0.305489630,1.870371342,-3.362193584,-0.513721645,0.552485347,-0.397118986,-0.256388676,-0.529070199,0.399429519,0.171422837,0.209597499,-0.276988817,-0.040533756,-0.001737825,0.020852715,0.151408837,0.081534118,0.005061306,0.819809933,-0.350263208,1.931037866,-1.061776228,-0.802421089,0.000954211,0.216976803,0.227308922,0.122024584,0.177657524,0.236750901,0.082871906
1702560572.411971,-0.357566646,0.184853857,-0.666486848,-0.268332739,0.594749451,0.000000000,-0.310969204,1.870371342,-3.304671049,-0.465031713,0.575474322,-0.408627301,-0.256388676,-0.529070199,0.399429519,0.171422837,0.209597499,-0.276988817,-0.040533756,-0.001737825,0.020852715,0.151408837,0.081534118,0.005061306,0.819844022,-0.350266936,1.930670350,-1.068093778,-0.802273550,0.000943292,0.219345236,0.225024324,0.122024584,0.178559690,0.235937582,0.082746652
1702560572.422998,-0.313040299,0.190137130,-0.693616776,-0.217541960,0.592339031,-0.000000000,-0.328222215,1.744152427,-3.372323751,-0.543998301,0.581229091,-0.374235332,-0.256388676,-0.529070199,0.399429519,0.171422837,0.209597499,-0.276988817,-0.040533756,-0.001737825,0.020852715,0.151408837,0.081534118,0.005061306,0.819792889,-0.350264273,1.930263419,-1.077559186,-0.802454645,0.000954211,0.219345236,0.225024324,0.122024584,0.179810399,0.234613772,0.082544395
1702560572.434325,-0.317291712,0.181560252,-0.645188182,-0.238952515,0.551049788,-0.000000000,-0.299467921,1.865105152,-3.315576077,-0.582253754,0.535222054,-0.356979668,-0.256388676,-0.529070199,0.399429519,0.171422837,0.209597499,-0.276988817,-0.040533756,-0.001737825,0.020852715,0.151408837,0.081534118,0.005061306,0.819814727,-0.350262142,1.929509212,-1.084994199,-0.802421089,0.000961667,0.219345236,0.225024324,0.122024584,0.180951856,0.233745086,0.082480453
1702560572.445384,-0.317383779,0.188094726,-0.679080126,-0.238446134,0.581435742,0.000000000,-0.322471082,1.795627356,-3.343629360,-0.586221635,0.506417394,-0.351086527,-0.256388676,-0.529070199,0.399429519,0.171422837,0.209597499,-0.276988817,-0.040533756,-0.001737825,0.020852715,0.151408837,0.081534118,0.005061306,0.819805139,-0.350261077,1.929097487,-1.091903504,-0.802484472,0.000961667,0.221689616,0.222715050,0.122024584,0.181919815,0.232834512,0.082370656
1702560572.456778,-0.291352061,0.184250405,-0.655214954,-0.219175746,0.544019499,0.000000000,-0.310969204,1.760989070,-3.410558224,-0.553204179,0.558239758,-0.356979668,-0.256388676,-0.529070199,0.399429519,0.171422837,0.209597499,-0.276988817,-0.040533756,-0.001737825,0.020852715,0.151408837,0.081534118,0.005061306,0.819807536,-0.350264806,1.928464720,-1.100902858,-0.802432807,0.000969124,0.221689616,0.222715050,0.122024584,0.183243441,0.231702040,0.082255673
1702560572.468544,-0.298367500,0.182824549,-0.648166268,-0.236339005,0.542917074,-0.000000000,-0.293717504,1.864758849,-3.286684036,-0.490066320,0.483535409,-0.351227969,-0.256388676,-0.529070199,0.399429519,0.171422837,0.209597499,-0.276988817,-0.040533756,-0.001737825,0.020852715,0.151408837,0.081534118,0.005061306,0.819822184,-0.350262675,1.927593334,-1.109672647,-0.802484472,0.000954211,0.221689616,0.222715050,0.122024584,0.184590216,0.230673121,0.082207146
1702560572.479475,-0.288575007,0.184156762,-0.649905538,-0.229703875,0.536583426,0.000000000,-0.300626814,1.720677853,-3.366569042,-0.543053865,0.517958879,-0.334221303,-0.256388676,-0.529070199,0.399429519,0.171422837,0.209597499,-0.276988817,-0.040533756,-0.001737825,0.020852715,0.151408837,0.081534118,0.005061306,0.819807536,-0.350267469,1.926305429,-1.116807256,-0.802491397,0.000969124,0.224777594,0.219598070,0.122024584,0.185873190,0.230018293,0.082289195
1702560572.491548,-0.293129675,0.177928377,-0.615127542,-0.248489117,0.506986501,0.000000000,-0.287794709,1.720822215,-3.351820469,-0.618574679,0.592766464,-0.333824724,-0.256388676,-0.529070199,0.399429519,0.171422837,0.209597499,-0.276988817,-0.040533756,-0.001737825,0.020852715,0.151408837,0.081534118,0.005061306,0.819865859,-0.350261077,1.925823397,-1.126195431,-0.802447188,0.000961667,0.224777594,0.219598070,0.122024584,0.187214820,0.228809212,0.082171461
1702560572.502958,-0.258799566,0.179391390,-0.621374715,-0.212636928,0.494418931,-0.000000000,-0.311235338,1.858790994,-3.320731401,-0.575733244,0.506548226,-0.368483365,-0.256388676,-0.529070199,0.399429519,0.171422837,0.209597499,-0.276988817,-0.040533756,-0.001737825,0.020852715,0.151408837,0.081534118,0.005061306,0.819846418,-0.350263208,1.924467848,-1.134950307,-0.802465830,0.000961667,0.224777594,0.219598070,0.122024584,0.188739177,0.227945996,0.082251215
1702560572.514145,-0.305856285,0.178353135,-0.615321340,-0.276834937,0.513611685,-0.000000000,-0.259027362,1.858924627,-3.328063011,-0.570184410,0.523808062,-0.414381474,-0.256388676,-0.529070199,0.399429519,0.171422837,0.209597499,-0.276988817,-0.040533756,-0.001737825,0.020852715,0.151408837,0.081534118,0.005061306,0.819844022,-0.350262675,1.923595929,-1.142965889,-0.802484472,0.000954211,0.227064853,0.217232207,0.122024584,0.190031636,0.227049175,0.082261491
1702560572.525504,-0.255861296,0.177614636,-0.608097511,-0.222404640,0.479741232,0.000000000,-0.299301982,1.858862281,-3.328649998,-0.651913583,0.494907916,-0.368483365,-0.256388676,-0.529070199,0.399429519,0.171422837,0.209597499,-0.276988817,-0.040533756,-0.001737825,0.020852715,0.151408837,0.081534118,0.005061306,0.819834434,-0.350266936,1.922559427,-1.150056289,-0.802488201,0.000954211,0.227064853,0.217232207,0.122024584,0.191261382,0.226341774,0.082330239
1702560572.536522,-0.246642957,0.173355201,-0.583258165,-0.219833266,0.451382012,0.000000000,-0.270717710,1.744152427,-3.291959763,-0.615784407,0.466453791,-0.425889909,-0.256388676,-0.529070199,0.399429519,0.171422837,0.209597499,-0.276988817,-0.040533756,-0.001737825,0.020852715,0.151408837,0.081534118,0.005061306,0.819856272,-0.350264806,1.921229977,-1.157842307,-0.802488201,0.000965396,0.227064853,0.217232207,0.122024584,0.192667491,0.225636175,0.082454935
1702560572.547776,-0.267044228,0.170732111,-0.566376242,-0.253239523,0.444313781,0.000000000,-0.236225024,1.899771452,-3.327361345,-0.587237597,0.506711602,-0.339578599,-0.256388676,-0.529070199,0.399429519,0.171422837,0.209597499,-0.276988817,-0.040533756,-0.001737825,0.020852715,0.151408837,0.081534118,0.005061306,0.819834434,-0.350266403,1.920102927,-1.167404121,-0.802506310,0.000961667,0.229327212,0.214842522,0.122024584,0.194263111,0.224607055,0.082518137
1702560572.558890,-0.263894190,0.167865518,-0.549940719,-0.256063432,0.426932288,0.000000000,-0.264968276,1.692051172,-3.312623262,-0.690593183,0.454661161,-0.351227969,-0.256388676,-0.529070199,0.399429519,0.171422837,0.209597499,-0.276988817,-0.040533756,-0.001737825,0.020852715,0.151408837,0.081534118,0.005061306,0.819834434,-0.350265338,1.918657363,-1.176107331,-0.802498853,0.000961667,0.229327212,0.214842522,0.122024584,0.195846023,0.223813865,0.082673031
1702560572.569959,-0.214973406,0.167388039,-0.545205886,-0.203356246,0.398364429,0.000000000,-0.259219080,1.904854774,-3.316175461,-0.691743135,0.489153177,-0.345332533,-0.256388676,-0.529070199,0.399429519,0.171422837,0.209597499,-0.276988817,-0.040533756,-0.001737825,0.020852715,0.151408837,0.081534118,0.005061306,0.819839228,-0.350262142,1.917885579,-1.183800671,-0.802506310,0.000961667,0.229327212,0.214842522,0.122024584,0.197101369,0.222960263,0.082718446
1702560572.581265,-0.268245065,0.164574606,-0.527236913,-0.274150263,0.404421213,0.000000000,-0.207250670,1.847711802,-3.264081001,-0.593185365,0.408627301,-0.414701015,-0.256388676,-0.529070199,0.399429519,0.171422837,0.209597499,-0.276988817,-0.040533756,-0.001737825,0.020852715,0.151408837,0.081534118,0.005061306,0.819856272,-0.350264806,1.916461853,-1.191483358,-0.802524952,0.000957939,0.232304528,0.211619672,0.122024584,0.198543679,0.222314882,0.082902668
1702560572.592901,-0.252863068,0.167427589,-0.543366878,-0.260601920,0.413391700,-0.000000000,-0.265280545,1.870326996,-3.350526094,-0.683071256,0.500794947,-0.420450836,-0.256388676,-0.529070199,0.399429519,0.171422837,0.209597499,-0.276988817,-0.040533756,-0.001737825,0.020852715,0.151408837,0.081534118,0.005061306,0.819834434,-0.350260012,1.915679949,-1.200633980,-0.802528681,0.000954211,0.232304528,0.211619672,0.122024584,0.200019410,0.221264612,0.082952067
1702560572.604517,-0.217050671,0.164288180,-0.524352188,-0.223965458,0.378120746,0.000000000,-0.207490206,1.691894531,-3.275586605,-0.676934898,0.437360495,-0.379987389,-0.256388676,-0.529070199,0.399429519,0.171422837,0.209597499,-0.276988817,-0.040533756,-0.001737825,0.020852715,0.151408837,0.081534118,0.005061306,0.819846418,-0.350261077,1.914521474,-1.209884736,-0.802524952,0.000950482,0.232304528,0.211619672,0.122024584,0.201619237,0.220330824,0.083087745
1702560572.615858,-0.236977920,0.167900749,-0.542856401,-0.252609673,0.404260785,0.000000000,-0.213236347,1.796226859,-3.288396358,-0.716228604,0.414341509,-0.402873129,-0.256388676,-0.529070199,0.399429519,0.171422837,0.209597499,-0.276988817,-0.040533756,-0.001737825,0.020852715,0.151408837,0.081534118,0.005061306,0.819836565,-0.350265338,1.913732646,-1.217512029,-0.802528681,0.000957939,0.234507826,0.209175426,0.122024584,0.202898856,0.219509423,0.083174760
1702560572.627088,-0.214453928,0.160537603,-0.500636446,-0.231962665,0.352089596,0.000000000,-0.230189726,1.755432487,-3.248143435,-0.653739810,0.448869973,-0.339968473,-0.256388676,-0.529070199,0.399429519,0.171422837,0.209597499,-0.276988817,-0.040533756,-0.001737825,0.020852715,0.151408837,0.081534118,0.005061306,0.819851212,-0.350265338,1.912861259,-1.226722306,-0.802532409,0.000957939,0.234507826,0.209175426,0.122024584,0.204422789,0.218505018,0.083276802
1702560572.638445,-0.211595752,0.160468173,-0.500541521,-0.234394856,0.351044735,0.000000000,-0.201498210,1.807438254,-3.260111570,-0.628295660,0.402832031,-0.402832031,-0.256388676,-0.529070199,0.399429519,0.171422837,0.209597499,-0.276988817,-0.040533756,-0.001737825,0.020852715,0.151408837,0.081534118,0.005061306,0.819890361,-0.350262675,1.911999460,-1.235244421,-0.802565965,0.000957939,0.234507826,0.209175426,0.122024584,0.205844065,0.217600461,0.083394531
1702560572.651158,-0.230748559,0.170079789,-0.552326836,-0.262523962,0.409509087,-0.000000000,-0.173503369,1.858817697,-3.240002394,-0.667946994,0.391322553,-0.316510886,-0.256388676,-0.529070199,0.399429519,0.171422837,0.209597499,-0.276988817,-0.040533756,-0.001737825,0.020852715,0.151408837,0.081534118,0.005061306,0.819853609,-0.350262675,1.911245253,-1.244694914,-0.802595260,0.000957939,0.237405512,0.205880796,0.122024584,0.207388643,0.216526565,0.083496307
1702560572.662271,-0.198640552,0.164966684,-0.523061408,-0.228867711,0.366976673,0.000000000,-0.230836228,1.912272692,-3.291441679,-0.764081717,0.466276288,-0.402832031,-0.256388676,-0.529070199,0.399429519,0.171422837,0.209597499,-0.276988817,-0.040533756,-0.001737825,0.020852715,0.151408837,0.081534118,0.005061306,0.819875713,-0.350261077,1.911070017,-1.250990095,-0.802539866,0.000961667,0.237405512,0.205880796,0.122024584,0.208333828,0.215735215,0.083506452
1702560572.673562,-0.171454015,0.166921065,-0.534515191,-0.202225552,0.368577210,-0.000000000,-0.189993694,1.904959083,-3.337755919,-0.683168292,0.431644112,-0.391364872,-0.256388676,-0.529070199,0.399429519,0.171422837,0.209597499,-0.276988817,-0.040533756,-0.001737825,0.020852715,0.151408837,0.081534118,0.005061306,0.819861066,-0.350266936,1.910704631,-1.260252036,-0.802576618,0.000965396,0.237405512,0.205880796,0.122024584,0.209745690,0.214582373,0.083550203
1702560572.685171,-0.208819469,0.154406034,-0.461324818,-0.251559487,0.306309967,-0.000000000,-0.184511110,1.910999417,-3.329868555,-0.675539196,0.454770386,-0.345715940,-0.256388676,-0.529070199,0.399429519,0.171422837,0.209597499,-0.276988817,-0.040533756,-0.001737825,0.020852715,0.151408837,0.081534118,0.005061306,0.819861066,-0.350265338,1.909847626,-1.268619156,-0.802573422,0.000957939,0.239548434,0.203383448,0.122024584,0.211185254,0.213719184,0.083711034
1702560572.696601,-0.209398860,0.158571997,-0.485544492,-0.257079192,0.331343088,-0.000000000,-0.219360664,1.680384994,-3.245680571,-0.782645106,0.374102563,-0.356840491,-0.256388676,-0.529070199,0.399429519,0.171422837,0.209597499,-0.276988817,-0.040533756,-0.001737825,0.020852715,0.151408837,0.081534118,0.005061306,0.819844022,-0.350263208,1.909107800,-1.276778549,-0.802713504,0.000947020,0.239548434,0.203383448,0.122024584,0.212540406,0.212828668,0.083856810
1702560572.707540,-0.150704189,0.158518801,-0.485849646,-0.191797777,0.311334361,-0.000000000,-0.207490206,1.858790994,-3.286381721,-0.773130059,0.379856646,-0.345476359,-0.256388676,-0.529070199,0.399429519,0.171422837,0.209597499,-0.276988817,-0.040533756,-0.001737825,0.020852715,0.151408837,0.081534118,0.005061306,0.819848815,-0.350265338,1.908618311,-1.285100927,-0.802665567,0.000957939,0.239548434,0.203383448,0.122024584,0.213887432,0.211877545,0.083963297
1702560572.719295,-0.207810543,0.157352816,-0.476914120,-0.264963747,0.319903335,0.000000000,-0.132359087,1.807319164,-3.303628683,-0.679936945,0.408748835,-0.392378986,-0.256388676,-0.529070199,0.399429519,0.171422837,0.209597499,-0.276988817,-0.040533756,-0.001737825,0.020852715,0.151408837,0.081534118,0.005061306,0.819880507,-0.350266403,1.908341342,-1.293885630,-0.802658110,0.000961667,0.241665087,0.200863797,0.122024584,0.215231816,0.210805888,0.084037807
1702560572.730169,-0.172838690,0.160282771,-0.493852323,-0.228578261,0.325678245,0.000000000,-0.201416016,1.749441981,-3.222985029,-0.796236932,0.385610729,-0.356840491,-0.256388676,-0.529070199,0.399429519,0.171422837,0.209597499,-0.276988817,-0.040533756,-0.001737825,0.020852715,0.151408837,0.081534118,0.005061306,0.819856272,-0.350265338,1.907898192,-1.301390418,-0.802694862,0.000961667,0.241665087,0.200863797,0.122024584,0.216446810,0.209942355,0.084153019
1702560572.741463,-0.173618444,0.156015400,-0.469807924,-0.232571881,0.300806463,-0.000000000,-0.124227829,1.864856482,-3.234677792,-0.691168368,0.385739565,-0.402873129,-0.256388676,-0.529070199,0.399429519,0.171422837,0.209597499,-0.276988817,-0.040533756,-0.001737825,0.020852715,0.151408837,0.081534118,0.005061306,0.819878110,-0.350263208,1.907698455,-1.309435295,-0.802650654,0.000965396,0.241665087,0.200863797,0.122024584,0.217682619,0.208960958,0.084231245
1702560572.752888,-0.182044180,0.154685153,-0.459926398,-0.246158294,0.291476697,0.000000000,-0.161543339,1.841526747,-3.263188124,-0.771071136,0.368483365,-0.385567784,-0.256388676,-0.529070199,0.399429519,0.171422837,0.209597499,-0.276988817,-0.040533756,-0.001737825,0.020852715,0.151408837,0.081534118,0.005061306,0.819880507,-0.350265338,1.907330939,-1.316152320,-0.802658110,0.000947020,0.244446027,0.197470046,0.122024584,0.218769803,0.208197446,0.084343429
1702560572.763854,-0.206478679,0.151507719,-0.441871347,-0.278355538,0.279407924,0.000000000,-0.178489834,1.755234480,-3.314737082,-0.814860284,0.397244036,-0.397244036,-0.256388676,-0.529070199,0.399429519,0.171422837,0.209597499,-0.276988817,-0.040533756,-0.001737825,0.020852715,0.151408837,0.081534118,0.005061306,0.819870653,-0.350265338,1.907036393,-1.323846193,-0.802713504,0.000954211,0.244446027,0.197470046,0.122024584,0.219976216,0.207279330,0.084454373
1702560572.774893,-0.142515942,0.155418091,-0.465903086,-0.207725296,0.286276931,-0.000000000,-0.184241682,1.818726420,-3.274469376,-0.774221539,0.345332533,-0.374765933,-0.256388676,-0.529070199,0.399429519,0.171422837,0.209597499,-0.276988817,-0.040533756,-0.001737825,0.020852715,0.151408837,0.081534118,0.005061306,0.819865859,-0.350262142,1.906653963,-1.332734226,-0.802757713,0.000954211,0.244446027,0.197470046,0.122024584,0.221390867,0.206243621,0.084603724
1702560572.786208,-0.201378904,0.151990184,-0.443175577,-0.280393354,0.276844592,0.000000000,-0.141079262,1.807575822,-3.251613379,-0.763301134,0.379987389,-0.356840491,-0.256388676,-0.529070199,0.399429519,0.171422837,0.209597499,-0.276988817,-0.040533756,-0.001737825,0.020852715,0.151408837,0.081534118,0.005061306,0.819897551,-0.350263208,1.906537317,-1.338922348,-0.802699123,0.000969124,0.246500488,0.194899433,0.122024584,0.222347185,0.205502552,0.084684602
1702560572.797441,-0.159779612,0.153764470,-0.454752860,-0.235975237,0.277669307,-0.000000000,-0.184511110,1.830017447,-3.211167336,-0.910086811,0.328020364,-0.385610729,-0.256388676,-0.529070199,0.399429519,0.171422837,0.209597499,-0.276988817,-0.040533756,-0.001737825,0.020852715,0.151408837,0.081534118,0.005061306,0.819853609,-0.350262675,1.906388713,-1.346557098,-0.802694862,0.000954211,0.246500488,0.194899433,0.122024584,0.223535583,0.204565851,0.084792747
1702560572.808453,-0.162293090,0.152820858,-0.449634082,-0.242453276,0.272540321,0.000000000,-0.162055045,1.697805405,-3.257205009,-0.802472055,0.357211500,-0.402873129,-0.256388676,-0.529070199,0.399429519,0.171422837,0.209597499,-0.276988817,-0.040533756,-0.001737825,0.020852715,0.151408837,0.081534118,0.005061306,0.819885301,-0.350264273,1.906345037,-1.353847235,-0.802699123,0.000957939,0.246500488,0.194899433,0.122024584,0.224629122,0.203661465,0.084883248
1702560572.819679,-0.169236041,0.151140907,-0.438553186,-0.253103967,0.261193535,0.000000000,-0.169349879,1.691933632,-3.251475573,-0.823953807,0.339578599,-0.391703188,-0.256388676,-0.529070199,0.399429519,0.171422837,0.209597499,-0.276988817,-0.040533756,-0.001737825,0.020852715,0.151408837,0.081534118,0.005061306,0.819861066,-0.350266936,1.906313611,-1.360616458,-0.802699123,0.000950482,0.248527917,0.192307446,0.122024584,0.225657005,0.202812141,0.084972323
1702560572.831061,-0.172564666,0.151047014,-0.438346135,-0.261157504,0.261158168,0.000000000,-0.152364910,1.876081586,-3.268714428,-0.878234863,0.351086527,-0.345476359,-0.256388676,-0.529070199,0.399429519,0.171422837,0.209597499,-0.276988817,-0.040533756,-0.001737825,0.020852715,0.151408837,0.081534118,0.005061306,0.819865859,-0.350264273,1.906323199,-1.368320983,-0.802728418,0.000947020,0.248527917,0.192307446,0.122024584,0.226805999,0.201840325,0.085073969
1702560572.843702,-0.123065753,0.149338329,-0.431225019,-0.204988698,0.242641853,-0.000000000,-0.156334251,1.899100184,-3.228539228,-0.886548042,0.339529842,-0.409234673,-0.256388676,-0.529070199,0.399429519,0.171422837,0.209597499,-0.276988817,-0.040533756,-0.001737825,0.020852715,0.151408837,0.081534118,0.005061306,0.819861066,-0.350266403,1.906366875,-1.376816999,-0.802732146,0.000950482,0.248527917,0.192307446,0.122024584,0.228075725,0.200767325,0.085188621
1702560572.854684,-0.200333721,0.148248075,-0.419670398,-0.298949727,0.244530648,0.000000000,-0.109340124,1.870291591,-3.199642420,-0.760192633,0.334221303,-0.356979668,-0.256388676,-0.529070199,0.399429519,0.171422837,0.209597499,-0.276988817,-0.040533756,-0.001737825,0.020852715,0.151408837,0.081534118,0.005061306,0.819892757,-0.350265338,1.906347700,-1.382457575,-0.802747060,0.000939563,0.251188722,0.188818709,0.122024584,0.228926130,0.200080117,0.085281213
1702560572.866391,-0.130144164,0.145264676,-0.406661326,-0.217034344,0.216561516,-0.000000000,-0.161132813,1.876081586,-3.193903208,-0.896928072,0.333824724,-0.362594485,-0.256388676,-0.529070199,0.399429519,0.171422837,0.209597499,-0.276988817,-0.040533756,-0.001737825,0.020852715,0.151408837,0.081534118,0.005061306,0.819858669,-0.350261077,1.906340243,-1.390787942,-0.802717233,0.000957939,0.251188722,0.188818709,0.122024584,0.230206955,0.199055256,0.085424240
1702560572.877500,-0.169692528,0.146616084,-0.412305273,-0.267256333,0.229394942,-0.000000000,-0.161543339,1.812826276,-3.234293461,-0.857456744,0.328222215,-0.379856646,-0.256388676,-0.529070199,0.399429519,0.171422837,0.209597499,-0.276988817,-0.040533756,-0.001737825,0.020852715,0.151408837,0.081534118,0.005061306,0.819919389,-0.350264273,1.906335449,-1.396128646,-0.802735875,0.000969124,0.251188722,0.188818709,0.122024584,0.231005974,0.198414119,0.085518931
1702560572.888714,-0.181369183,0.144214950,-0.397040170,-0.282237721,0.213700739,-0.000000000,-0.150616050,1.853027344,-3.245680571,-0.847199082,0.328474373,-0.385739565,-0.256388676,-0.529070199,0.399429519,0.171422837,0.209597499,-0.276988817,-0.040533756,-0.001737825,0.020852715,0.151408837,0.081534118,0.005061306,0.819870653,-0.350263208,1.906320536,-1.401861899,-0.802735875,0.000950482,0.253152218,0.186177962,0.122024584,0.231895747,0.197709780,0.085629131
1702560572.899949,-0.155372405,0.142882452,-0.391338166,-0.253299449,0.202671594,-0.000000000,-0.174170136,1.796226859,-3.228410959,-0.848312438,0.305001378,-0.339578599,-0.256388676,-0.529070199,0.399429519,0.171422837,0.209597499,-0.276988817,-0.040533756,-0.001737825,0.020852715,0.151408837,0.081534118,0.005061306,0.819890361,-0.350264806,1.906327993,-1.407983441,-0.802739603,0.000972853,0.253152218,0.186177962,0.122024584,0.232826230,0.196970092,0.085746528
1702560572.911259,-0.179144219,0.143906756,-0.395899421,-0.285497759,0.210332013,0.000000000,-0.138592571,1.801565528,-3.228456974,-0.829182386,0.282041132,-0.374456495,-0.256388676,-0.529070199,0.399429519,0.171422837,0.209597499,-0.276988817,-0.040533756,-0.001737825,0.020852715,0.151408837,0.081534118,0.005061306,0.819882904,-0.350262675,1.906349830,-1.414963054,-0.802776887,0.000950482,0.253152218,0.186177962,0.122024584,0.233886119,0.196115427,0.085885044
1702560572.922351,-0.152385804,0.139298312,-0.370746645,-0.252137006,0.178385907,0.000000000,-0.155484602,1.881941915,-3.274448872,-0.952579498,0.316563189,-0.385610729,-0.256388676,-0.529070199,0.399429519,0.171422837,0.209597499,-0.276988817,-0.040533756,-0.001737825,0.020852715,0.151408837,0.081534118,0.005061306,0.819865859,-0.350264806,1.906352494,-1.421535735,-0.802776887,0.000935835,0.255087953,0.183516799,0.122024584,0.234900657,0.195324016,0.086025317
1702560572.933666,-0.179771547,0.140381724,-0.375146365,-0.288046862,0.185917658,-0.000000000,-0.161235541,1.801243782,-3.165108681,-0.890368700,0.282041132,-0.408627301,-0.256388676,-0.529070199,0.399429519,0.171422837,0.209597499,-0.276988817,-0.040533756,-0.001737825,0.020852715,0.151408837,0.081534118,0.005061306,0.819904742,-0.350266403,1.906337580,-1.427812806,-0.802794997,0.000943292,0.255087953,0.183516799,0.122024584,0.235862862,0.194587888,0.086168724
1702560572.945463,-0.114740088,0.136778569,-0.359789275,-0.211215857,0.160683596,-0.000000000,-0.173025519,1.692051172,-3.194012165,-0.865931153,0.287737161,-0.374058306,-0.256388676,-0.529070199,0.399429519,0.171422837,0.209597499,-0.276988817,-0.040533756,-0.001737825,0.020852715,0.151408837,0.081534118,0.005061306,0.819865859,-0.350266403,1.906340243,-1.435328779,-0.802769431,0.000961667,0.255087953,0.183516799,0.122024584,0.237038375,0.193694060,0.086345493
1702560572.957157,-0.175449011,0.135111745,-0.344620433,-0.282105358,0.150236890,0.000000000,-0.150065333,1.847416043,-3.199642420,-0.997165978,0.270534128,-0.339578599,-0.256388676,-0.529070199,0.399429519,0.171422837,0.209597499,-0.276988817,-0.040533756,-0.001737825,0.020852715,0.151408837,0.081534118,0.005061306,0.819929243,-0.350262675,1.906335449,-1.440855371,-0.802787540,0.000954211,0.257625383,0.179937326,0.122024584,0.237882289,0.193058765,0.086482665
1702560572.969555,-0.185078766,0.135601189,-0.346835645,-0.296656374,0.152434197,-0.000000000,-0.173025519,1.841598749,-3.176805735,-0.943304062,0.236014634,-0.328070819,-0.256388676,-0.529070199,0.399429519,0.171422837,0.209597499,-0.276988817,-0.040533756,-0.001737825,0.020852715,0.151408837,0.081534118,0.005061306,0.819853609,-0.350264806,1.906349830,-1.447912748,-0.802780083,0.000965396,0.257625383,0.179937326,0.122024584,0.238992170,0.192213412,0.086658757
1702560572.980746,-0.143615963,0.133024308,-0.335957845,-0.248018967,0.135955338,0.000000000,-0.155803755,1.864545822,-3.193929195,-0.883854389,0.253470123,-0.328827053,-0.256388676,-0.529070199,0.399429519,0.171422837,0.209597499,-0.276988817,-0.040533756,-0.001737825,0.020852715,0.151408837,0.081534118,0.005061306,0.819887697,-0.350264806,1.906357287,-1.454296878,-0.802798725,0.000983772,0.257625383,0.179937326,0.122024584,0.239975873,0.191475471,0.086825684
1702560572.992288,-0.222794442,0.133797858,-0.332813450,-0.342332361,0.138001214,0.000000000,-0.126604348,1.795931816,-3.170947075,-0.886305213,0.218755960,-0.339578599,-0.256388676,-0.529070199,0.399429519,0.171422837,0.209597499,-0.276988817,-0.040533756,-0.001737825,0.020852715,0.151408837,0.081534118,0.005061306,0.819909802,-0.350264273,1.906369538,-1.460532936,-0.802832281,0.000957939,0.259495522,0.177229663,0.122024584,0.240936953,0.190752274,0.086993429
1702560573.003563,-0.141693766,0.128510199,-0.310359138,-0.244189277,0.106769387,0.000000000,-0.197010681,1.882021070,-3.193903208,-0.947717249,0.218982920,-0.385739565,-0.256388676,-0.529070199,0.399429519,0.171422837,0.209597499,-0.276988817,-0.040533756,-0.001737825,0.020852715,0.151408837,0.081534118,0.005061306,0.819865859,-0.350260012,1.906352494,-1.466151140,-0.802809911,0.000950482,0.259495522,0.177229663,0.122024584,0.241835399,0.190107405,0.087157590
1702560573.014603,-0.183109898,0.131004634,-0.320765546,-0.297072387,0.119766978,-0.000000000,-0.127776042,1.806998491,-3.159359217,-0.908775806,0.184151784,-0.328474373,-0.256388676,-0.529070199,0.399429519,0.171422837,0.209597499,-0.276988817,-0.040533756,-0.001737825,0.020852715,0.151408837,0.081534118,0.005061306,0.819926846,-0.350264273,1.906362081,-1.472095316,-0.802832281,0.000943292,0.259495522,0.177229663,0.122024584,0.242749859,0.189437458,0.087327042
1702560573.025746,-0.171011884,0.126130270,-0.293767494,-0.278246348,0.088892156,0.000000000,-0.149733961,1.715000391,-3.170994282,-1.011607885,0.189906523,-0.391322553,-0.256388676,-0.529070199,0.399429519,0.171422837,0.209597499,-0.276988817,-0.040533756,-0.001737825,0.020852715,0.151408837,0.081534118,0.005061306,0.819853609,-0.350264273,1.906362081,-1.478830983,-0.802809911,0.000969124,0.261337204,0.174502564,0.122024584,0.243828090,0.188661011,0.087530133
1702560573.037267,-0.187119439,0.126585910,-0.295059274,-0.299364629,0.089953633,0.000000000,-0.167778164,1.680542707,-3.084563732,-0.927228272,0.189906523,-0.362959653,-0.256388676,-0.529070199,0.399429519,0.171422837,0.209597499,-0.276988817,-0.040533756,-0.001737825,0.020852715,0.151408837,0.081534118,0.005061306,0.819916992,-0.350266403,1.906369538,-1.483991124,-0.802850391,0.000954211,0.261337204,0.174502564,0.122024584,0.244619977,0.188086045,0.087686881
1702560573.049373,-0.161597104,0.125176060,-0.289825908,-0.270158069,0.082184265,0.000000000,-0.161543339,1.686620951,-3.142348051,-1.036940217,0.184511110,-0.403201789,-0.256388676,-0.529070199,0.399429519,0.171422837,0.209597499,-0.276988817,-0.040533756,-0.001737825,0.020852715,0.151408837,0.081534118,0.005061306,0.819868256,-0.350265338,1.906383919,-1.489916124,-0.802880218,0.000932106,0.261337204,0.174502564,0.122024584,0.245555764,0.187401521,0.087871939
1702560573.060498,-0.226245946,0.123417354,-0.272512943,-0.342058479,0.064612390,0.000000000,-0.150616050,1.733133435,-3.107566595,-0.933351219,0.184241682,-0.397452414,-0.256388676,-0.529070199,0.399429519,0.171422837,0.209597499,-0.276988817,-0.040533756,-0.001737825,0.020852715,0.151408837,0.081534118,0.005061306,0.819921786,-0.350266403,1.906371668,-1.495756969,-0.802880218,0.000939563,0.263748167,0.170836717,0.122024584,0.246473895,0.186768803,0.088064945
1702560573.071671,-0.186119070,0.120477927,-0.260299180,-0.293975938,0.049023348,0.000000000,-0.174170136,1.812826276,-3.061609745,-1.024408937,0.138233677,-0.351086527,-0.256388676,-0.529070199,0.399429519,0.171422837,0.209597499,-0.276988817,-0.040533756,-0.001737825,0.020852715,0.151408837,0.081534118,0.005061306,0.819846418,-0.350269067,1.906381256,-1.502030312,-0.802876490,0.000950482,0.263748167,0.170836717,0.122024584,0.247480809,0.186054494,0.088272745
1702560573.083831,-0.169772451,0.119142369,-0.254827337,-0.275052896,0.041853339,0.000000000,-0.190254986,1.755234480,-3.130628109,-0.997165978,0.166986749,-0.368483365,-0.256388676,-0.529070199,0.399429519,0.171422837,0.209597499,-0.276988817,-0.040533756,-0.001737825,0.020852715,0.151408837,0.081534118,0.005061306,0.819912198,-0.350264806,1.906376995,-1.507863167,-0.802939340,0.000943292,0.263748167,0.170836717,0.122024584,0.248385674,0.185420848,0.088474583
1702560573.095130,-0.219440957,0.117651037,-0.240448281,-0.329971925,0.025201630,-0.000000000,-0.132484138,1.847496629,-3.084676504,-0.850554168,0.144900739,-0.374235332,-0.256388676,-0.529070199,0.399429519,0.171422837,0.209597499,-0.276988817,-0.040533756,-0.001737825,0.020852715,0.151408837,0.081534118,0.005061306,0.819890361,-0.350264273,1.906388713,-1.514506156,-0.802910045,0.000965396,0.265522670,0.168065436,0.122024584,0.249449819,0.184692950,0.088707925
1702560573.106725,-0.185444913,0.115246955,-0.230958019,-0.289224842,0.013917643,-0.000000000,-0.184151784,1.853349090,-3.090382814,-1.056430340,0.127126426,-0.351039350,-0.256388676,-0.529070199,0.399429519,0.171422837,0.209597499,-0.276988817,-0.040533756,-0.001737825,0.020852715,0.151408837,0.081534118,0.005061306,0.819878110,-0.350266403,1.906374332,-1.520572304,-0.802946797,0.000928378,0.265522670,0.168065436,0.122024584,0.250417126,0.184030494,0.088929797
1702560573.118089,-0.190137773,0.114818705,-0.228151726,-0.295028047,0.009692328,0.000000000,-0.201498210,1.714952111,-3.044264555,-0.970147967,0.092255555,-0.402873129,-0.256388676,-0.529070199,0.399429519,0.171422837,0.209597499,-0.276988817,-0.040533756,-0.001737825,0.020852715,0.151408837,0.081534118,0.005061306,0.819878110,-0.350266403,1.906379125,-1.525210466,-0.802924427,0.000954211,0.265522670,0.168065436,0.122024584,0.251161151,0.183533947,0.089101360
1702560573.129508,-0.189765264,0.109787898,-0.199783380,-0.287220327,-0.021850159,0.000000000,-0.172738180,1.853036284,-3.038504362,-1.051875114,0.120986551,-0.329279959,-0.256388676,-0.529070199,0.399429519,0.171422837,0.209597499,-0.276988817,-0.040533756,-0.001737825,0.020852715,0.151408837,0.081534118,0.005061306,0.819880507,-0.350264806,1.906388713,-1.531587671,-0.802979820,0.000932106,0.267268057,0.165275725,0.122024584,0.252168885,0.182839433,0.089340446
1702560573.141006,-0.198220924,0.110302132,-0.201685387,-0.298616485,-0.021520749,0.000000000,-0.173025519,1.726576447,-3.055790424,-0.970096767,0.075691827,-0.351039350,-0.256388676,-0.529070199,0.399429519,0.171422837,0.209597499,-0.276988817,-0.040533756,-0.001737825,0.020852715,0.151408837,0.081534118,0.005061306,0.819902345,-0.350264273,1.906403626,-1.537675658,-0.802961178,0.000950482,0.267268057,0.165275725,0.122024584,0.253140447,0.182197346,0.089574268
1702560573.151786,-0.169621373,0.107562041,-0.190025166,-0.263250104,-0.034100397,0.000000000,-0.191296518,1.847496629,-3.050035715,-1.071139932,0.086321145,-0.368707985,-0.256388676,-0.529070199,0.399429519,0.171422837,0.209597499,-0.276988817,-0.040533756,-0.001737825,0.020852715,0.151408837,0.081534118,0.005061306,0.819865859,-0.350264273,1.906396169,-1.543808385,-0.802953721,0.000980310,0.267268057,0.165275725,0.122024584,0.254135730,0.181545012,0.089819616
1702560573.163020,-0.236633085,0.106147388,-0.173198683,-0.335128963,-0.056400728,0.000000000,-0.157073915,1.772544980,-3.038553715,-1.016897440,0.058687095,-0.391322553,-0.256388676,-0.529070199,0.399429519,0.171422837,0.209597499,-0.276988817,-0.040533756,-0.001737825,0.020852715,0.151408837,0.081534118,0.005061306,0.819909802,-0.350268534,1.906400963,-1.550085456,-0.802976092,0.000943292,0.269549614,0.161527970,0.122024584,0.255131997,0.180892903,0.090071889
1702560573.173993,-0.205332797,0.103108382,-0.160423518,-0.295943425,-0.069656646,0.000000000,-0.213624254,1.766706228,-3.050019264,-1.089836597,0.046037946,-0.368483365,-0.256388676,-0.529070199,0.399429519,0.171422837,0.209597499,-0.276988817,-0.040533756,-0.001737825,0.020852715,0.151408837,0.081534118,0.005061306,0.819870653,-0.350266403,1.906405757,-1.554864232,-0.802998462,0.000969124,0.269549614,0.161527970,0.122024584,0.255904034,0.180380422,0.090269097
1702560573.184973,-0.188366870,0.101218638,-0.152217753,-0.274666848,-0.078752547,0.000000000,-0.195661277,1.870433331,-3.027345181,-1.059388638,0.040692180,-0.328020364,-0.256388676,-0.529070199,0.399429519,0.171422837,0.209597499,-0.276988817,-0.040533756,-0.001737825,0.020852715,0.151408837,0.081534118,0.005061306,0.819885301,-0.350266936,1.906425464,-1.561252090,-0.802998462,0.000939563,0.269549614,0.161527970,0.122024584,0.256926691,0.179718120,0.090534714
1702560573.195875,-0.237291613,0.100058741,-0.139058578,-0.326148118,-0.097277283,-0.000000000,-0.166887552,1.841526747,-3.004064083,-1.056430340,0.023018973,-0.351086527,-0.256388676,-0.529070199,0.399429519,0.171422837,0.209597499,-0.276988817,-0.040533756,-0.001737825,0.020852715,0.151408837,0.081534118,0.005061306,0.819865859,-0.350264273,1.906413214,-1.565890784,-0.803046399,0.000961667,0.271226320,0.158696448,0.122024584,0.257675085,0.179231960,0.090736830
1702560573.207426,-0.208703708,0.096962470,-0.125760675,-0.289667758,-0.110822480,-0.000000000,-0.230261639,1.865255952,-3.032755375,-1.113940477,-0.012867997,-0.374102563,-0.256388676,-0.529070199,0.399429519,0.171422837,0.209597499,-0.276988817,-0.040533756,-0.001737825,0.020852715,0.151408837,0.081534118,0.005061306,0.819865859,-0.350264806,1.906420671,-1.573184650,-0.803038942,0.000947020,0.271226320,0.158696448,0.122024584,0.258854837,0.178487857,0.091055658
1702560573.218659,-0.208706621,0.096769437,-0.124951180,-0.289928158,-0.113358238,0.000000000,-0.214166149,1.761186361,-2.998221159,-1.056195378,-0.005754743,-0.374102563,-0.256388676,-0.529070199,0.399429519,0.171422837,0.209597499,-0.276988817,-0.040533756,-0.001737825,0.020852715,0.151408837,0.081534118,0.005061306,0.819878110,-0.350266936,1.906422801,-1.579546409,-0.803086879,0.000961667,0.271226320,0.158696448,0.122024584,0.259874803,0.177838248,0.091339298
1702560573.230032,-0.236974614,0.093272986,-0.101172028,-0.313391870,-0.142419570,0.000000000,-0.207250670,1.778299451,-3.038504362,-1.088194370,-0.005754743,-0.379856646,-0.256388676,-0.529070199,0.399429519,0.171422837,0.209597499,-0.276988817,-0.040533756,-0.001737825,0.020852715,0.151408837,0.081534118,0.005061306,0.819890361,-0.350266936,1.906418007,-1.585246639,-0.803065041,0.000976581,0.272873284,0.155847523,0.122024584,0.260803344,0.177275516,0.091601810
1702560573.240871,-0.216426843,0.090784935,-0.090377231,-0.286481211,-0.153050480,0.000000000,-0.241973102,1.714913487,-2.992472172,-1.050725341,-0.025735995,-0.380205214,-0.256388676,-0.529070199,0.399429519,0.171422837,0.209597499,-0.276988817,-0.040533756,-0.001737825,0.020852715,0.151408837,0.081534118,0.005061306,0.819878110,-0.350267469,1.906418007,-1.590398790,-0.803046399,0.000957939,0.272873284,0.155847523,0.122024584,0.261646278,0.176762808,0.091842024
1702560573.252594,-0.225471559,0.091796330,-0.094926424,-0.298540183,-0.150982659,0.000000000,-0.207490206,1.755206227,-2.911905766,-1.060138583,-0.058687095,-0.339578599,-0.256388676,-0.529070199,0.399429519,0.171422837,0.209597499,-0.276988817,-0.040533756,-0.001737825,0.020852715,0.151408837,0.081534118,0.005061306,0.819885301,-0.350264806,1.906435052,-1.596672133,-0.803116707,0.000961667,0.272873284,0.155847523,0.122024584,0.262649340,0.176126144,0.092135115
1702560573.263680,-0.247122667,0.085091155,-0.054203803,-0.307264489,-0.197520934,0.000000000,-0.224508747,1.686385274,-2.946450949,-1.048595667,-0.046396222,-0.385610729,-0.256388676,-0.529070199,0.399429519,0.171422837,0.209597499,-0.276988817,-0.040533756,-0.001737825,0.020852715,0.151408837,0.081534118,0.005061306,0.819882904,-0.350266936,1.906435052,-1.601136656,-0.803101793,0.000969124,0.275022656,0.152022425,0.122024584,0.263379709,0.175689916,0.092349863
1702560573.274829,-0.247401151,0.085073779,-0.054188814,-0.307428476,-0.199179304,-0.000000000,-0.253208697,1.795627356,-2.940814734,-1.101262927,-0.087085068,-0.351086527,-0.256388676,-0.529070199,0.399429519,0.171422837,0.209597499,-0.276988817,-0.040533756,-0.001737825,0.020852715,0.151408837,0.081534118,0.005061306,0.819897551,-0.350266936,1.906449433,-1.607128768,-0.803116707,0.000954211,0.275022656,0.152022425,0.122024584,0.264348111,0.175102378,0.092639684
1702560573.286370,-0.243180190,0.084356150,-0.050975044,-0.301308309,-0.203449492,0.000000000,-0.230189726,1.686493278,-2.934924603,-1.076383114,-0.093680426,-0.333775103,-0.256388676,-0.529070199,0.399429519,0.171422837,0.209597499,-0.276988817,-0.040533756,-0.001737825,0.020852715,0.151408837,0.081534118,0.005061306,0.819865859,-0.350266936,1.906439845,-1.611885707,-0.803157187,0.000976581,0.275022656,0.152022425,0.122024584,0.265126350,0.174628542,0.092877287
1702560573.297239,-0.265099696,0.079741801,-0.021834450,-0.313772119,-0.238588093,0.000000000,-0.241973102,1.703403950,-2.923613548,-1.038551807,-0.095257953,-0.379856646,-0.256388676,-0.529070199,0.399429519,0.171422837,0.209597499,-0.276988817,-0.040533756,-0.001737825,0.020852715,0.151408837,0.081534118,0.005061306,0.819870653,-0.350264806,1.906442508,-1.617448518,-0.803135349,0.000932106,0.276599523,0.149134112,0.122024584,0.266038261,0.174098764,0.093158436
1702560573.308579,-0.249654961,0.077778498,-0.013653254,-0.292840835,-0.246768615,0.000000000,-0.277722239,1.634357214,-2.894641638,-1.037850022,-0.127126426,-0.391364872,-0.256388676,-0.529070199,0.399429519,0.171422837,0.209597499,-0.276988817,-0.040533756,-0.001737825,0.020852715,0.151408837,0.081534118,0.005061306,0.819861066,-0.350270664,1.906469140,-1.624561288,-0.803194471,0.000969124,0.276599523,0.149134112,0.122024584,0.267186138,0.173398046,0.093514932
1702560573.319534,-0.251106853,0.077867196,-0.013967516,-0.294225212,-0.247934431,0.000000000,-0.248055458,1.818826556,-2.906151056,-1.094990134,-0.126604348,-0.339578599,-0.256388676,-0.529070199,0.399429519,0.171422837,0.209597499,-0.276988817,-0.040533756,-0.001737825,0.020852715,0.151408837,0.081534118,0.005061306,0.819880507,-0.350266403,1.906483521,-1.629329412,-0.803201928,0.000961667,0.276599523,0.149134112,0.122024584,0.267959367,0.172947186,0.093761901
1702560573.332520,-0.280619731,0.073659320,0.014200412,-0.314561733,-0.283520562,-0.000000000,-0.248055458,1.870725393,-2.929164410,-1.044719696,-0.144328222,-0.379987389,-0.256388676,-0.529070199,0.399429519,0.171422837,0.209597499,-0.276988817,-0.040533756,-0.001737825,0.020852715,0.151408837,0.081534118,0.005061306,0.819861066,-0.350262142,1.906466477,-1.635125516,-0.803179557,0.000976581,0.278146057,0.146229444,0.122024584,0.268922604,0.172408130,0.094074217
1702560573.344012,-0.266547104,0.072079362,0.020370853,-0.295611011,-0.289585812,0.000000000,-0.270534128,1.720706701,-2.860252142,-1.165587664,-0.189993694,-0.369022220,-0.256388676,-0.529070199,0.399429519,0.171422837,0.209597499,-0.276988817,-0.040533756,-0.001737825,0.020852715,0.151408837,0.081534118,0.005061306,0.819865859,-0.350266403,1.906490978,-1.641405782,-0.803249865,0.000943292,0.278146057,0.146229444,0.122024584,0.269934030,0.171803331,0.094404110
1702560573.355534,-0.249258423,0.069705901,0.030403945,-0.271678213,-0.298203512,-0.000000000,-0.241973102,1.743725181,-2.883407593,-1.106123924,-0.173503369,-0.345476359,-0.256388676,-0.529070199,0.399429519,0.171422837,0.209597499,-0.276988817,-0.040533756,-0.001737825,0.020852715,0.151408837,0.081534118,0.005061306,0.819865859,-0.350264806,1.906493641,-1.646332630,-0.803261050,0.000965396,0.278146057,0.146229444,0.122024584,0.270741513,0.171345738,0.094672814
1702560573.368060,-0.302234802,0.066115460,0.059304103,-0.316180387,-0.339940318,0.000000000,-0.236014634,1.783979654,-2.860113144,-1.098854542,-0.196421444,-0.345715940,-0.256388676,-0.529070199,0.399429519,0.171422837,0.209597499,-0.276988817,-0.040533756,-0.001737825,0.020852715,0.151408837,0.081534118,0.005061306,0.819873316,-0.350266403,1.906517610,-1.652021675,-0.803275964,0.000924650,0.280160626,0.142331665,0.122024584,0.271666937,0.170816333,0.094981780
1702560573.378933,-0.302471795,0.065886783,0.060527109,-0.314988808,-0.342780547,0.000000000,-0.329832643,1.835844278,-2.848621130,-1.169969201,-0.253796577,-0.397452414,-0.256388676,-0.529070199,0.399429519,0.171422837,0.209597499,-0.276988817,-0.040533756,-0.001737825,0.020852715,0.151408837,0.081534118,0.005061306,0.819856272,-0.350267469,1.906493641,-1.656674750,-0.803297802,0.000976581,0.280160626,0.142331665,0.122024584,0.272439094,0.170391433,0.095247091
1702560573.389996,-0.280751917,0.062791841,0.073661763,-0.284626545,-0.353178713,-0.000000000,-0.305055678,1.818580866,-2.860113144,-1.111202002,-0.259538263,-0.397077292,-0.256388676,-0.529070199,0.399429519,0.171422837,0.209597499,-0.276988817,-0.040533756,-0.001737825,0.020852715,0.151408837,0.081534118,0.005061306,0.819848815,-0.350266403,1.906496304,-1.661405589,-0.803294606,0.000972853,0.280160626,0.142331665,0.122024584,0.273219885,0.169962267,0.095515370
1702560573.403577,-0.316122132,0.059582495,0.097553300,-0.311186429,-0.386913441,-0.000000000,-0.270472944,1.836340308,-2.831357002,-1.074766755,-0.247721478,-0.333775103,-0.256388676,-0.529070199,0.399429519,0.171422837,0.209597499,-0.276988817,-0.040533756,-0.001737825,0.020852715,0.151408837,0.081534118,0.005061306,0.819858669,-0.350267469,1.906534654,-1.666683974,-0.803342543,0.000935835,0.281635731,0.139390079,0.122024584,0.274070001,0.169470716,0.095809055
1702560573.414962,-0.323656685,0.060730870,0.092547307,-0.320141220,-0.385548634,0.000000000,-0.310969204,1.784425139,-2.802613258,-1.080789208,-0.276766658,-0.379856646,-0.256388676,-0.529070199,0.399429519,0.171422837,0.209597499,-0.276988817,-0.040533756,-0.001737825,0.020852715,0.151408837,0.081534118,0.005061306,0.819863463,-0.350264273,1.906542111,-1.673363715,-0.803353195,0.000947020,0.281635731,0.139390079,0.122024584,0.275168321,0.168874834,0.096197577
1702560573.425992,-0.313855839,0.058756241,0.101602856,-0.304356262,-0.393928462,0.000000000,-0.323086679,1.813657403,-2.785301685,-1.114237785,-0.282510430,-0.374235332,-0.256388676,-0.529070199,0.399429519,0.171422837,0.209597499,-0.276988817,-0.040533756,-0.001737825,0.020852715,0.151408837,0.081534118,0.005061306,0.819853609,-0.350266936,1.906522936,-1.676807182,-0.803342543,0.000943292,0.281635731,0.139390079,0.122024584,0.275745641,0.168576322,0.096404249
1702560573.437430,-0.320076935,0.050737879,0.146712851,-0.288677199,-0.443059379,0.000000000,-0.299744248,1.715154767,-2.831333637,-1.127988458,-0.293491900,-0.397118986,-0.256388676,-0.529070199,0.399429519,0.171422837,0.209597499,-0.276988817,-0.040533756,-0.001737825,0.020852715,0.151408837,0.081534118,0.005061306,0.819861066,-0.350269599,1.906513349,-1.682385440,-0.803350000,0.000954211,0.283079952,0.136433208,0.122024584,0.276667600,0.168091352,0.096737958
1702560573.449083,-0.339294621,0.054315952,0.130460265,-0.315454033,-0.432926065,0.000000000,-0.322471082,1.674630284,-2.762330770,-1.142704248,-0.322265625,-0.397118986,-0.256388676,-0.529070199,0.399429519,0.171422837,0.209597499,-0.276988817,-0.040533756,-0.001737825,0.020852715,0.151408837,0.081534118,0.005061306,0.819856272,-0.350271197,1.906580993,-1.687356496,-0.803449602,0.000965396,0.283079952,0.136433208,0.122024584,0.277455478,0.167617904,0.097020923
1702560573.460218,-0.309345498,0.049337377,0.151993119,-0.271854583,-0.448667153,0.000000000,-0.316563189,1.807218432,-2.727900028,-1.122941971,-0.341280997,-0.374235332,-0.256388676,-0.529070199,0.399429519,0.171422837,0.209597499,-0.276988817,-0.040533756,-0.001737825,0.020852715,0.151408837,0.081534118,0.005061306,0.819839228,-0.350266403,1.906593243,-1.691998386,-0.803442678,0.000935835,0.283079952,0.136433208,0.122024584,0.278224802,0.167211610,0.097303219
1702560573.471454,-0.374639746,0.047289140,0.175627323,-0.328721606,-0.491031151,0.000000000,-0.287967265,1.697649240,-2.739312172,-1.072854519,-0.339724869,-0.328222215,-0.256388676,-0.529070199,0.399429519,0.171422837,0.209597499,-0.276988817,-0.040533756,-0.001737825,0.020852715,0.151408837,0.081534118,0.005061306,0.819861066,-0.350271730,1.906588450,-1.696677560,-0.803475701,0.000913731,0.284957263,0.132467496,0.122024584,0.278991565,0.166811755,0.097590540
1702560573.483275,-0.369647262,0.046084112,0.181219288,-0.318841856,-0.497206478,0.000000000,-0.351086527,1.680542707,-2.796858311,-1.183464050,-0.402996421,-0.356840491,-0.256388676,-0.529070199,0.399429519,0.171422837,0.209597499,-0.276988817,-0.040533756,-0.001737825,0.020852715,0.151408837,0.081534118,0.005061306,0.819826977,-0.350266936,1.906561818,-1.701704543,-0.803486354,0.000980310,0.284957263,0.132467496,0.122024584,0.279836415,0.166382066,0.097911039
1702560573.494932,-0.342604162,0.041606384,0.200398476,-0.279124896,-0.510716993,-0.000000000,-0.385739565,1.795562983,-2.727802992,-1.220249891,-0.397118986,-0.403201789,-0.256388676,-0.529070199,0.399429519,0.171422837,0.209597499,-0.276988817,-0.040533756,-0.001737825,0.020852715,0.151408837,0.081534118,0.005061306,0.819831771,-0.350266936,1.906557024,-1.706253755,-0.803471972,0.000987500,0.284957263,0.132467496,0.122024584,0.280593435,0.166004883,0.098199045
1702560573.506227,-0.391508875,0.040496363,0.215816559,-0.321479170,-0.541477667,-0.000000000,-0.322727710,1.760960937,-2.698980808,-1.057652235,-0.426006526,-0.385739565,-0.256388676,-0.529070199,0.399429519,0.171422837,0.209597499,-0.276988817,-0.040533756,-0.001737825,0.020852715,0.151408837,0.081534118,0.005061306,0.819848815,-0.350265338,1.906629995,-1.711147579,-0.803597674,0.000943292,0.286328810,0.129476221,0.122024584,0.281362300,0.165553404,0.098492813
1702560573.518986,-0.381847052,0.038647688,0.223844170,-0.304841691,-0.548860579,0.000000000,-0.368483365,1.715067983,-2.664669752,-1.183771849,-0.472029269,-0.357211500,-0.256388676,-0.529070199,0.399429519,0.171422837,0.209597499,-0.276988817,-0.040533756,-0.001737825,0.020852715,0.151408837,0.081534118,0.005061306,0.819817390,-0.350270664,1.906642246,-1.717305873,-0.803649339,0.000972853,0.286328810,0.129476221,0.122024584,0.282377575,0.165019966,0.098884243
1702560573.530817,-0.370098355,0.036147501,0.235120706,-0.285493584,-0.557784808,-0.000000000,-0.391491741,1.743725181,-2.710539103,-1.169926643,-0.450196028,-0.385610729,-0.256388676,-0.529070199,0.399429519,0.171422837,0.209597499,-0.276988817,-0.040533756,-0.001737825,0.020852715,0.151408837,0.081534118,0.005061306,0.819844022,-0.350266936,1.906600700,-1.720087811,-0.803608859,0.000961667,0.286328810,0.129476221,0.122024584,0.282853402,0.164820142,0.099076183
1702560573.543422,-0.415602745,0.034660536,0.252404354,-0.322187604,-0.590566886,0.000000000,-0.379856646,1.801243782,-2.722212553,-1.162814260,-0.529936552,-0.402832031,-0.256388676,-0.529070199,0.399429519,0.171422837,0.209597499,-0.276988817,-0.040533756,-0.001737825,0.020852715,0.151408837,0.081534118,0.005061306,0.819824580,-0.350267469,1.906632126,-1.725794965,-0.803638686,0.000957939,0.287668957,0.126470749,0.122024584,0.283791192,0.164333625,0.099443140
1702560573.555430,-0.393421642,0.033531910,0.254133519,-0.295456373,-0.587784804,0.000000000,-0.362731457,1.680867791,-2.658847094,-1.174376607,-0.546821713,-0.380205214,-0.256388676,-0.529070199,0.399429519,0.171422837,0.209597499,-0.276988817,-0.040533756,-0.001737825,0.020852715,0.151408837,0.081534118,0.005061306,0.819812330,-0.350269599,1.906744511,-1.731942074,-0.803756931,0.000917193,0.287668957,0.126470749,0.122024584,0.284765112,0.163775632,0.099824089
1702560573.567199,-0.393298707,0.029862699,0.273602301,-0.283874891,-0.607939191,-0.000000000,-0.391491741,1.818826556,-2.698980808,-1.208715200,-0.500695705,-0.322265625,-0.256388676,-0.529070199,0.399429519,0.171422837,0.209597499,-0.276988817,-0.040533756,-0.001737825,0.020852715,0.151408837,0.081534118,0.005061306,0.819848815,-0.350264806,1.906700302,-1.735175151,-0.803767583,0.000965396,0.289406724,0.122441935,0.122024584,0.285307822,0.163538572,0.100051889
1702560573.578132,-0.451433473,0.026996743,0.301570568,-0.328011885,-0.655733919,0.000000000,-0.472204655,1.738084912,-2.629942656,-1.136150122,-0.552725077,-0.328070819,-0.256388676,-0.529070199,0.399429519,0.171422837,0.209597499,-0.276988817,-0.040533756,-0.001737825,0.020852715,0.151408837,0.081534118,0.005061306,0.819783301,-0.350266403,1.906685921,-1.738474275,-0.803764388,0.000965396,0.289406724,0.122441935,0.122024584,0.285871569,0.163261984,0.100277350
1702560573.589280,-0.422938200,0.021024522,0.327367062,-0.282376743,-0.673572262,0.000000000,-0.449017495,1.761036038,-2.566847563,-1.220453382,-0.540976465,-0.391364872,-0.256388676,-0.529070199,0.399429519,0.171422837,0.209597499,-0.276988817,-0.040533756,-0.001737825,0.020852715,0.151408837,0.081534118,0.005061306,0.819783301,-0.350269067,1.906741848,-1.743467702,-0.803885828,0.000991229,0.289406724,0.122441935,0.122024584,0.286667924,0.162824961,0.100601964
1702560573.600475,-0.486409912,0.022164837,0.335045418,-0.341991279,-0.703795185,0.000000000,-0.420253873,1.716081381,-2.630018473,-1.211315274,-0.570764899,-0.345284581,-0.256388676,-0.529070199,0.399429519,0.171422837,0.209597499,-0.276988817,-0.040533756,-0.001737825,0.020852715,0.151408837,0.081534118,0.005061306,0.819792889,-0.350269599,1.906749305,-1.746707704,-0.803908198,0.000983772,0.290673041,0.119404617,0.122024584,0.287200075,0.162566530,0.100822151
1702560573.611474,-0.457188254,0.016845497,0.357648079,-0.297424222,-0.717891689,-0.000000000,-0.483535409,1.721283913,-2.583905458,-1.261129379,-0.627372622,-0.397077292,-0.256388676,-0.529070199,0.399429519,0.171422837,0.209597499,-0.276988817,-0.040533756,-0.001737825,0.020852715,0.151408837,0.081534118,0.005061306,0.819802476,-0.350266936,1.906720010,-1.750699250,-0.803890089,0.000987500,0.290673041,0.119404617,0.122024584,0.287874143,0.162270934,0.101105695
1702560573.623161,-0.465725588,0.019683890,0.343834715,-0.310608012,-0.709020470,-0.000000000,-0.449459791,1.766706228,-2.618566275,-1.221362114,-0.587096632,-0.339578599,-0.256388676,-0.529070199,0.399429519,0.171422837,0.209597499,-0.276988817,-0.040533756,-0.001737825,0.020852715,0.151408837,0.081534118,0.005061306,0.819800346,-0.350268534,1.906800437,-1.755670307,-0.803975310,0.000961667,0.290673041,0.119404617,0.122024584,0.288666951,0.161844029,0.101432657
1702560573.634001,-0.490241488,0.013454005,0.382220908,-0.312894046,-0.756379485,0.000000000,-0.461277753,1.783979654,-2.631333828,-1.203415751,-0.644634008,-0.352216601,-0.256388676,-0.529070199,0.399429519,0.171422837,0.209597499,-0.276988817,-0.040533756,-0.001737825,0.020852715,0.151408837,0.081534118,0.005061306,0.819775845,-0.350266936,1.906805231,-1.759516976,-0.804096750,0.000994957,0.291907483,0.116354204,0.122024584,0.289292126,0.161514977,0.101700410
1702560573.645339,-0.517141900,0.018411352,0.361817833,-0.349231492,-0.747706731,0.000000000,-0.495041728,1.749479890,-2.601245880,-1.197332382,-0.656141639,-0.368707985,-0.256388676,-0.529070199,0.399429519,0.171422837,0.209597499,-0.276988817,-0.040533756,-0.001737825,0.020852715,0.151408837,0.081534118,0.005061306,0.819792889,-0.350266936,1.906856364,-1.763038208,-0.804171319,0.000950482,0.291907483,0.116354204,0.122024584,0.289850743,0.161220747,0.101937227
1702560573.656378,-0.514310766,0.017625139,0.365597303,-0.341835548,-0.752047637,0.000000000,-0.512204468,1.605583668,-2.532087088,-1.226246476,-0.696323931,-0.356979668,-0.256388676,-0.529070199,0.399429519,0.171422837,0.209597499,-0.276988817,-0.040533756,-0.001737825,0.020852715,0.151408837,0.081534118,0.005061306,0.819754007,-0.350274926,1.906761555,-1.766678217,-0.804181971,0.000950482,0.291907483,0.116354204,0.122024584,0.290487435,0.160958942,0.102214920
1702560573.667924,-0.516833125,0.006125301,0.428872103,-0.308343744,-0.816087207,0.000000000,-0.542046726,1.784007430,-2.583905458,-1.251375437,-0.679157197,-0.356840491,-0.256388676,-0.529070199,0.399429519,0.171422837,0.209597499,-0.276988817,-0.040533756,-0.001737825,0.020852715,0.151408837,0.081534118,0.005061306,0.819795286,-0.350268534,1.906763686,-1.769071333,-0.804171319,0.000976581,0.293109913,0.113291032,0.122024584,0.290881313,0.160793176,0.102388303
1702560573.679071,-0.523472954,0.011712244,0.399307907,-0.328006145,-0.791307909,-0.000000000,-0.552934706,1.720908880,-2.537945986,-1.199211717,-0.736697078,-0.391491741,-0.256388676,-0.529070199,0.399429519,0.171422837,0.209597499,-0.276988817,-0.040533756,-0.001737825,0.020852715,0.151408837,0.081534118,0.005061306,0.819668786,-0.350270664,1.906924541,-1.773979539,-0.804396622,0.000976581,0.293109913,0.113291032,0.122024584,0.291641716,0.160293833,0.102702573
1702560573.690161,-0.478086703,0.022292765,0.293843140,-0.337660506,-0.651009995,-0.000000000,-0.477678388,1.697649240,-2.474646807,-1.249455333,-0.646224618,-0.409234673,-0.256388676,-0.529070199,0.399429519,0.171422837,0.209597499,-0.276988817,-0.040533756,-0.001737825,0.020852715,0.151408837,0.081534118,0.005061306,0.819736962,-0.350267469,1.907114158,-1.777811295,-0.806626753,0.000987500,0.293109913,0.113291032,0.122024584,0.291886263,0.159497460,0.102901623
1702560573.702472,-0.523663402,0.017544912,0.329067521,-0.366801359,-0.704460979,0.000000000,-0.477782339,1.806998491,-2.704949617,-1.216553330,-0.632419884,-0.328222215,-0.256388676,-0.529070199,0.399429519,0.171422837,0.209597499,-0.276988817,-0.040533756,-0.001737825,0.020852715,0.151408837,0.081534118,0.005061306,0.819729506,-0.350268534,1.906904833,-1.780445161,-0.811779437,0.000976581,0.294663132,0.109187536,0.122024584,0.291619924,0.158259667,0.103054971
1702560573.713902,-0.464046374,0.021725473,0.270175872,-0.337115350,-0.613757249,0.000000000,-0.477955580,1.743696690,-2.520741701,-1.256433249,-0.733114541,-0.374765933,-0.256388676,-0.529070199,0.399429519,0.171422837,0.209597499,-0.276988817,-0.040533756,-0.001737825,0.020852715,0.151408837,0.081534118,0.005061306,0.819736962,-0.350272795,1.906805231,-1.786037800,-0.815751808,0.000961667,0.294663132,0.109187536,0.122024584,0.291997131,0.157025823,0.103428640
1702560573.725133,-0.473144256,0.013392709,0.327867697,-0.314408886,-0.682618002,0.000000000,-0.454770386,1.767465234,-2.745036602,-1.189228535,-0.536303759,-0.380205214,-0.256388676,-0.529070199,0.399429519,0.171422837,0.209597499,-0.276988817,-0.040533756,-0.001737825,0.020852715,0.151408837,0.081534118,0.005061306,0.819778241,-0.350271197,1.906800437,-1.790624296,-0.819972386,0.000972853,0.294663132,0.109187536,0.122024584,0.292142717,0.155795353,0.103713870
1702560573.736698,-0.450640670,0.023340374,0.228119166,-0.348690977,-0.556180551,0.000000000,-0.420135677,1.646017551,-2.658847094,-1.234952331,-0.576767683,-0.391491741,-0.256388676,-0.529070199,0.399429519,0.171422837,0.209597499,-0.276988817,-0.040533756,-0.001737825,0.020852715,0.151408837,0.081534118,0.005061306,0.819780638,-0.350271197,1.906856364,-1.795832374,-0.826593004,0.000965396,0.295790364,0.106095900,0.122024584,0.292035190,0.153972584,0.104012574
1702560573.747762,-0.416693977,0.024912933,0.191898359,-0.335246789,-0.498757839,0.000000000,-0.425850987,1.772610426,-2.710508585,-1.276009679,-0.459299177,-0.351086527,-0.256388676,-0.529070199,0.399429519,0.171422837,0.209597499,-0.276988817,-0.040533756,-0.001737825,0.020852715,0.151408837,0.081534118,0.005061306,0.819795286,-0.350266936,1.906839319,-1.801047376,-0.832788582,0.000980310,0.295790364,0.106095900,0.122024584,0.292017773,0.152264338,0.104350139
1702560573.759093,-0.403574475,0.020754717,0.209013157,-0.313563475,-0.511470498,0.000000000,-0.403201789,1.732646108,-2.750863552,-1.268826365,-0.442554355,-0.362594485,-0.256388676,-0.529070199,0.399429519,0.171422837,0.209597499,-0.276988817,-0.040533756,-0.001737825,0.020852715,0.151408837,0.081534118,0.005061306,0.819790492,-0.350269599,1.906785524,-1.805844794,-0.840186844,0.000972853,0.295790364,0.106095900,0.122024584,0.291772770,0.150329561,0.104666709
1702560573.770427,-0.405120504,0.027689156,0.141346993,-0.357780059,-0.432292600,-0.000000000,-0.403201789,1.720706701,-2.750791311,-1.263123512,-0.500960231,-0.368707985,-0.256388676,-0.529070199,0.399429519,0.171422837,0.209597499,-0.276988817,-0.040533756,-0.001737825,0.020852715,0.151408837,0.081534118,0.005061306,0.819783301,-0.350269067,1.906797774,-1.811625984,-0.848409087,0.000969124,0.296885159,0.102992630,0.122024584,0.291568213,0.148122319,0.105062447
1702560573.781916,-0.371613875,0.024769229,0.138812991,-0.326079637,-0.412698075,-0.000000000,-0.426006526,1.732216001,-2.825584650,-1.236520052,-0.410366058,-0.391364872,-0.256388676,-0.529070199,0.399429519,0.171422837,0.209597499,-0.276988817,-0.040533756,-0.001737825,0.020852715,0.151408837,0.081534118,0.005061306,0.819758800,-0.350266403,1.906797774,-1.817747793,-0.857511772,0.000947020,0.296885159,0.102992630,0.122024584,0.291311684,0.145695572,0.105510855
1702560573.793247,-0.356546131,0.031562058,0.077973327,-0.350663956,-0.339312837,0.000000000,-0.380205214,1.806989431,-2.808462143,-1.267834067,-0.371927410,-0.362594485,-0.256388676,-0.529070199,0.399429519,0.171422837,0.209597499,-0.276988817,-0.040533756,-0.001737825,0.020852715,0.151408837,0.081534118,0.005061306,0.819761197,-0.350268534,1.906839319,-1.823333240,-0.866215515,0.000928378,0.296885159,0.102992630,0.122024584,0.291014931,0.143387195,0.105935849
1702560573.804519,-0.373501628,0.019789196,0.146617888,-0.328494216,-0.414429496,-0.000000000,-0.334221303,1.795627356,-2.872447014,-1.216757417,-0.264780730,-0.362731457,-0.256388676,-0.529070199,0.399429519,0.171422837,0.209597499,-0.276988817,-0.040533756,-0.001737825,0.020852715,0.151408837,0.081534118,0.005061306,0.819749213,-0.350269599,1.906763686,-1.828674210,-0.875185042,0.000954211,0.297947397,0.099878066,0.122024584,0.290680882,0.141067051,0.106392670
1702560573.816490,-0.327237017,0.026453142,0.068763531,-0.330115535,-0.304435386,-0.000000000,-0.339724869,1.772918582,-2.854445457,-1.266056538,-0.325232089,-0.385739565,-0.256388676,-0.529070199,0.399429519,0.171422837,0.209597499,-0.276988817,-0.040533756,-0.001737825,0.020852715,0.151408837,0.081534118,0.005061306,0.819734566,-0.350271197,1.906853701,-1.835380316,-0.885608122,0.000972853,0.297947397,0.099878066,0.122024584,0.290345457,0.138279937,0.106963383
1702560573.827756,-0.295144795,0.025370836,0.051083048,-0.308163523,-0.265596217,0.000000000,-0.333775103,1.669034243,-2.831427336,-1.223326325,-0.385567784,-0.402832031,-0.256388676,-0.529070199,0.399429519,0.171422837,0.209597499,-0.276988817,-0.040533756,-0.001737825,0.020852715,0.151408837,0.081534118,0.005061306,0.819722315,-0.350273860,1.906827069,-1.840795055,-0.893875106,0.000954211,0.297947397,0.099878066,0.122024584,0.290133460,0.136089408,0.107471271
1702560573.839025,-0.345705581,0.021176221,0.082860274,-0.346896976,-0.318915484,0.000000000,-0.316720068,1.744835973,-2.837111712,-1.300686598,-0.381466120,-0.385567784,-0.256388676,-0.529070199,0.399429519,0.171422837,0.209597499,-0.276988817,-0.040533756,-0.001737825,0.020852715,0.151408837,0.081534118,0.005061306,0.819741756,-0.350268534,1.906836656,-1.846883574,-0.902596959,0.000980310,0.299312870,0.095708335,0.122024584,0.289973680,0.133749431,0.108060706
1702560573.850680,-0.312606140,0.023479468,0.040827244,-0.340132733,-0.252821823,-0.000000000,-0.293548316,1.704579830,-2.877371550,-1.262756467,-0.374235332,-0.339578599,-0.256388676,-0.529070199,0.399429519,0.171422837,0.209597499,-0.276988817,-0.040533756,-0.001737825,0.020852715,0.151408837,0.081534118,0.005061306,0.819727109,-0.350267469,1.906846776,-1.852616827,-0.911204295,0.000954211,0.299312870,0.095708335,0.122024584,0.289780631,0.131449409,0.108644841
1702560573.861463,-0.306912457,0.018757372,0.067714262,-0.317151850,-0.278134876,-0.000000000,-0.305055678,1.686768174,-2.894916058,-1.375612378,-0.314042419,-0.310809404,-0.256388676,-0.529070199,0.399429519,0.171422837,0.209597499,-0.276988817,-0.040533756,-0.001737825,0.020852715,0.151408837,0.081534118,0.005061306,0.819758800,-0.350268534,1.906756229,-1.857136744,-0.918572197,0.000983772,0.299312870,0.095708335,0.122024584,0.289573320,0.129550011,0.109151151
1702560573.872328,-0.314143016,0.019651797,0.043267653,-0.344476395,-0.246641600,0.000000000,-0.299467921,1.767165422,-2.791056395,-1.330354333,-0.461708337,-0.414341509,-0.256388676,-0.529070199,0.399429519,0.171422837,0.209597499,-0.276988817,-0.040533756,-0.001737825,0.020852715,0.151408837,0.081534118,0.005061306,0.819758800,-0.350264273,1.906788187,-1.862285433,-0.925858606,0.000965396,0.300298695,0.092568747,0.122024584,0.289470885,0.127578884,0.109708278
1702560573.883781,-0.322900530,0.012858737,0.096739387,-0.318026917,-0.310776798,-0.000000000,-0.293717504,1.675263047,-2.842895508,-1.267350793,-0.339724869,-0.339578599,-0.256388676,-0.529070199,0.399429519,0.171422837,0.209597499,-0.276988817,-0.040533756,-0.001737825,0.020852715,0.151408837,0.081534118,0.005061306,0.819773448,-0.350271197,1.906829732,-1.867360087,-0.932017432,0.000928378,0.300298695,0.092568747,0.122024584,0.289516647,0.125860345,0.110253561
1702560573.895170,-0.255238945,0.020986252,-0.016212092,-0.320894057,-0.140765878,0.000000000,-0.322471082,1.784304380,-2.825631618,-1.363339782,-0.386639953,-0.375163347,-0.256388676,-0.529070199,0.399429519,0.171422837,0.209597499,-0.276988817,-0.040533756,-0.001737825,0.020852715,0.151408837,0.081534118,0.005061306,0.819775845,-0.350266936,1.906810025,-1.871791587,-0.939137659,0.000987500,0.300298695,0.092568747,0.122024584,0.289332902,0.123993955,0.110790015
1702560573.906916,-0.346383292,0.005862579,0.135077560,-0.320144633,-0.355505522,-0.000000000,-0.276766658,1.783970356,-2.877515554,-1.376574993,-0.345715940,-0.426200807,-0.256388676,-0.529070199,0.399429519,0.171422837,0.209597499,-0.276988817,-0.040533756,-0.001737825,0.020852715,0.151408837,0.081534118,0.005061306,0.819766257,-0.350270664,1.906737054,-1.876581548,-0.945222450,0.000965396,0.301251590,0.089419008,0.122024584,0.289382955,0.122340062,0.111362676
1702560573.918537,-0.307832831,0.015780944,0.036062240,-0.348898206,-0.224640474,0.000000000,-0.351086527,1.674719334,-2.808367729,-1.298086882,-0.391703188,-0.385610729,-0.256388676,-0.529070199,0.399429519,0.171422837,0.209597499,-0.276988817,-0.040533756,-0.001737825,0.020852715,0.151408837,0.081534118,0.005061306,0.819758800,-0.350270664,1.906851570,-1.881120108,-0.950811360,0.000928378,0.301251590,0.089419008,0.122024584,0.289411139,0.120760410,0.111880834
1702560573.929932,-0.351718254,0.009094062,0.114876877,-0.344777581,-0.340527795,0.000000000,-0.328474373,1.726432681,-2.842866421,-1.301195741,-0.400440812,-0.363278866,-0.256388676,-0.529070199,0.399429519,0.171422837,0.209597499,-0.276988817,-0.040533756,-0.001737825,0.020852715,0.151408837,0.081534118,0.005061306,0.819744153,-0.350271197,1.906785524,-1.884352652,-0.956015709,0.000924650,0.301251590,0.089419008,0.122024584,0.289303092,0.119408309,0.112315059
1702560573.942497,-0.322799466,0.005778257,0.091987143,-0.325452118,-0.281404641,0.000000000,-0.356840491,1.669123530,-2.750821352,-1.243557334,-0.472029269,-0.333973497,-0.256388676,-0.529070199,0.399429519,0.171422837,0.209597499,-0.276988817,-0.040533756,-0.001737825,0.020852715,0.151408837,0.081534118,0.005061306,0.819651741,-0.350270664,1.906831863,-1.889793757,-0.961567335,0.000939563,0.302171448,0.086259464,0.122024584,0.289543415,0.117770429,0.112953683
1702560573.954106,-0.335984163,0.001822522,0.129973946,-0.312578082,-0.332032289,0.000000000,-0.316563189,1.588350773,-2.791056395,-1.268473864,-0.414381474,-0.351227969,-0.256388676,-0.529070199,0.399429519,0.171422837,0.209597499,-0.276988817,-0.040533756,-0.001737825,0.020852715,0.151408837,0.081534118,0.005061306,0.819712461,-0.350268534,1.906836656,-1.893093147,-0.964600675,0.000906274,0.302171448,0.086259464,0.122024584,0.289731284,0.116891840,0.113343818
1702560573.965298,-0.335978469,0.006979824,0.058321554,-0.367840506,-0.238708990,0.000000000,-0.364189327,1.749593377,-2.773792267,-1.277760267,-0.483466923,-0.374235332,-0.256388676,-0.529070199,0.399429519,0.171422837,0.209597499,-0.276988817,-0.040533756,-0.001737825,0.020852715,0.151408837,0.081534118,0.005061306,0.819673579,-0.350270664,1.906846776,-1.897590694,-0.969364538,0.000902545,0.303346364,0.082032083,0.122024584,0.289915740,0.115521218,0.113898634
1702560573.976115,-0.377884959,-0.001509505,0.147122518,-0.349909215,-0.362053999,0.000000000,-0.341911167,1.669034243,-2.791056395,-1.325753450,-0.402873129,-0.368483365,-0.256388676,-0.529070199,0.399429519,0.171422837,0.209597499,-0.276988817,-0.040533756,-0.001737825,0.020852715,0.151408837,0.081534118,0.005061306,0.819795286,-0.350264806,1.906717347,-1.900668243,-0.972575245,0.000939563,0.303346364,0.082032083,0.122024584,0.290071241,0.114677770,0.114310104
1702560573.987431,-0.397603377,0.004204418,0.126144171,-0.393315825,-0.359949529,-0.000000000,-0.351086527,1.703442812,-2.722291470,-1.289062500,-0.483398438,-0.345332533,-0.256388676,-0.529070199,0.399429519,0.171422837,0.209597499,-0.276988817,-0.040533756,-0.001737825,0.020852715,0.151408837,0.081534118,0.005061306,0.819666389,-0.350270664,1.906785524,-1.903431272,-0.976680774,0.000939563,0.303346364,0.082032083,0.122024584,0.290019458,0.113530577,0.114682868
1702560573.998579,-0.397836057,-0.013033218,0.230579086,-0.306606183,-0.456633894,-0.000000000,-0.385610729,1.686179161,-2.727754354,-1.422388077,-0.558210075,-0.356794089,-0.256388676,-0.529070199,0.399429519,0.171422837,0.209597499,-0.276988817,-0.040533756,-0.001737825,0.020852715,0.151408837,0.081534118,0.005061306,0.819756404,-0.350271730,1.906807362,-1.906789785,-0.978293584,0.000961667,0.304188754,0.078851008,0.122024584,0.290416610,0.112965900,0.115052072
1702560574.010018,-0.421900684,0.001137357,0.162510807,-0.391767888,-0.416502481,0.000000000,-0.379987389,1.743696690,-2.670225620,-1.313607574,-0.638776481,-0.362594485,-0.256388676,-0.529070199,0.399429519,0.171422837,0.209597499,-0.276988817,-0.040533756,-0.001737825,0.020852715,0.151408837,0.081534118,0.005061306,0.819749213,-0.350270664,1.907270219,-1.910599703,-0.978966831,0.000935835,0.304188754,0.078851008,0.122024584,0.290924098,0.112423701,0.115357778
1702560574.020981,-0.405267320,-0.010195781,0.212123308,-0.328281053,-0.443193991,-0.000000000,-0.421080530,1.732416749,-2.745501041,-1.393194675,-0.560607731,-0.391703188,-0.256388676,-0.529070199,0.399429519,0.171422837,0.209597499,-0.276988817,-0.040533756,-0.001737825,0.020852715,0.151408837,0.081534118,0.005061306,0.819715125,-0.350269067,1.907374615,-1.913706547,-0.981622536,0.000950482,0.304188754,0.078851008,0.122024584,0.291123856,0.111591133,0.115726246
1702560574.031980,-0.503059171,-0.004274918,0.219870967,-0.444163547,-0.515752757,-0.000000000,-0.380205214,1.628602505,-2.652942896,-1.294868469,-0.621618807,-0.333973497,-0.256388676,-0.529070199,0.399429519,0.171422837,0.209597499,-0.276988817,-0.040533756,-0.001737825,0.020852715,0.151408837,0.081534118,0.005061306,0.819744153,-0.350266403,1.906904833,-1.913843433,-0.981770607,0.000947020,0.304997785,0.075661285,0.122024584,0.291251629,0.111692189,0.115831682
1702560574.043387,-0.471806864,0.001393431,0.159715727,-0.456246928,-0.431603794,0.000000000,-0.472029269,1.691904306,-2.687520504,-1.375816941,-0.633126378,-0.333973497,-0.256388676,-0.529070199,0.399429519,0.171422837,0.209597499,-0.276988817,-0.040533756,-0.001737825,0.020852715,0.151408837,0.081534118,0.005061306,0.819600609,-0.350274926,1.906729597,-1.914013609,-0.984326709,0.000972853,0.304997785,0.075661285,0.122024584,0.290993149,0.111127857,0.115960549
1702560574.054352,-0.467059271,-0.002198629,0.175236708,-0.437863236,-0.439508674,0.000000000,-0.431644112,1.645856619,-2.641483545,-1.404346108,-0.662020624,-0.339724869,-0.256388676,-0.529070199,0.399429519,0.171422837,0.209597499,-0.276988817,-0.040533756,-0.001737825,0.020852715,0.151408837,0.081534118,0.005061306,0.819683433,-0.350271197,1.906591113,-1.913972863,-0.985905964,0.000957939,0.304997785,0.075661285,0.122024584,0.290795291,0.110848647,0.116034631
1702560574.065380,-0.516805068,-0.002688805,0.202410649,-0.478939940,-0.499025617,0.000000000,-0.448906839,1.778252840,-2.693275213,-1.445368767,-0.627504528,-0.362548828,-0.256388676,-0.529070199,0.399429519,0.171422837,0.209597499,-0.276988817,-0.040533756,-0.001737825,0.020852715,0.151408837,0.081534118,0.005061306,0.819585961,-0.350267469,1.906717347,-1.913802953,-0.986653247,0.000976581,0.305773371,0.072463266,0.122024584,0.290637139,0.110632592,0.116020493
