tud-amr/mobile-manipulator-compliance/recordings/2023-12-14/no_null.csv
__time,/record/cur_comp.0,/record/cur_comp.1,/record/cur_comp.2,/record/cur_comp.3,/record/cur_comp.4,/record/cur_comp.5,/record/cur_fb.0,/record/cur_fb.1,/record/cur_fb.2,/record/cur_fb.3,/record/cur_fb.4,/record/cur_fb.5,/record/cur_fric.0,/record/cur_fric.1,/record/cur_fric.2,/record/cur_fric.3,/record/cur_fric.4,/record/cur_fric.5,/record/cur_null.0,/record/cur_null.1,/record/cur_null.2,/record/cur_null.3,/record/cur_null.4,/record/cur_null.5,/record/pos_q.0,/record/pos_q.1,/record/pos_q.2,/record/pos_q.3,/record/pos_q.4,/record/pos_q.5,/record/pos_t.0,/record/pos_t.1,/record/pos_t.2,/record/pos_x.0,/record/pos_x.1,/record/pos_x.2
1702560366.114154,-0.336091130,0.025823224,-0.609875203,-0.848081047,1.013572464,-0.000000000,-0.788924754,2.917013407,-4.385118008,-1.178528666,0.966813982,0.322265625,-0.876091130,1.075823224,-1.255551635,-0.538081047,1.413572464,-0.590000000,-0.040533756,-0.001737825,0.020852715,0.151408837,0.081534118,0.005061306,-1.229369488,-0.417625204,1.632166211,-1.531450785,-1.367029882,-0.012683038,0.014903778,-0.314279623,0.122047138,0.033142422,-0.263215475,0.133277087
1702560366.127055,-0.349910456,0.022767197,-0.605512024,-0.859171858,1.023877361,-0.000000000,-0.949811637,3.051712990,-4.321815968,-1.473416567,1.001589894,0.356840491,-0.889910456,1.072767197,-1.295512024,-0.549171858,1.423877361,-0.590000000,-0.040533756,-0.001737825,0.020852715,0.151408837,0.081534118,0.005061306,-1.235793032,-0.415809461,1.632078859,-1.518205287,-1.367059710,-0.012683038,0.018194029,-0.314106322,0.122047138,0.034660932,-0.262251274,0.133230854
1702560366.139173,-0.417737954,0.026990722,-0.625046071,-0.978312444,1.041886906,0.000000000,-0.961111069,2.865544319,-4.396684170,-1.326964498,1.041672111,0.368707985,-0.957737954,1.076990722,-1.302613481,-0.668312444,1.441886906,0.590000000,-0.040533756,-0.001737825,0.020852715,0.151408837,0.081534118,0.005061306,-1.242847213,-0.413960162,1.632090577,-1.504164036,-1.367063438,-0.012683038,0.018194029,-0.314106322,0.122047138,0.036224372,-0.261253735,0.133188404
1702560366.150268,-0.350171913,0.028289281,-0.646637711,-0.848665758,1.075393471,-0.000000000,-0.924438179,2.972980738,-4.321873665,-1.373986363,1.070397735,0.374456495,-0.890171913,1.078289281,-1.320447211,-0.538665758,1.475393471,-0.589145987,-0.040533756,-0.001737825,0.020852715,0.151408837,0.081534118,0.005061306,-1.248596978,-0.412330307,1.632107621,-1.493434160,-1.367059710,-0.012664929,0.018194029,-0.314106322,0.122047138,0.037353447,-0.260563807,0.133240612
1702560366.161388,-0.381527545,0.024464993,-0.637518341,-0.891209519,1.081457356,0.000000000,-0.875648081,3.004047632,-4.379374504,-1.313342810,1.081907034,0.368348539,-0.921527545,1.074464993,-1.325105630,-0.581209519,1.481457356,0.589708220,-0.040533756,-0.001737825,0.020852715,0.151408837,0.081534118,0.005061306,-1.254468183,-0.410435735,1.632095904,-1.482337301,-1.366874886,-0.012675582,0.021482285,-0.313898575,0.122047138,0.038582913,-0.259958421,0.133368128
1702560366.172728,-0.384227414,0.022946632,-0.631053434,-0.878940571,1.079707033,0.000000000,-0.861387253,3.046890736,-4.373847008,-1.312397003,1.064627528,0.339529842,-0.924227414,1.072946632,-1.321053434,-0.568940571,1.479707033,0.587686604,-0.040533756,-0.001737825,0.020852715,0.151408837,0.081534118,0.005061306,-1.261403055,-0.408360599,1.632025063,-1.468196981,-1.366467955,-0.012687299,0.021482285,-0.313898575,0.122047138,0.040322470,-0.259243307,0.133480413
1702560366.183962,-0.379060348,0.015459591,-0.588733340,-0.847540908,1.041388367,-0.000000000,-0.930526137,3.066435814,-4.373620033,-1.342632294,1.105285287,0.334567934,-0.919060348,1.065459591,-1.278733340,-0.537540908,1.441388367,-0.590000000,-0.040533756,-0.001737825,0.020852715,0.151408837,0.081534118,0.005061306,-1.267118731,-0.406766431,1.631847697,-1.459023456,-1.365846374,-0.012675582,0.021482285,-0.313898575,0.122047138,0.041196495,-0.259019175,0.133637582
1702560366.195882,-0.361249988,0.018173176,-0.583968984,-0.800564087,1.018729906,0.000000000,-0.934415102,2.946434259,-4.362110615,-1.290115476,1.013880491,0.333973497,-0.901249988,1.068173176,-1.273968984,-0.490564087,1.418729906,0.590000000,-0.040533756,-0.001737825,0.020852715,0.151408837,0.081534118,0.005061306,-1.274759873,-0.405178655,1.631489768,-1.448360159,-1.363139004,-0.012661200,0.024768185,-0.313656406,0.122047138,0.042106259,-0.259343197,0.133665967
1702560366.207208,-0.378955019,0.015861333,-0.461056489,-0.795484642,0.802504596,0.000000000,-0.935123622,2.939338923,-4.270023346,-1.012393355,1.069949031,0.322317004,-0.918955019,1.065861333,-1.151056489,-0.485484642,1.202504596,0.589126642,-0.040533756,-0.001737825,0.020852715,0.151408837,0.081534118,0.005061306,-1.280214559,-0.403580758,1.631365665,-1.440163482,-1.359591673,-0.012687299,0.024768185,-0.313656406,0.122047138,0.043007082,-0.259947612,0.133687823
1702560366.218585,-0.264630545,0.009714444,-0.500857139,-0.582773241,0.904352070,-0.000000000,-0.838555098,2.941625357,-4.252758980,-1.191357017,0.800240457,0.339968473,-0.804630545,1.059714444,-1.190857139,-0.272773241,1.304352070,-0.590000000,-0.040533756,-0.001737825,0.020852715,0.151408837,0.081534118,0.005061306,-1.286319590,-0.401724002,1.630708397,-1.432266144,-1.354568952,-0.012687299,0.028051369,-0.313379841,0.122047138,0.043816315,-0.261208349,0.133792010
1702560366.230055,-0.258432428,-0.001608116,-0.398574837,-0.540046923,0.772331128,-0.000000000,-0.880776525,2.982756138,-4.241905212,-1.019905448,0.959714532,0.351039350,-0.798432428,1.048391884,-1.088574837,-0.230046923,1.172331128,-0.590000000,-0.040533756,-0.001737825,0.020852715,0.151408837,0.081534118,0.005061306,-1.293130890,-0.399506121,1.629866305,-1.423589032,-1.347644733,-0.012679843,0.028051369,-0.313379841,0.122047138,0.044764522,-0.263039474,0.133917676
1702560366.241505,-0.358142742,-0.002528804,-0.383450465,-0.708413403,0.756218825,-0.000000000,-0.922214448,3.068120003,-4.245241642,-1.099291563,0.858691812,0.345332533,-0.898142742,1.047471196,-1.073450465,-0.398413403,1.156218825,-0.588273101,-0.040533756,-0.001737825,0.020852715,0.151408837,0.081534118,0.005061306,-1.299554435,-0.397745772,1.629513170,-1.415895160,-1.342566085,-0.012661200,0.028051369,-0.313379841,0.122047138,0.045373758,-0.264290080,0.134009173
1702560366.253325,-0.269629100,0.007103533,-0.466113284,-0.551235259,0.855724042,0.000000000,-0.741134107,2.837928772,-4.172668934,-0.975882947,0.814860284,0.333775103,-0.809629100,1.057103533,-1.156113284,-0.241235259,1.255724042,0.590000000,-0.040533756,-0.001737825,0.020852715,0.151408837,0.081534118,0.005061306,-1.306350822,-0.396112189,1.628322737,-1.406300323,-1.336241077,-0.012675582,0.032424101,-0.312957636,0.122047138,0.046488769,-0.266037782,0.134129442
1702560366.264507,-0.286263603,-0.011124578,-0.310282744,-0.550516474,0.660054072,0.000000000,-0.706592500,2.850945234,-4.299906254,-1.020554662,0.949532628,0.351227969,-0.826263603,0.926328960,-1.000282744,-0.240516474,1.060054072,0.590000000,-0.040533756,-0.001737825,0.020852715,0.151408837,0.081534118,0.005061306,-1.313658536,-0.394766227,1.627458807,-1.397471411,-1.331939007,-0.012687299,0.032424101,-0.312957636,0.122047138,0.047101296,-0.267256127,0.134280931
1702560366.275930,-0.324919996,0.003259813,-0.492021679,-0.632010334,0.930265730,0.000000000,-1.000216722,1.944660425,-4.103277206,-1.031448364,0.771908224,0.368707985,-0.864919996,1.053259813,-1.182021679,-0.322010334,1.330265730,0.590000000,-0.040533756,-0.001737825,0.020852715,0.151408837,0.081534118,0.005061306,-1.320644540,-0.393371264,1.626779169,-1.387410521,-1.329039357,-0.012668125,0.032424101,-0.312957636,0.122047138,0.048002826,-0.267997813,0.134508921
1702560366.287492,-0.351587505,-0.014718216,-0.374529143,-0.657161169,0.806221819,0.000000000,-0.841452837,2.934924603,-4.336106300,-0.807716727,1.032812119,0.328827053,-0.891587505,1.035281784,-1.064529143,-0.347161169,1.206221819,0.589708881,-0.040533756,-0.001737825,0.020852715,0.151408837,0.081534118,0.005061306,-1.328134415,-0.392011986,1.625679283,-1.376432439,-1.327526149,-0.012687299,0.035699548,-0.312600938,0.122047138,0.048958515,-0.268540464,0.134894492
1702560366.299008,-0.402847819,-0.002283143,-0.463852821,-0.744112298,0.916165728,0.000000000,-0.875118375,2.909442425,-4.206752777,-1.013423204,0.903787911,0.328474373,-0.942847819,0.797365458,-1.140010401,-0.434112298,1.316165728,0.589708386,-0.040533756,-0.001737825,0.020852715,0.151408837,0.081534118,0.005061306,-1.334731065,-0.390260691,1.624890455,-1.363224225,-1.326864619,-0.012679843,0.035699548,-0.312600938,0.122047138,0.050655723,-0.268657999,0.135404624
1702560366.310297,-0.340919149,-0.007138892,-0.441252361,-0.625434270,0.893864065,0.000000000,-1.001920462,2.149302244,-4.224545956,-0.979997516,0.989882767,0.357211500,-0.880919149,1.042861108,-1.131252361,-0.315434270,1.293864065,0.589416777,-0.040533756,-0.001737825,0.020852715,0.151408837,0.081534118,0.005061306,-1.340327431,-0.389110206,1.624639585,-1.353192630,-1.325100009,-0.012683038,0.035699548,-0.312600938,0.122047138,0.051813243,-0.268987032,0.135647037
1702560366.321656,-0.355666036,-0.008021268,-0.405017186,-0.640051319,0.833783290,-0.000000000,-0.885894060,2.989643097,-4.253549576,-0.794904828,0.964413226,0.368483365,-0.895666036,0.059778182,-1.095017186,-0.330051319,1.233783290,-0.590000000,-0.040533756,-0.001737825,0.020852715,0.151408837,0.081534118,0.005061306,-1.347235671,-0.388011918,1.624418543,-1.341123184,-1.324116237,-0.012675582,0.038971080,-0.312209960,0.122047138,0.053094401,-0.269089173,0.135939642
1702560366.333157,-0.396869147,-0.000576406,-0.467634554,-0.703705833,0.918681786,0.000000000,-0.844399512,1.602466106,-4.172331810,-0.726557732,0.874891341,0.345284581,-0.936869147,-0.511482486,-1.079988146,-0.393705833,1.318681786,0.590000000,-0.040533756,-0.001737825,0.020852715,0.151408837,0.081534118,0.005061306,-1.354360692,-0.387583682,1.624211349,-1.329690233,-1.322914086,-0.012672386,0.038971080,-0.312209960,0.122047138,0.054150393,-0.269263612,0.136066755
1702560366.344404,-0.330956610,-0.002307663,-0.453965751,-0.578623784,0.895840929,0.000000000,-0.961885989,1.168340445,-4.264455318,-0.905709505,1.024602890,0.333824724,-0.870956610,-1.052307663,-1.143965751,-0.268623784,1.295840929,0.590000000,-0.040533756,-0.001737825,0.020852715,0.151408837,0.081534118,0.005061306,-1.362374144,-0.387626292,1.623758611,-1.315338991,-1.321744959,-0.012679843,0.038971080,-0.312209960,0.122047138,0.055716607,-0.269414235,0.136160912
1702560366.355341,-0.380005658,-0.007271401,-0.428419364,-0.655111926,0.880933156,0.000000000,-0.892727435,0.857456744,-4.270209312,-0.887145519,0.978306353,0.357211500,-0.920005658,-1.057271401,-1.118419364,-0.345111926,1.230845554,0.588856963,-0.040533756,-0.001737825,0.020852715,0.151408837,0.081534118,0.005061306,-1.369097028,-0.387828693,1.623329842,-1.304734283,-1.321833908,-0.012675582,0.042238339,-0.311784745,0.122047138,0.056629230,-0.269387289,0.136279678
1702560366.367712,-0.302848711,-0.003163363,-0.460424777,-0.510115717,0.911000845,0.000000000,-0.801150322,0.795841694,-4.201356888,-0.829402030,0.949811637,0.351086527,-0.842848711,-1.053163363,-1.150424777,-0.200115717,1.261876780,0.590000000,-0.040533756,-0.001737825,0.020852715,0.151408837,0.081534118,0.005061306,-1.376039356,-0.387869173,1.622295471,-1.292979623,-1.321922858,-0.012668125,0.042238339,-0.311784745,0.122047138,0.057826426,-0.269593475,0.136587199
1702560366.379057,-0.420689805,-0.001517672,-0.448599657,-0.705343286,0.897516486,0.000000000,-0.991487324,0.874739945,-4.291974068,-0.797151387,0.990083456,0.322471082,-0.960689805,-1.051517672,-1.138599657,-0.395343286,1.297516486,0.590000000,-0.040533756,-0.001737825,0.020852715,0.151408837,0.081534118,0.005061306,-1.382477815,-0.388535496,1.621930618,-1.281061444,-1.321682108,-0.012657472,0.042238339,-0.311784745,0.122047138,0.059153482,-0.269585468,0.136626577
1702560366.391395,-0.345668941,-0.001176771,-0.436090353,-0.566511670,0.863617980,0.000000000,-0.849775076,0.796236932,-4.230867863,-0.809682369,0.949550092,0.362959653,-0.885668941,-1.051176771,-1.126090353,-0.256511670,1.263617980,0.590000000,-0.040533756,-0.001737825,0.020852715,0.151408837,0.081534118,0.005061306,-1.389133054,-0.389950699,1.620732728,-1.270217052,-1.321700750,-0.012668125,0.046587416,-0.311164614,0.122047138,0.060183334,-0.269830714,0.136627122
1702560366.402887,-0.358510358,-0.000690515,-0.447736458,-0.579286084,0.885577353,0.000000000,-0.767994165,0.814677358,-4.202499390,-0.592989922,0.880945742,0.357211500,-0.898510358,-1.050690515,-1.137736458,-0.269286084,1.274338895,-0.000145476,-0.040533756,-0.001737825,0.020852715,0.151408837,0.081534118,0.005061306,-1.397056491,-0.391877763,1.619469324,-1.259075984,-1.321734306,-0.012679843,0.046587416,-0.311164614,0.122047138,0.060940000,-0.270147730,0.136531194
1702560366.414078,-0.274159557,-0.010927519,-0.384828450,-0.436818139,0.809073403,-0.000000000,-1.053180933,0.713611364,-4.284559727,-0.823008776,0.978374064,0.305218488,-0.814159557,-1.060927519,-1.074828450,-0.126818139,1.194713220,-0.590000000,-0.040533756,-0.001737825,0.020852715,0.151408837,0.081534118,0.005061306,-1.402781755,-0.393169396,1.618673572,-1.252207159,-1.321749220,-0.012672386,0.046587416,-0.311164614,0.122047138,0.061177704,-0.270412605,0.136459929
1702560366.425576,-0.308184876,-0.002497526,-0.418665276,-0.479895228,0.835158708,0.000000000,-0.802637160,0.925369143,-4.235526085,-0.467411280,0.886398613,0.345476359,-0.848184876,-1.052497526,-1.108665276,-0.169895228,1.226047988,0.589126642,-0.040533756,-0.001737825,0.020852715,0.151408837,0.081534118,0.005061306,-1.411455138,-0.395109775,1.617470888,-1.239867669,-1.321807809,-0.012683038,0.049843310,-0.310659699,0.122047138,0.062030223,-0.270781278,0.136427130
1702560366.437059,-0.292245984,0.007350807,-0.470763610,-0.436449714,0.879939932,-0.000000000,-0.911068797,0.835151851,-4.248458385,-0.702455938,0.909413278,0.333824724,-0.832245984,-1.042649193,-1.160763610,-0.126449714,1.279939932,-0.590000000,-0.040533756,-0.001737825,0.020852715,0.151408837,0.081534118,0.005061306,-1.417019546,-0.396493554,1.616949974,-1.232022529,-1.321737502,-0.012694756,0.049843310,-0.310659699,0.122047138,0.062542664,-0.270969630,0.136335584
1702560366.448889,-0.306659941,-0.001902435,-0.418019782,-0.462973059,0.832119652,-0.000000000,-0.984481692,0.781459391,-4.276161671,-0.702102244,0.915004194,0.310969204,-0.846659941,-1.051902435,-1.108019782,-0.152973059,1.228571168,-0.589124661,-0.040533756,-0.001737825,0.020852715,0.151408837,0.081534118,0.005061306,-1.424526465,-0.398599049,1.616090838,-1.221318219,-1.321759872,-0.012675582,0.049843310,-0.310659699,0.122047138,0.063265820,-0.271255702,0.136204157
1702560366.460031,-0.272890752,0.006213415,-0.461521211,-0.390166552,0.866506798,-0.000000000,-0.639708996,0.771157086,-4.241261005,-0.363278866,0.932428241,0.333973497,-0.812890752,-1.043786585,-1.151521211,-0.080166552,1.266506798,-0.589708223,-0.040533756,-0.001737825,0.020852715,0.151408837,0.081534118,0.005061306,-1.431213130,-0.400560733,1.615859676,-1.212622465,-1.321749220,-0.012668125,0.053093739,-0.310120717,0.122047138,0.063664363,-0.271366437,0.135966290
1702560366.471604,-0.304427234,0.003345661,-0.433721309,-0.441607785,0.835435586,-0.000000000,-0.772508621,0.840507746,-4.298808575,-0.403489143,0.897813678,0.333973497,-0.844427234,-1.046654339,-1.123721309,-0.131607785,1.235435586,-0.590000000,-0.040533756,-0.001737825,0.020852715,0.151408837,0.081534118,0.005061306,-1.436775408,-0.402353573,1.614939287,-1.204591970,-1.321744959,-0.012672386,0.053093739,-0.310120717,0.122047138,0.064233226,-0.271708968,0.135886198
1702560366.483096,-0.276319515,0.010590786,-0.465512729,-0.377186775,0.853313786,-0.000000000,-0.834517121,0.781671286,-4.218477726,-0.420253873,0.932712376,0.368483365,-0.816319515,-1.039409214,-1.155512729,-0.067186775,1.253313786,-0.589708716,-0.040533756,-0.001737825,0.020852715,0.151408837,0.081534118,0.005061306,-1.444579535,-0.405120065,1.614830098,-1.194616301,-1.321763601,-0.012675582,0.053093739,-0.310120717,0.122047138,0.064636613,-0.271785134,0.135484379
1702560366.494787,-0.264095978,0.010909974,-0.465439232,-0.348493137,0.849827851,-0.000000000,-0.680253506,0.789470255,-4.207110882,-0.287794709,0.880475700,0.328222215,-0.804095978,-1.039090026,-1.155439232,-0.038493137,1.249200309,-0.590000000,-0.040533756,-0.001737825,0.020852715,0.151408837,0.081534118,0.005061306,-1.451806289,-0.407482822,1.614684156,-1.185221201,-1.321763601,-0.012675582,0.057418525,-0.309349183,0.122047138,0.065055068,-0.271926292,0.135200291
1702560366.505800,-0.248912867,0.009112423,-0.456830740,-0.317891856,0.840644974,-0.000000000,-0.876611948,1.166099072,-4.167451382,-0.380509973,0.897813678,0.293548316,-0.788912867,-1.040887577,-1.138704344,-0.007891856,1.237277059,-0.589708716,-0.040533756,-0.001737825,0.020852715,0.151408837,0.081534118,0.005061306,-1.457217833,-0.409634656,1.614608523,-1.176147811,-1.321782243,-0.012672386,0.057418525,-0.309349183,0.122047138,0.065883191,-0.271974266,0.134971153
1702560366.517672,-0.254141774,0.010165900,-0.450329720,-0.320427634,0.824574678,0.000000000,-0.696419001,0.817679942,-4.195211887,-0.245033160,0.874739945,0.328020364,-0.794141774,-1.039834100,-1.140329720,-0.010427634,1.220968071,0.590000000,-0.040533756,-0.001737825,0.020852715,0.151408837,0.081534118,0.005061306,-1.463705293,-0.411788620,1.614654862,-1.167052583,-1.321778514,-0.012661200,0.057418525,-0.309349183,0.122047138,0.066418129,-0.272081669,0.134739426
1702560366.529148,-0.236675238,0.018557726,-0.482371057,-0.272987901,0.837977589,0.000000000,-0.731554389,0.901880443,-4.189773083,-0.282510430,0.823109329,0.299467921,-0.776675238,-1.031442274,-1.123437401,0.037012099,1.237977589,0.590000000,-0.040533756,-0.001737825,0.020852715,0.151408837,0.081534118,0.005061306,-1.470296617,-0.414199314,1.614671906,-1.158282794,-1.321744959,-0.012668125,0.060654814,-0.308730947,0.122047138,0.066838298,-0.272216120,0.134443830
1702560366.540617,-0.228977669,0.006471486,-0.426216474,-0.272264022,0.794632375,0.000000000,-0.604932725,0.806074977,-4.114786148,-0.185584888,0.788420796,0.369425833,-0.768977669,-1.043528514,-1.116216474,0.037735978,1.194410162,0.588855669,-0.040533756,-0.001737825,0.020852715,0.151408837,0.081534118,0.005061306,-1.476116689,-0.416469925,1.614627697,-1.149923131,-1.321759872,-0.012672386,0.060654814,-0.308730947,0.122047138,0.067365586,-0.272350900,0.134198429
1702560366.552269,-0.171983508,0.005232668,-0.418401890,-0.171503496,0.775565058,-0.000000000,-0.675539196,0.938040793,-4.189453125,-0.328827053,0.852013052,0.316563189,-0.711983508,-0.990383843,-1.099850029,0.138496504,1.175565058,-0.590000000,-0.040533756,-0.001737825,0.020852715,0.151408837,0.081534118,0.005061306,-1.483215079,-0.419390347,1.614579228,-1.140076892,-1.321749220,-0.012672386,0.063884452,-0.308078855,0.122047138,0.067914852,-0.272535843,0.133858800
1702560366.563672,-0.209804139,0.011541060,-0.432835268,-0.220350551,0.777583918,-0.000000000,-0.821720123,0.959179461,-4.097393513,-0.202154562,0.800426662,0.374456495,-0.749804139,-1.038458940,-1.122835268,0.089649449,1.176597631,-0.587690532,-0.040533756,-0.001737825,0.020852715,0.151408837,0.081534118,0.005061306,-1.489305728,-0.421927807,1.614413579,-1.130315874,-1.321759872,-0.012657472,0.063884452,-0.308078855,0.122047138,0.068720667,-0.272763654,0.133662950
1702560366.574754,-0.173829082,0.006279423,-0.406858488,-0.164410356,0.749361201,0.000000000,-0.683822334,0.844615161,-4.143610954,-0.184511110,0.776911676,0.322317004,-0.713829082,-1.043720577,-1.096858488,0.145589644,1.147218336,0.590000000,-0.040533756,-0.001737825,0.020852715,0.151408837,0.081534118,0.005061306,-1.495843788,-0.424043422,1.614282552,-1.122203885,-1.321804613,-0.012668125,0.063884452,-0.308078855,0.122047138,0.068983704,-0.273067067,0.133515284
1702560366.585741,-0.240206934,0.012443729,-0.427156766,-0.258971283,0.768976795,0.000000000,-0.729559839,0.932428241,-4.166628838,-0.120986551,0.736697078,0.310809404,-0.780206934,-1.037556271,-1.117156766,0.051028717,1.168187773,0.590000000,-0.040533756,-0.001737825,0.020852715,0.151408837,0.081534118,0.005061306,-1.502023920,-0.426723628,1.613943798,-1.112365103,-1.321778514,-0.012675582,0.063884452,-0.308078855,0.122047138,0.069777969,-0.273418034,0.133347731
1702560366.597020,-0.137721782,-0.003306817,-0.346118588,-0.116200481,0.679137015,0.000000000,-0.586870968,0.843516588,-4.132102013,-0.106112219,0.771672189,0.374235332,-0.677721782,-1.053306817,-1.036118588,0.193799519,1.078150727,0.590000000,-0.040533756,-0.001737825,0.020852715,0.151408837,0.081534118,0.005061306,-1.508209378,-0.429103961,1.613608239,-1.103091976,-1.321785971,-0.012668125,0.067107085,-0.307392979,0.122047138,0.070423263,-0.273817736,0.133253833
1702560366.608321,-0.162996516,0.006779786,-0.370913993,-0.138732611,0.678582695,0.000000000,-0.703515887,0.867612302,-4.132306576,-0.115238644,0.776911676,0.328827053,-0.702996516,-1.043220214,-1.060913993,0.171267389,1.077215209,0.590000000,-0.040533756,-0.001737825,0.020852715,0.151408837,0.081534118,0.005061306,-1.513550081,-0.431597213,1.612860424,-1.095187714,-1.321807809,-0.012664929,0.067107085,-0.307392979,0.122047138,0.070955864,-0.274299548,0.133134462
1702560366.620358,-0.133761480,0.014043488,-0.395673446,-0.070772668,0.680429536,0.000000000,-0.749907315,0.829002678,-4.028423309,-0.122076541,0.702102244,0.380509973,-0.673761480,-1.035956512,-1.085673446,0.239227332,1.078076536,0.589436968,-0.040533756,-0.001737825,0.020852715,0.151408837,0.081534118,0.005061306,-1.518669210,-0.434095258,1.612402893,-1.086440295,-1.321815266,-0.012668125,0.071392420,-0.306426054,0.122047138,0.071748939,-0.274699178,0.133029365
1702560366.631477,-0.160905278,-0.006685011,-0.322852427,-0.149307345,0.658697331,0.000000000,-0.624727666,0.892894387,-4.108987331,-0.040692180,0.690593183,0.351793259,-0.700905278,-1.056685011,-1.012852427,0.160692655,1.055372134,0.590000000,-0.040533756,-0.001737825,0.020852715,0.151408837,0.081534118,0.005061306,-1.525847494,-0.437269213,1.612305421,-1.076046510,-1.321807809,-0.012672386,0.071392420,-0.306426054,0.122047138,0.072371951,-0.275105211,0.132795584
1702560366.642738,-0.181958432,0.007428469,-0.375074619,-0.148903116,0.686814892,0.000000000,-0.743854821,0.923793137,-4.028423309,-0.054594286,0.702078700,0.351463616,-0.721958432,-1.042571531,-0.954698460,0.161096884,1.081922958,0.590000000,-0.040533756,-0.001737825,0.020852715,0.151408837,0.081534118,0.005061306,-1.531865173,-0.440351556,1.612249494,-1.065064699,-1.321830180,-0.012672386,0.071392420,-0.306426054,0.122047138,0.073452885,-0.275465016,0.132643281
1702560366.653786,-0.154350575,0.006199754,-0.354978518,-0.105427626,0.650017564,-0.000000000,-0.708675086,0.811582029,-3.999695539,0.011509486,0.638776481,0.380509973,-0.694350575,-1.043800246,-1.044978518,0.204572374,1.044919659,-0.589709045,-0.040533756,-0.001737825,0.020852715,0.151408837,0.081534118,0.005061306,-1.537347024,-0.442779293,1.612288377,-1.056401969,-1.321845093,-0.012668125,0.071392420,-0.306426054,0.122047138,0.074094758,-0.275801717,0.132528740
1702560366.664858,-0.139884650,-0.000218870,-0.320543862,-0.094822515,0.616567742,0.000000000,-0.685394526,0.956274867,-3.947770834,-0.080771670,0.650387824,0.362594485,-0.679884650,-1.050218870,-0.906491489,0.215177485,1.013037337,-0.000145560,-0.040533756,-0.001737825,0.020852715,0.151408837,0.081534118,0.005061306,-1.543395595,-0.445778545,1.612381055,-1.047102743,-1.321815266,-0.012675582,0.074597333,-0.305661647,0.122047138,0.074727989,-0.276152971,0.132302772
1702560366.676420,-0.140081475,-0.004232063,-0.310162009,-0.097401797,0.618090432,-0.000000000,-0.666010559,0.953430891,-3.976677656,0.067111261,0.644556940,0.362731457,-0.680081475,-1.054232063,-0.990357374,0.212598203,1.013964540,-0.587984099,-0.040533756,-0.001737825,0.020852715,0.151408837,0.081534118,0.005061306,-1.548568519,-0.448497633,1.612371467,-1.037963306,-1.321896759,-0.012664929,0.074597333,-0.305661647,0.122047138,0.075560230,-0.276502722,0.132185341
1702560366.688364,-0.165044537,0.018601004,-0.376775394,-0.085599963,0.628232526,-0.000000000,-0.802410126,0.827263117,-4.016827106,0.051792689,0.592766464,0.316720068,-0.705044537,-1.031398996,-1.066775394,0.224400037,1.023335100,-0.588275071,-0.040533756,-0.001737825,0.020852715,0.151408837,0.081534118,0.005061306,-1.553875134,-0.452011408,1.612312878,-1.027990833,-1.321885573,-0.012653744,0.077794065,-0.304863720,0.122047138,0.076549044,-0.276871258,0.131925203
1702560366.700109,-0.124580232,0.010085862,-0.339275884,-0.037760520,0.593611359,0.000000000,-0.645173192,0.835706830,-3.970839500,0.078272976,0.552485347,0.351793259,-0.664580232,-1.039914138,-0.978575565,0.272239480,0.988324687,0.000436437,-0.040533756,-0.001737825,0.020852715,0.151408837,0.081534118,0.005061306,-1.559191336,-0.454880697,1.612315541,-1.019631703,-1.321893030,-0.012668125,0.077794065,-0.304863720,0.122047138,0.077130055,-0.277257035,0.131736959
1702560366.711292,-0.108151300,0.004237711,-0.302464109,-0.027288679,0.552463737,0.000000000,-0.647095203,0.917768776,-3.855682135,0.197765663,0.535314858,0.316563189,-0.648151300,-1.045762289,-0.976119747,0.282711321,0.945024312,0.590000000,-0.040533756,-0.001737825,0.020852715,0.151408837,0.081534118,0.005061306,-1.564979983,-0.457848524,1.612327791,-1.009752441,-1.321940967,-0.012661200,0.077794065,-0.304863720,0.122047138,0.077945466,-0.277738959,0.131651846
1702560366.722864,-0.104389505,0.007985983,-0.314293718,-0.008966575,0.553498929,-0.000000000,-0.713611364,0.947717249,-3.930557013,0.116382487,0.523713231,0.322471082,-0.644389505,-1.042014017,-0.972969922,0.301033425,0.946848533,-0.588856963,-0.040533756,-0.001737825,0.020852715,0.151408837,0.081534118,0.005061306,-1.569125460,-0.460095699,1.612376261,-1.003253263,-1.321933510,-0.012661200,0.082043044,-0.303747828,0.122047138,0.078380465,-0.278062108,0.131515454
1702560366.734474,-0.120560116,0.005022369,-0.298166084,-0.040303288,0.543319658,-0.000000000,-0.691838861,0.859771013,-3.855678082,0.144213453,0.575474322,0.316981375,-0.660560116,-1.044977631,-0.988166084,0.269696712,0.936270762,-0.589126156,-0.040533756,-0.001737825,0.020852715,0.151408837,0.081534118,0.005061306,-1.574911443,-0.463900291,1.612359217,-0.991683426,-1.321948424,-0.012672386,0.082043044,-0.303747828,0.122047138,0.079586922,-0.278598367,0.131365826
1702560366.746595,-0.088144721,-0.002838091,-0.253520764,-0.012313604,0.494409107,-0.000000000,-0.592487037,0.823652387,-3.832814693,0.150616050,0.460703045,0.333775103,-0.628144721,-1.052838091,-0.943520764,0.297686396,0.888730966,-0.590000000,-0.040533756,-0.001737825,0.020852715,0.151408837,0.081534118,0.005061306,-1.580758680,-0.467260668,1.612339509,-0.981704028,-1.321940967,-0.012675582,0.082043044,-0.303747828,0.122047138,0.080374914,-0.279161482,0.131235111
1702560366.759072,-0.089682325,0.002728897,-0.269119643,0.001704111,0.494099311,-0.000000000,-0.658786178,0.917046845,-3.890244722,0.202154562,0.512204468,0.362594485,-0.629682325,-1.047271103,-0.957824403,0.311704111,0.886857143,-0.589708386,-0.040533756,-0.001737825,0.020852715,0.151408837,0.081534118,0.005061306,-1.585047434,-0.470351533,1.612359217,-0.974025070,-1.321937771,-0.012675582,0.085219328,-0.302872036,0.122047138,0.081032106,-0.279530045,0.131001922
1702560366.770377,-0.124128219,0.002772040,-0.260899786,-0.053957703,0.487969486,-0.000000000,-0.612197578,0.943725288,-3.849940538,0.322522432,0.425850987,0.368303567,-0.664128219,-1.047227960,-0.928254711,0.256042297,0.883230073,-0.589147436,-0.040533756,-0.001737825,0.020852715,0.151408837,0.081534118,0.005061306,-1.588800894,-0.473243193,1.612385848,-0.965725062,-1.322003818,-0.012657472,0.085219328,-0.302872036,0.122047138,0.081982936,-0.279908975,0.130892266
1702560366.781628,-0.070956020,0.005194333,-0.253289328,0.032807895,0.447319149,0.000000000,-0.754069030,0.868737578,-3.746355295,0.143983632,0.477782339,0.322317004,-0.610956020,-1.044805667,-0.939903902,0.342807895,0.839476339,0.590000000,-0.040533756,-0.001737825,0.020852715,0.151408837,0.081534118,0.005061306,-1.592189500,-0.475975064,1.612385848,-0.958260754,-1.322022460,-0.012668125,0.085219328,-0.302872036,0.122047138,0.082825467,-0.280272529,0.130768736
1702560366.792751,-0.083655666,0.005726396,-0.253511130,0.016496057,0.448120914,0.000000000,-0.711194038,0.941986620,-3.867226124,0.200179055,0.408627301,0.328474373,-0.623655666,-1.044273604,-0.943511130,0.326496057,0.840282619,0.590000000,-0.040533756,-0.001737825,0.020852715,0.151408837,0.081534118,0.005061306,-1.597009289,-0.479862746,1.612368804,-0.948573239,-1.322026188,-0.012675582,0.088386266,-0.301963031,0.122047138,0.083789612,-0.280777454,0.130529646
1702560366.804195,-0.068492556,-0.005175764,-0.207392021,0.007416670,0.417125667,-0.000000000,-0.551885605,0.994089246,-3.717849255,0.394021362,0.345284581,0.310809404,-0.608492556,-1.055175764,-0.897392021,0.317416670,0.809476084,-0.590000000,-0.040533756,-0.001737825,0.020852715,0.151408837,0.081534118,0.005061306,-1.599730507,-0.482322974,1.612373598,-0.942363280,-1.322029917,-0.012683038,0.088386266,-0.301963031,0.122047138,0.084504581,-0.281082893,0.130392158
1702560366.815910,-0.125653131,-0.000057355,-0.218589386,-0.067772238,0.426442234,0.000000000,-0.676053762,0.903659582,-3.775115728,0.222285107,0.385610729,0.391364872,-0.665653131,-1.050057355,-0.903110713,0.242227762,0.821146573,0.589708716,-0.040533756,-0.001737825,0.020852715,0.151408837,0.081534118,0.005061306,-1.603265054,-0.485828760,1.612402893,-0.933363926,-1.322026188,-0.012672386,0.088386266,-0.301963031,0.122047138,0.085646231,-0.281511770,0.130217984
1702560366.827245,-0.047063279,0.002019643,-0.216867491,0.058944874,0.390476307,0.000000000,-0.669556439,0.964911044,-3.821188450,0.278377354,0.345284581,0.356840491,-0.587063279,-1.047980357,-0.896067390,0.368944874,0.784982942,0.000426278,-0.040533756,-0.001737825,0.020852715,0.151408837,0.081534118,0.005061306,-1.606933292,-0.489369166,1.612407686,-0.925722252,-1.322044830,-0.012675582,0.092593712,-0.300699532,0.122047138,0.086422151,-0.281890054,0.129929411
1702560366.838737,-0.015484862,0.001631615,-0.199031194,0.098937407,0.351454521,0.000000000,-0.501422763,1.026298404,-3.711849451,0.459010661,0.253208697,0.368303567,-0.555484862,-1.048368385,-0.881734982,0.408937407,0.743235508,0.590000000,-0.040533756,-0.001737825,0.020852715,0.151408837,0.081534118,0.005061306,-1.610304854,-0.492434465,1.612413013,-0.920310708,-1.322111409,-0.012672386,0.092593712,-0.300699532,0.122047138,0.086753428,-0.282158903,0.129580160
1702560366.850230,-0.061087447,0.003423061,-0.209877175,0.038354846,0.374238265,-0.000000000,-0.581342995,1.013880491,-3.809679031,0.342636853,0.293717504,0.328827053,-0.601087447,-1.046576939,-0.894676627,0.348354846,0.764320938,-0.589417761,-0.040533756,-0.001737825,0.020852715,0.151408837,0.081534118,0.005061306,-1.612600499,-0.495502426,1.612388511,-0.913948949,-1.322130052,-0.012683038,0.092593712,-0.300699532,0.122047138,0.087602666,-0.282427632,0.129324887
1702560366.861553,0.012801215,0.015181761,-0.233567427,0.182162392,0.334121724,0.000000000,-0.635632157,1.005632162,-3.740622759,0.387110770,0.264718175,0.369022220,-0.523949350,-1.028499895,-0.919415372,0.490296976,0.724076142,0.586449692,-0.040533756,-0.001737825,0.020852715,0.151408837,0.081534118,0.005061306,-1.614316640,-0.498369053,1.612393305,-0.908489469,-1.322130052,-0.012668125,0.095737496,-0.299713423,0.122047138,0.088399650,-0.282612565,0.129041219
1702560366.873764,-0.032278324,0.017809483,-0.239366093,0.119955017,0.343584647,0.000000000,-0.456949800,1.007145882,-3.826921463,0.548182726,0.236575231,0.362594485,-0.559789677,-1.007907037,-0.904208864,0.422785609,0.727462592,0.575235230,-0.040533756,-0.001737825,0.020852715,0.151408837,0.081534118,0.005061306,-1.616397634,-0.501441275,1.612407686,-0.904794067,-1.322136976,-0.012672386,0.095737496,-0.299713423,0.122047138,0.088683382,-0.282688552,0.128536011
1702560366.885456,-0.028430007,0.014958814,-0.234669916,0.121979843,0.348543254,0.000000000,-0.546821713,1.053117990,-3.746342421,0.466702253,0.230261639,0.305489630,-0.543398452,-0.986368719,-0.892685152,0.417609877,0.721533492,0.562114380,-0.040533756,-0.001737825,0.020852715,0.151408837,0.081534118,0.005061306,-1.618620308,-0.504511367,1.612364010,-0.899963092,-1.322174260,-0.012668125,0.095737496,-0.299713423,0.122047138,0.089187944,-0.282873458,0.128154073
1702560366.896427,-0.019935692,0.015175419,-0.209301095,0.121145699,0.299407630,0.000000000,-0.552725077,1.090504885,-3.706059217,0.504484594,0.218755960,0.357535869,-0.530151080,-0.976910057,-0.861242978,0.414047125,0.666499681,0.557457553,-0.040533756,-0.001737825,0.020852715,0.151408837,0.081534118,0.005061306,-1.620740185,-0.508033132,1.612451895,-0.894115856,-1.322199826,-0.012653744,0.098870781,-0.298694447,0.122047138,0.089956276,-0.283031282,0.127729426
1702560366.907709,-0.004498095,0.007033887,-0.187301798,0.123303378,0.297743877,0.000000000,-0.575503111,1.041020155,-3.642866373,0.460703045,0.150065333,0.345476359,-0.504018890,-0.964256547,-0.796602652,0.410065316,0.658925318,0.000134876,-0.040533756,-0.001737825,0.020852715,0.151408837,0.081534118,0.005061306,-1.621882148,-0.510688836,1.612507821,-0.890446020,-1.322189174,-0.012675582,0.098870781,-0.298694447,0.122047138,0.090490870,-0.283072492,0.127339595
1702560366.918999,-0.029287105,0.018136361,-0.227967293,0.124591445,0.319530108,-0.000000000,-0.397452414,1.067175269,-3.619738102,0.492526680,0.126735061,0.299744248,-0.519991723,-0.936011509,-0.854978750,0.406292245,0.676565958,-0.536140231,-0.040533756,-0.001737825,0.020852715,0.151408837,0.081534118,0.005061306,-1.622590016,-0.513960263,1.612490777,-0.886673386,-1.322204087,-0.012668125,0.098870781,-0.298694447,0.122047138,0.091173952,-0.283033336,0.126803674
1702560366.930339,0.095811916,0.029728865,-0.247168255,0.343181373,0.256163673,0.000000000,-0.495208919,1.002201438,-3.689077616,0.471924037,0.143983632,0.351227969,0.203237453,-0.971621807,-0.905198697,0.488751406,0.632841630,0.562386237,-0.040533756,-0.001737825,0.020852715,0.151408837,0.081534118,0.005061306,-1.623352213,-0.516808780,1.612451895,-0.885560185,-1.322196631,-0.012675582,0.103031569,-0.297284880,0.122047138,0.091228879,-0.282867960,0.126126534
1702560366.941857,0.057342348,0.031072030,-0.257254365,0.292371859,0.278462029,0.000000000,0.345715940,0.970113814,-3.735112190,0.598603964,0.109340124,0.362959653,0.574419421,-0.974355610,-0.917963957,0.589212401,0.656776679,0.564954579,-0.040533756,-0.001737825,0.020852715,0.151408837,0.081534118,0.005061306,-1.623386301,-0.519830935,1.612432187,-0.885427027,-1.322222197,-0.012675582,0.103031569,-0.297284880,0.122047138,0.091269310,-0.282527177,0.125306028
1702560366.952974,0.011850320,0.036816843,-0.283678879,0.246267519,0.308995187,0.000000000,0.594997048,1.019629359,-3.688830853,0.604494631,0.115238644,0.335013062,0.527606320,-0.966042047,-0.934938885,0.542349667,0.686485472,0.563511186,-0.040533756,-0.001737825,0.020852715,0.151408837,0.081534118,0.005061306,-1.622334885,-0.522466400,1.612451895,-0.884875752,-1.322199826,-0.012675582,0.103031569,-0.297284880,0.122047138,0.091707467,-0.282158633,0.124624796
1702560366.964003,0.053977924,0.023047963,-0.224006302,0.257616607,0.261789834,-0.000000000,0.491314888,1.116657495,-3.746355295,0.565401673,0.155484602,0.310969204,0.590196125,-1.019598539,-0.909174004,0.565445574,0.655482786,-0.585868034,-0.040533756,-0.001737825,0.020852715,0.151408837,0.081534118,0.005061306,-1.621022480,-0.524898931,1.612398099,-0.883063737,-1.322207283,-0.012683038,0.106139023,-0.296189655,0.122047138,0.092505386,-0.281900745,0.124137099
1702560366.975198,0.089275229,0.027253410,-0.229027748,0.320418616,0.238183418,0.000000000,0.610979259,1.079593539,-3.763602018,0.713680983,0.138113841,0.333973497,0.387632030,-1.015086714,-0.913994115,0.628157128,0.635265370,0.000288669,-0.040533756,-0.001737825,0.020852715,0.151408837,0.081534118,0.005061306,-1.620550568,-0.527754372,1.612405556,-0.882549215,-1.322111409,-0.012668125,0.106139023,-0.296189655,0.122047138,0.092767887,-0.281574536,0.123387361
1702560366.987093,0.085454616,0.046834672,-0.291501722,0.377910518,0.248418831,-0.000000000,0.483398438,1.036141396,-3.723679304,0.667550206,0.092255555,0.305055678,0.625454616,-1.003165328,-0.969538303,0.627207260,0.648418831,-0.590000000,-0.040533756,-0.001737825,0.020852715,0.151408837,0.081534118,0.005061306,-1.620477064,-0.530945904,1.612322465,-0.882512463,-1.322115138,-0.012664929,0.106139023,-0.296189655,0.122047138,0.092814742,-0.281216151,0.122520288
1702560366.998098,0.109484498,0.045032894,-0.274989884,0.402567399,0.221164045,0.000000000,0.587011993,0.972619772,-3.619733572,0.685032010,0.097999744,0.328070819,0.649484498,-1.004967106,-0.964989884,0.712567399,0.621164045,-0.001007951,-0.040533756,-0.001737825,0.020852715,0.151408837,0.081534118,0.005061306,-1.620294904,-0.533105195,1.612305421,-0.882379305,-1.322115138,-0.012668125,0.109234837,-0.295061950,0.122047138,0.092908974,-0.280954354,0.121939365
1702560367.009227,-0.011375626,0.032230046,-0.242848033,0.181082520,0.266694354,-0.000000000,0.564082265,0.971597731,-3.671977282,0.736629605,0.067357540,0.351227969,0.528624374,-1.017769954,-0.931699567,0.491082520,0.666694354,-0.589147910,-0.040533756,-0.001737825,0.020852715,0.151408837,0.081534118,0.005061306,-1.619014456,-0.535581403,1.612329922,-0.879982460,-1.322122595,-0.012664929,0.109234837,-0.295061950,0.122047138,0.093830672,-0.280703159,0.121488698
1702560367.020802,-0.030258346,0.035588123,-0.254513001,0.165678020,0.275167347,-0.000000000,0.577312887,1.289499164,-3.573769569,0.562465429,0.097830638,0.328020364,0.509271312,-1.013497323,-0.937537075,0.475408009,0.674818945,-0.589486108,-0.040533756,-0.001737825,0.020852715,0.151408837,0.081534118,0.005061306,-1.616239442,-0.538637646,1.612398099,-0.875288372,-1.322130052,-0.012687299,0.109234837,-0.295061950,0.122047138,0.095697257,-0.280394263,0.121100367
1702560367.031823,0.084377213,0.039041104,-0.246594042,0.342131906,0.208100934,0.000000000,0.417566001,1.128648758,-3.597009182,0.563994229,0.097999744,0.362731457,0.624377213,-1.010958896,-0.936594042,0.652131906,0.608100934,0.000000000,-0.040533756,-0.001737825,0.020852715,0.151408837,0.081534118,0.005061306,-1.614803466,-0.541282698,1.612381055,-0.873050784,-1.322078386,-0.012672386,0.113343898,-0.293508032,0.122047138,0.096620188,-0.280119819,0.120590119
1702560367.043322,0.073862060,0.043966949,-0.260450264,0.341795585,0.209969502,-0.000000000,0.617476165,1.123575807,-3.734845877,0.749531865,0.065614171,0.374058306,0.613862060,-1.006033051,-0.950450264,0.651795585,0.609969502,-0.590000000,-0.040533756,-0.001737825,0.020852715,0.151408837,0.081534118,0.005061306,-1.613688134,-0.543638530,1.612186111,-0.871167929,-1.322066668,-0.012683038,0.113343898,-0.293508032,0.122047138,0.097369366,-0.279938154,0.120152387
1702560367.054581,0.016405273,0.052215147,-0.296449590,0.287900939,0.248137579,-0.000000000,0.587096632,1.001589894,-3.654262066,0.759647906,0.052111421,0.322727710,0.556405273,-0.997784853,-0.986449590,0.597900939,0.648137579,-0.590000000,-0.040533756,-0.001737825,0.020852715,0.151408837,0.081534118,0.005061306,-1.611643892,-0.546185577,1.612191438,-0.870247008,-1.322018731,-0.012675582,0.113343898,-0.293508032,0.122047138,0.098161218,-0.279503286,0.119537116
1702560367.066861,-0.021344866,0.030925323,-0.208150355,0.147099282,0.213723688,0.000000000,0.565840840,1.481385350,-3.505021572,0.696680546,0.029343547,0.328070819,0.518655134,-1.019074677,-0.898150355,0.457099282,0.613723688,0.590000000,-0.040533756,-0.001737825,0.020852715,0.151408837,0.081534118,0.005061306,-1.609009493,-0.549267387,1.612111010,-0.863944371,-1.321756144,-0.012675582,0.116411236,-0.292305026,0.122047138,0.100328252,-0.279429426,0.119302781
1702560367.077913,0.094794596,0.053739082,-0.286064516,0.406520757,0.196775587,0.000000000,0.572618663,1.038663387,-3.568502426,0.581229091,0.040692180,0.311235338,0.634794596,-0.996260918,-0.823082153,0.641810072,0.581119268,-0.001007381,-0.040533756,-0.001737825,0.020852715,0.151408837,0.081534118,0.005061306,-1.608007079,-0.551257301,1.612191438,-0.863792571,-1.321785971,-0.012687299,0.116411236,-0.292305026,0.122047138,0.100654508,-0.279057041,0.118762920
1702560367.089683,0.075521093,0.056150570,-0.291592076,0.384007041,0.199836520,0.000000000,0.615757525,1.012851119,-3.712812901,0.794488072,0.011509486,0.339578599,0.615521093,-0.993849430,-0.981592076,0.609417235,0.599836520,0.588856963,-0.040533756,-0.001737825,0.020852715,0.151408837,0.081534118,0.005061306,-1.606921042,-0.553993433,1.612062541,-0.863522527,-1.321771057,-0.012672386,0.116411236,-0.292305026,0.122047138,0.101028642,-0.278677000,0.118052601
1702560367.101126,0.045168967,0.045237956,-0.260796821,0.303474435,0.211614547,0.000000000,0.611331463,1.177572966,-3.660057545,0.673329532,0.020749021,0.351039350,0.585168967,-0.435493942,-0.950796821,0.613474435,0.611614547,0.588836181,-0.040533756,-0.001737825,0.020852715,0.151408837,0.081534118,0.005061306,-1.604854429,-0.556160714,1.611835639,-0.863352084,-1.321759872,-0.012690495,0.119465808,-0.291069966,0.122047138,0.101648906,-0.278293796,0.117501919
1702560367.112723,0.033181058,0.048111317,-0.267736999,0.293385041,0.212732339,-0.000000000,0.643399835,1.117620945,-3.660129786,0.719434977,0.005754743,0.333824724,0.573181058,-0.689639595,-0.957736999,0.603385041,0.604604636,-0.590000000,-0.040533756,-0.001737825,0.020852715,0.151408837,0.081534118,0.005061306,-1.600429320,-0.558542645,1.611166653,-0.863134238,-1.321830180,-0.012679843,0.119465808,-0.291069966,0.122047138,0.102933993,-0.277784182,0.116961368
1702560367.123684,0.079048765,0.044500920,-0.230362639,0.333551289,0.151613426,-0.000000000,0.568905175,1.027974963,-3.683107615,0.702102244,0.035004739,0.322471082,0.619048765,-0.551249410,-0.920362639,0.593833748,0.551613426,-0.589708881,-0.040533756,-0.001737825,0.020852715,0.151408837,0.081534118,0.005061306,-1.596064399,-0.560813789,1.609788734,-0.863281777,-1.321697022,-0.012672386,0.119465808,-0.291069966,0.122047138,0.104100191,-0.277566504,0.116482759
1702560367.134712,0.136317057,0.045018366,-0.201618593,0.401842259,0.080877305,0.000000000,0.641363502,1.536085248,-3.622591496,0.662195683,-0.017264230,0.305489630,0.676317057,-1.004981634,-0.891618593,0.681742990,0.477992434,0.588836192,-0.040533756,-0.001737825,0.020852715,0.151408837,0.081534118,0.005061306,-1.593319213,-0.562766951,1.608496035,-0.864735863,-1.321697022,-0.012683038,0.123518134,-0.289373590,0.122047138,0.104525565,-0.277395272,0.115963281
1702560367.145738,0.114644238,0.050943749,-0.229130644,0.394188961,0.105847168,-0.000000000,0.666060269,1.319054365,-3.528375626,0.713611364,-0.115668900,0.362959653,0.654644238,-0.999056251,-0.919130644,0.704188961,0.499334076,-0.589437288,-0.040533756,-0.001737825,0.020852715,0.151408837,0.081534118,0.005061306,-1.591194010,-0.564657263,1.606940749,-0.864221340,-1.321719392,-0.012664929,0.123518134,-0.289373590,0.122047138,0.105226562,-0.277530114,0.115691984
1702560367.156913,0.109846713,0.045910345,-0.188691074,0.352773263,0.062176275,-0.000000000,0.606436372,1.116657495,-3.549407959,0.753893316,-0.063302174,0.356840491,0.649846713,-1.004089655,-0.878691074,0.662773263,0.462176275,-0.589729062,-0.040533756,-0.001737825,0.020852715,0.151408837,0.081534118,0.005061306,-1.589358560,-0.566622676,1.605475478,-0.863725992,-1.321663998,-0.012664929,0.123518134,-0.289373590,0.122047138,0.105840948,-0.277667976,0.115378023
1702560367.169147,0.140834750,0.039172332,-0.137167229,0.356200121,-0.003080773,0.000000000,0.672394395,1.107844114,-3.589087248,0.742451072,-0.126735061,0.312085420,0.680834750,-1.010827668,-0.827167229,0.664669599,-0.403080773,0.589708223,-0.040533756,-0.001737825,0.020852715,0.151408837,0.081534118,0.005061306,-1.585775010,-0.569561208,1.602522565,-0.863714807,-1.321711935,-0.012668125,0.126541619,-0.288064268,0.122047138,0.106829571,-0.277975125,0.114943188
1702560367.180841,0.055194156,0.047411123,-0.206708836,0.282394420,0.104337084,0.000000000,0.639683127,2.086124182,-3.482033491,0.684911191,-0.172738180,0.346481442,0.595194156,-1.002588877,-0.896708836,0.581997778,0.211848604,0.000000000,-0.040533756,-0.001737825,0.020852715,0.151408837,0.081534118,0.005061306,-1.581420209,-0.571664040,1.600528922,-0.863725992,-1.322089039,-0.012679843,0.126541619,-0.288064268,0.122047138,0.108048384,-0.277873291,0.114649127
1702560367.192509,0.077706322,0.035291026,-0.129140099,0.248616911,0.023147229,-0.000000000,0.647632360,1.803035617,-3.522166252,0.713588178,-0.143868580,0.310969204,0.617706322,-0.731588210,-0.819140099,0.558616911,0.423147229,-0.589708716,-0.040533756,-0.001737825,0.020852715,0.151408837,0.081534118,0.005061306,-1.577211882,-0.573557547,1.598150720,-0.863637043,-1.321919129,-0.012679843,0.126541619,-0.288064268,0.122047138,0.109225829,-0.278084496,0.114414021
1702560367.203758,0.146675399,0.039280422,-0.114972130,0.348025799,-0.043072627,-0.000000000,0.628295660,1.374914050,-3.477755547,0.661820471,-0.161132813,0.351227969,0.686675399,-1.010719578,-0.804972130,0.611149989,-0.443072627,-0.589708883,-0.040533756,-0.001737825,0.020852715,0.151408837,0.081534118,0.005061306,-1.574680281,-0.575244926,1.595860401,-0.863988580,-1.321878117,-0.012683038,0.129551228,-0.286723357,0.122047138,0.109844808,-0.278408542,0.114193721
1702560367.215515,0.108449511,0.041001381,-0.134414954,0.304546496,-0.005147061,0.000000000,0.641440928,1.219693422,-3.439589262,0.650311470,-1.053683877,0.345715940,0.648449511,-1.008998619,-0.824414954,0.614546496,-0.405147061,0.000280720,-0.040533756,-0.001737825,0.020852715,0.151408837,0.081534118,0.005061306,-1.571749738,-0.576847616,1.593090181,-0.863748363,-1.322214740,-0.012664929,0.129551228,-0.286723357,0.122047138,0.110728673,-0.278823517,0.114154663
1702560367.226900,0.091573019,0.026266713,-0.066059847,0.214538003,-0.045259170,-0.000000000,0.785896540,1.421526432,-3.506872892,0.702455938,-0.961059332,0.322317004,0.631573019,-0.185840049,-0.756059847,0.489035077,-0.409799999,-0.588273101,-0.040533756,-0.001737825,0.020852715,0.151408837,0.081534118,0.005061306,-1.567944614,-0.578654837,1.590811580,-0.863847965,-1.322311147,-0.012661200,0.129551228,-0.286723357,0.122047138,0.111771621,-0.278965981,0.113937646
1702560367.238191,0.149165046,0.039996590,-0.128818270,0.359507438,-0.020891841,0.000000000,0.633962750,1.054893255,-3.513340235,0.615999460,-0.950160205,0.322727710,0.689165046,-1.010003410,-0.818818270,0.551215386,-0.420891841,0.589126147,-0.040533756,-0.001737825,0.020852715,0.151408837,0.081534118,0.005061306,-1.563636152,-0.580553139,1.587542284,-0.864099367,-1.322174260,-0.012683038,0.132546630,-0.285351003,0.122047138,0.112915990,-0.279440815,0.113780741
1702560367.249604,0.128732055,0.023659670,-0.063647384,0.264640480,-0.046491987,0.000000000,0.676274121,1.740198493,-3.490815163,0.558684468,-0.989815831,0.322317004,0.668732055,0.254425546,-0.753647384,0.574640480,-0.446491987,0.590000000,-0.040533756,-0.001737825,0.020852715,0.151408837,0.081534118,0.005061306,-1.559918912,-0.581747300,1.584585110,-0.863999765,-1.322536450,-0.012661200,0.132546630,-0.285351003,0.122047138,0.114001055,-0.279859967,0.113867797
1702560367.261152,0.067047646,0.031573005,-0.100913392,0.205863398,-0.001713191,0.000000000,0.598935843,2.001467943,-3.530139923,0.650922239,-0.472204655,0.362731457,0.607047646,0.123411337,-0.790913392,0.515863398,-0.401713191,0.000291281,-0.040533756,-0.001737825,0.020852715,0.151408837,0.081534118,0.005061306,-1.557134310,-0.582519617,1.582618099,-0.863622661,-1.322669608,-0.012668125,0.136517832,-0.283472549,0.122047138,0.114880269,-0.280148723,0.113952451
1702560367.271932,0.176620755,0.016136074,0.002096213,0.281870085,-0.138822898,-0.000000000,0.704433203,2.284749031,-3.534789801,0.759974778,-0.955304682,0.368707985,0.716620755,0.923815460,-0.687903787,0.553987571,-0.464182049,-0.590000000,-0.040533756,-0.001737825,0.020852715,0.151408837,0.081534118,0.005061306,-1.552258595,-0.582969691,1.580130174,-0.863659413,-1.322488513,-0.012668125,0.136517832,-0.283472549,0.122047138,0.116245270,-0.280470812,0.114122052
1702560367.282839,0.106477747,0.020398677,-0.046350340,0.213922561,-0.052986264,0.000000000,0.789994478,3.114214897,-3.434767246,0.702455938,-1.001341820,0.351227969,0.646477747,1.070398677,-0.736350340,0.505729237,-0.452986264,0.590000000,-0.040533756,-0.001737825,0.020852715,0.151408837,0.081534118,0.005061306,-1.548006059,-0.582768889,1.578360770,-0.863806952,-1.322599301,-0.012679843,0.136517832,-0.283472549,0.122047138,0.117422103,-0.280605970,0.114403032
1702560367.294375,0.147281986,0.021140244,-0.046308717,0.275064000,-0.068712796,-0.000000000,0.654726923,3.211048841,-3.440513611,0.529717743,-0.972568631,0.328070819,0.676305512,1.049797102,-0.722283223,0.495903076,-0.460582075,-0.577741909,-0.040533756,-0.001737825,0.020852715,0.151408837,0.081534118,0.005061306,-1.543244860,-0.582325206,1.576252611,-0.864055159,-1.322562549,-0.012668125,0.139478810,-0.282027420,0.122047138,0.118720748,-0.280858319,0.114773388
1702560367.305983,0.102152389,0.021218264,-0.058618817,0.215629198,-0.033448537,0.000000000,0.676445544,3.187369347,-3.379205704,0.529561460,-1.064689636,0.374235332,0.642152389,1.071218264,-0.748618817,0.492585161,-0.433448537,0.000291780,-0.040533756,-0.001737825,0.020852715,0.151408837,0.081534118,0.005061306,-1.538890059,-0.581924134,1.574383072,-0.864129195,-1.322614214,-0.012672386,0.139478810,-0.282027420,0.122047138,0.119950569,-0.281050096,0.115128978
1702560367.317508,0.079091355,0.010836663,-0.021233468,0.143807622,-0.040392944,-0.000000000,0.739232600,3.136018276,-3.470129251,0.644942164,-1.001341820,0.362959653,0.606980449,1.037287679,-0.695758422,0.446855065,-0.429610763,-0.576767714,-0.040533756,-0.001737825,0.020852715,0.151408837,0.081534118,0.005061306,-1.535231408,-0.581319596,1.572362798,-0.863992308,-1.322599301,-0.012675582,0.139478810,-0.282027420,0.122047138,0.121037989,-0.281428792,0.115578993
1702560367.329010,0.140009230,0.009421587,-0.010347341,0.224736121,-0.070537370,-0.000000000,0.628954232,3.182502985,-3.408212185,0.540976465,-0.943795443,0.328070819,0.680009230,1.059421587,-0.700347341,0.534736121,-0.470537370,-0.590000000,-0.040533756,-0.001737825,0.020852715,0.151408837,0.081534118,0.005061306,-1.530611356,-0.580152599,1.571347601,-0.863918272,-1.322677065,-0.012675582,0.142424492,-0.280551365,0.122047138,0.122377287,-0.281367502,0.116061851
1702560367.340215,0.149874690,0.004594647,0.016826054,0.214947817,-0.097384186,0.000000000,0.702455938,3.111661434,-3.398345232,0.592850268,-0.978306353,0.345715940,0.676353427,1.028303301,-0.441838603,0.517185610,-0.476140425,0.575226768,-0.040533756,-0.001737825,0.020852715,0.151408837,0.081534118,0.005061306,-1.525087960,-0.578372542,1.569731595,-0.863740906,-1.322507155,-0.012679843,0.142424492,-0.280551365,0.122047138,0.124002463,-0.281546469,0.116788463
1702560367.351560,0.038104482,0.004997958,-0.018630618,0.074209157,-0.003185896,0.000000000,0.689729452,3.176665306,-3.500416994,0.489457756,-0.898034990,0.328070819,0.516025508,0.934288842,-0.629307485,0.333769167,-0.357201471,0.522172973,-0.040533756,-0.001737825,0.020852715,0.151408837,0.081534118,0.005061306,-1.520256454,-0.576887031,1.568755280,-0.863781386,-1.322603562,-0.012668125,0.142424492,-0.280551365,0.122047138,0.125382006,-0.281457644,0.117351407
1702560367.362978,0.146437567,-0.002648027,0.032635419,0.190209886,-0.087831189,0.000000000,0.553204179,3.101614475,-3.340374470,0.431605756,-0.926674545,0.362548828,0.655869512,0.854782367,-0.096666803,0.426377771,-0.454802971,0.000000000,-0.040533756,-0.001737825,0.020852715,0.151408837,0.081534118,0.005061306,-1.513993231,-0.575274221,1.567195200,-0.864192045,-1.322495970,-0.012675582,0.145354556,-0.279044543,0.122047138,0.127087188,-0.281434774,0.117974569
1702560367.374168,0.081154246,0.002992816,-0.004019382,0.124972425,-0.031631989,0.000000000,0.645455420,3.072326899,-2.906424522,0.517958879,-1.087783456,0.323547602,0.551313833,0.917192013,-0.604778855,0.394878855,-0.379898350,0.512697116,-0.040533756,-0.001737825,0.020852715,0.151408837,0.081534118,0.005061306,-1.509229369,-0.573928792,1.566131534,-0.864210687,-1.322611018,-0.012672386,0.145354556,-0.279044543,0.122047138,0.128459113,-0.281347537,0.118516721
1702560367.385290,0.037022187,-0.004007813,0.010309637,0.042831598,-0.009069214,-0.000000000,0.699171722,2.839766026,-2.475208759,0.541068256,-0.978374064,0.351039350,0.472194518,0.650592147,-0.104651578,0.292652751,-0.321885694,-0.475466065,-0.040533756,-0.001737825,0.020852715,0.151408837,0.081534118,0.005061306,-1.505135025,-0.572431563,1.565247364,-0.864010418,-1.322444305,-0.012675582,0.145354556,-0.279044543,0.122047138,0.129685454,-0.281372799,0.119075257
1702560367.396488,0.163938382,-0.000672732,0.018573723,0.226408572,-0.077623847,-0.000000000,0.592738569,2.267485619,-2.515059948,0.454624712,-0.869442523,0.305218488,0.678210042,0.434925638,0.675698621,0.437146586,-0.451325490,-0.561612314,-0.040533756,-0.001737825,0.020852715,0.151408837,0.081534118,0.005061306,-1.500347194,-0.570800643,1.564855880,-0.864040245,-1.322495970,-0.012672386,0.149236458,-0.276987877,0.122047138,0.131049570,-0.281076649,0.119603157
1702560367.408452,0.021492939,0.002466773,-0.035365828,0.057784239,0.044454305,-0.000000000,0.580316722,2.966010571,-2.193644524,0.558328748,-0.984077930,0.345284581,0.485421121,0.904549350,-0.402265635,0.324113380,0.388104810,-0.506634670,-0.040533756,-0.001737825,0.020852715,0.151408837,0.081534118,0.005061306,-1.494463738,-0.569147885,1.564977320,-0.863847965,-1.322433119,-0.012679843,0.149236458,-0.276987877,0.122047138,0.132756687,-0.280484917,0.120078869
1702560367.419957,0.082107802,-0.006495094,0.009643329,0.106196068,-0.008551404,-0.000000000,0.564229012,3.123823881,-3.251613379,0.414501339,-0.161235541,0.328020364,0.494283994,0.794958614,0.536312908,0.317364989,-0.243004782,-0.450340655,-0.040533756,-0.001737825,0.020852715,0.151408837,0.081534118,0.005061306,-1.488731018,-0.567644264,1.564811671,-0.863907087,-1.322074125,-0.012690495,0.149236458,-0.276987877,0.122047138,0.134360783,-0.280047198,0.120498259
1702560367.431129,0.148500676,-0.002516880,0.011811340,0.205991998,-0.051744928,-0.000000000,0.513334692,2.889757872,-2.273130894,0.374765933,-0.736629605,0.340309262,0.607602541,0.420402856,0.598441500,0.189887720,-0.391820383,-0.501611297,-0.040533756,-0.001737825,0.020852715,0.151408837,0.081534118,0.005061306,-1.483665153,-0.566404296,1.565079585,-0.864491917,-1.322103953,-0.012687299,0.152128833,-0.275409917,0.122047138,0.135646283,-0.279385607,0.120763494
1702560367.442966,0.065081295,-0.000268938,-0.010871420,0.101868432,0.001798793,-0.000000000,0.582395911,2.849905491,-3.251430035,0.385739565,-0.236225024,0.323086679,0.479424779,-0.255562080,-0.540310316,0.339732284,0.268603065,-0.452708621,-0.040533756,-0.001737825,0.020852715,0.151408837,0.081534118,0.005061306,-1.478314862,-0.565164329,1.564928850,-0.864365683,-1.322299961,-0.012675582,0.152128833,-0.275409917,0.122047138,0.137191496,-0.278818413,0.121175619
1702560367.454577,0.095883498,-0.002399558,0.009123828,0.131029380,-0.032176129,0.000000000,0.604932725,2.971253633,-2.969497681,0.448906839,-0.737168968,0.316510886,0.472550519,-0.215684198,0.366916622,0.336808513,-0.256394038,0.411543596,-0.040533756,-0.001737825,0.020852715,0.151408837,0.081534118,0.005061306,-1.473003454,-0.564579498,1.564955482,-0.864165946,-1.321996894,-0.012675582,0.152128833,-0.275409917,0.122047138,0.138717897,-0.278229313,0.121334054
1702560367.465829,0.082071717,0.001073083,-0.020133749,0.134201354,0.006634240,0.000000000,0.512463033,1.910999417,-2.601455927,0.408748835,-0.644634008,0.328827053,0.508237916,0.829729581,-0.406696365,0.378852320,0.177687804,0.465166791,-0.040533756,-0.001737825,0.020852715,0.151408837,0.081534118,0.005061306,-1.468860640,-0.564105456,1.564941101,-0.864195774,-1.322122595,-0.012675582,0.155004524,-0.273801756,0.122047138,0.139870896,-0.277683028,0.121482351
1702560367.477139,0.039952021,-0.000605091,-0.007022062,0.062205745,0.003936757,0.000000000,0.460523278,2.966155767,-3.326261520,0.391491741,-0.241767704,0.287737161,0.422408983,-0.659942519,-0.495717068,0.281764371,0.257643485,0.417869644,-0.040533756,-0.001737825,0.020852715,0.151408837,0.081534118,0.005061306,-1.463851234,-0.563989342,1.564432437,-0.863862879,-1.322185445,-0.012668125,0.155004524,-0.273801756,0.122047138,0.141360323,-0.277171884,0.121627719
1702560367.489529,0.023739497,0.007216619,-0.044227329,0.072002314,0.035801858,0.000000000,0.293717504,2.723751068,-3.291793585,0.310969204,-0.247453958,0.333824724,0.358642868,0.591613614,-0.472159415,0.177254805,0.283878430,0.365912943,-0.040533756,-0.001737825,0.020852715,0.151408837,0.081534118,0.005061306,-1.457115567,-0.564184285,1.564352010,-0.863966209,-1.322240839,-0.012675582,0.155004524,-0.273801756,0.122047138,0.143201103,-0.276201134,0.121576909
1702560367.501357,-0.004579276,0.002660933,-0.028082808,0.015004149,0.038111284,-0.000000000,0.420135677,2.866838455,-3.309697866,0.333775103,-0.201498210,0.345715940,0.371043932,0.733039394,-0.508045797,0.230639694,0.316350698,-0.410403135,-0.040533756,-0.001737825,0.020852715,0.151408837,0.081534118,0.005061306,-1.452580737,-0.563994668,1.563882228,-0.864070073,-1.321896759,-0.012679843,0.157863218,-0.272163569,0.122047138,0.144445784,-0.275819019,0.121655897
1702560367.512963,-0.024600877,0.004965941,-0.041684093,-0.002535940,0.056658047,0.000000000,0.374235332,2.745881081,-3.079051018,0.351086527,-0.247453958,0.357535869,0.306372142,0.601702234,-0.464594062,-0.164413257,0.301823247,0.000350291,-0.040533756,-0.001737825,0.020852715,0.151408837,0.081534118,0.005061306,-1.447008871,-0.564214113,1.563814051,-0.864218144,-1.321922858,-0.012657472,0.157863218,-0.272163569,0.122047138,0.145945511,-0.274996097,0.121588899
1702560367.525267,0.026616681,0.006262202,-0.038499063,0.071204398,0.029570743,0.000000000,0.384148002,1.520570397,-3.182502985,0.173025519,-0.669135869,0.374456495,0.408392381,0.748603840,-0.475575317,0.192694832,0.312367558,0.000205703,-0.040533756,-0.001737825,0.020852715,0.151408837,0.081534118,0.005061306,-1.441767770,-0.564087879,1.563626565,-0.864613357,-1.321778514,-0.012672386,0.160704601,-0.270495537,0.122047138,0.147300728,-0.274331091,0.121598265
1702560367.536710,0.017061126,0.004924018,-0.037840579,0.055417851,0.037894552,0.000000000,0.467871577,2.808526993,-3.320491791,0.333824724,-0.794237971,0.368707985,0.361907142,0.669844169,-0.472365247,0.253385009,0.268327927,0.000000000,-0.040533756,-0.001737825,0.020852715,0.151408837,0.081534118,0.005061306,-1.437936546,-0.564052193,1.563546137,-0.864572877,-1.321904216,-0.012675582,0.160704601,-0.270495537,0.122047138,0.148365802,-0.273768258,0.121635750
1702560367.548611,0.023384269,0.003037066,-0.024946930,0.053976912,0.022490431,0.000000000,0.433252275,2.826164961,-3.182393789,0.351227969,-0.299301982,0.356979668,0.327892356,0.595136124,-0.414040596,0.189816098,0.248051977,0.332703280,-0.040533756,-0.001737825,0.020852715,0.151408837,0.081534118,0.005061306,-1.433350583,-0.563839140,1.563733624,-0.864114281,-1.321967066,-0.012687299,0.160704601,-0.270495537,0.122047138,0.149722833,-0.273043370,0.121724092
1702560367.559831,0.020270381,0.002112729,-0.026486560,0.049478536,0.030783242,0.000000000,0.318336666,2.727754354,-3.240247488,0.224434987,-0.241767704,0.322471082,0.408953013,0.757884513,-0.523136589,0.272611157,0.314805889,0.424671764,-0.040533756,-0.001737825,0.020852715,0.151408837,0.081534118,0.005061306,-1.428185116,-0.563703851,1.563680360,-0.864106824,-1.321974523,-0.012668125,0.164465643,-0.268225384,0.122047138,0.151138088,-0.272299905,0.121772444
1702560367.571456,0.052930275,-0.000712087,-0.000933714,0.076785435,-0.010163344,0.000000000,0.391491741,2.842849016,-3.240048409,0.356979668,-0.253470123,0.340309262,0.390793910,-0.648116235,-0.432648360,0.270744189,-0.255520442,0.369147306,-0.040533756,-0.001737825,0.020852715,0.151408837,0.081534118,0.005061306,-1.423577314,-0.563686807,1.563453459,-0.863940110,-1.321974523,-0.012672386,0.164465643,-0.268225384,0.122047138,0.152442796,-0.271687955,0.121826619
1702560367.583546,-0.000847003,0.005032212,-0.040175127,0.031088009,0.046724326,-0.000000000,0.404145271,2.727754354,-3.176639080,0.322471082,-0.259027362,0.334221303,0.294520257,0.515557398,-0.417588847,0.200650695,0.264273363,-0.322248689,-0.040533756,-0.001737825,0.020852715,0.151408837,0.081534118,0.005061306,-1.418363378,-0.563858314,1.563473166,-0.863959285,-1.322026188,-0.012664929,0.164465643,-0.268225384,0.122047138,0.153848758,-0.270848717,0.121776697
1702560367.594801,0.085972113,0.000544657,-0.000582798,0.125875392,-0.026704909,0.000000000,0.282041132,2.572891712,-3.222702503,0.065614171,-0.287794709,0.328222215,0.434131506,0.675491973,-0.445453133,0.324961481,-0.272848684,0.380208252,-0.040533756,-0.001737825,0.020852715,0.151408837,0.081534118,0.005061306,-1.414003250,-0.563687339,1.563134945,-0.864022136,-1.321845093,-0.012664929,0.167265424,-0.266488428,0.122047138,0.155034853,-0.270357996,0.121851223
1702560367.606281,0.027606753,-0.000284015,-0.005990152,0.043815018,0.004095330,0.000000000,0.385567784,2.802772522,-3.292321920,0.299467921,-0.310809404,0.328070819,0.347772452,-0.622828429,-0.415090767,0.170466572,0.236304922,-0.000253313,-0.040533756,-0.001737825,0.020852715,0.151408837,0.081534118,0.005061306,-1.409378405,-0.563721961,1.562845193,-0.864424806,-1.321996894,-0.012672386,0.167265424,-0.266488428,0.122047138,0.156204635,-0.269688768,0.121854800
1702560367.617459,0.037997848,0.003233396,-0.027113457,0.076818740,0.021162546,0.000000000,0.446836472,1.594105482,-2.561791658,0.351086527,-0.759626091,0.340746909,0.328071779,0.567266040,-0.321807473,0.243342663,0.232699130,0.000234573,-0.040533756,-0.001737825,0.020852715,0.151408837,0.081534118,0.005061306,-1.406028681,-0.563831683,1.562881412,-0.864258624,-1.322118866,-0.012661200,0.167265424,-0.266488428,0.122047138,0.157142379,-0.269112488,0.121845989
1702560367.629658,0.083747143,0.000050948,0.000681181,0.121219717,-0.025819651,0.000000000,0.541802287,2.814069510,-3.280329704,0.402873129,-0.719550073,0.356840491,0.414939980,0.637619553,0.389153685,0.311348939,-0.271147678,0.361858840,-0.040533756,-0.001737825,0.020852715,0.151408837,0.081534118,0.005061306,-1.400722599,-0.563713438,1.562684338,-0.864162751,-1.321885573,-0.012675582,0.170046862,-0.264722249,0.122047138,0.158605087,-0.268417873,0.121896755
1702560367.642046,0.056251823,0.001430361,-0.011999727,0.091254032,-0.002093676,0.000000000,0.381466120,2.641527414,-3.217416048,0.333973497,-0.264780730,0.362959653,0.349467620,0.567764009,-0.386664356,0.259581619,-0.219290562,0.000231468,-0.040533756,-0.001737825,0.020852715,0.151408837,0.081534118,0.005061306,-1.396859417,-0.563705982,1.562648119,-0.864203231,-1.321945228,-0.012664929,0.170046862,-0.264722249,0.122047138,0.159633624,-0.267801306,0.121905387
1702560367.653954,0.019341774,0.002681765,-0.026915336,0.048970101,0.028997547,0.000000000,0.213003263,2.630427599,-3.228595734,0.287794709,-0.351227969,0.322727710,0.284755485,0.518763981,-0.366055078,0.201337231,0.223504810,-0.000424151,-0.040533756,-0.001737825,0.020852715,0.151408837,0.081534118,0.005061306,-1.392307542,-0.563726222,1.562536266,-0.864017875,-1.322115138,-0.012672386,0.172809652,-0.262927040,0.122047138,0.160901296,-0.267071468,0.121950000
1702560367.665291,0.081999714,-0.000253312,0.001694619,0.117624408,-0.025589752,0.000000000,0.383328110,2.860315800,-3.142137289,0.340746909,-0.218755960,0.351039350,0.397285335,-0.601776529,0.386529736,0.298621709,-0.251005977,0.344478734,-0.040533756,-0.001737825,0.020852715,0.151408837,0.081534118,0.005061306,-1.389174599,-0.563685209,1.562423881,-0.864017875,-1.321907944,-0.012675582,0.172809652,-0.262927040,0.122047138,0.161745894,-0.266661141,0.121958861
1702560367.676383,-0.002129549,0.004553839,-0.039873520,0.028476154,0.048990997,0.000000000,0.316563189,2.710875034,-3.205391884,0.316981375,-0.287737161,0.345284581,0.285345027,0.557966467,-0.392151611,0.188234543,0.261572042,0.313484085,-0.040533756,-0.001737825,0.020852715,0.151408837,0.081534118,0.005061306,-1.384819798,-0.563744331,1.562448382,-0.864088182,-1.322059744,-0.012687299,0.172809652,-0.262927040,0.122047138,0.162885456,-0.265900071,0.121944872
1702560367.687888,0.112142087,-0.000500065,0.009358668,0.156028644,-0.046787575,0.000000000,0.274363101,2.727748394,-3.193887711,0.259027362,-0.264780730,0.368483365,0.482603135,-0.717320718,0.482725563,0.352086690,-0.320779125,0.404363563,-0.040533756,-0.001737825,0.020852715,0.151408837,0.081534118,0.005061306,-1.381776871,-0.563690535,1.562431338,-0.864213883,-1.321963338,-0.012679843,0.176463842,-0.260488611,0.122047138,0.163666770,-0.265436692,0.121941201
1702560367.699066,0.086921696,0.000918066,-0.004200738,0.130033776,-0.022352794,0.000000000,0.444942534,1.445173979,-2.342187405,0.420135677,-0.857476056,0.351086527,0.432898858,0.673651437,-0.405844983,0.324615204,-0.278632173,0.377825565,-0.040533756,-0.001737825,0.020852715,0.151408837,0.081534118,0.005061306,-1.378848459,-0.563736874,1.562545854,-0.864232525,-1.322052287,-0.012672386,0.176463842,-0.260488611,0.122047138,0.164429615,-0.264888432,0.121917712
1702560367.710022,0.002138370,0.003150258,-0.032314836,0.028108169,0.041285987,0.000000000,0.316563189,2.670820951,-3.061572313,0.398575693,-0.305001378,0.328070819,0.313339902,0.607614481,-0.429961237,0.206760900,0.263538902,0.340016488,-0.040533756,-0.001737825,0.020852715,0.151408837,0.081534118,0.005061306,-1.374773822,-0.563855119,1.562591660,-0.864036517,-1.322066668,-0.012675582,0.176463842,-0.260488611,0.122047138,0.165548035,-0.264186075,0.121898220
1702560367.721962,0.070905811,0.000713092,-0.004876315,0.106985952,-0.015473795,0.000000000,0.409598708,1.548122168,-2.497585058,0.362594485,-0.805664063,0.333824724,0.440023497,0.718441926,-0.476526691,0.294681160,-0.288894303,0.402697594,-0.040533756,-0.001737825,0.020852715,0.151408837,0.081534118,0.005061306,-1.370287461,-0.563725156,1.562591660,-0.864203231,-1.322048559,-0.012664929,0.179181947,-0.258626437,0.122047138,0.166695272,-0.263457786,0.121917298
1702560367.734054,0.096343865,-0.000832850,0.007170433,0.134220445,-0.036612420,-0.000000000,0.424838811,2.704735518,-2.417163372,0.385610729,-0.788483858,0.316981375,0.428936115,-0.647540003,0.375331924,0.325153033,-0.282977050,-0.363208220,-0.040533756,-0.001737825,0.020852715,0.151408837,0.081534118,0.005061306,-1.366480738,-0.563705982,1.562523483,-0.864047702,-1.322181717,-0.012675582,0.179181947,-0.258626437,0.122047138,0.167738281,-0.262817452,0.121960764
1702560367.745024,0.086889231,0.001714424,-0.009100547,0.134108104,-0.017587413,-0.000000000,0.404841185,1.496244311,-2.365227461,0.391364872,-0.777231276,0.351463616,0.397243151,0.603904249,-0.284015621,0.312274243,-0.247479206,-0.339090394,-0.040533756,-0.001737825,0.020852715,0.151408837,0.081534118,0.005061306,-1.364228769,-0.563717700,1.562540527,-0.863992308,-1.322115138,-0.012679843,0.179181947,-0.258626437,0.122047138,0.168341899,-0.262448787,0.121954507
1702560367.756302,0.122387040,-0.001000160,0.013075237,0.167862555,-0.053875937,-0.000000000,0.393390477,2.762282610,-3.234247446,0.362548828,-0.707856834,0.356794089,0.497674033,-0.729104585,0.492608616,0.378030789,-0.331866302,-0.410035788,-0.040533756,-0.001737825,0.020852715,0.151408837,0.081534118,0.005061306,-1.361326989,-0.563696927,1.562309365,-0.864022136,-1.322174260,-0.012675582,0.181880403,-0.256735902,0.122047138,0.169112853,-0.262027722,0.121995711
1702560367.767847,0.026191624,0.002488856,-0.022208396,0.055573781,0.019573468,0.000000000,0.418318748,2.780136585,-3.199823380,0.345284581,-0.822948396,0.299246639,0.369142145,0.647794200,-0.460422950,0.237201021,0.267396217,0.373966064,-0.040533756,-0.001737825,0.020852715,0.151408837,0.081534118,0.005061306,-1.357651827,-0.563931818,1.562496852,-0.864129195,-1.322204087,-0.012687299,0.181880403,-0.256735902,0.122047138,0.170028728,-0.261302235,0.121892421
1702560367.779031,0.087286390,0.003129565,-0.016663754,0.141234681,-0.011295554,-0.000000000,0.443152606,1.532070041,-2.687489748,0.362594485,-0.782729745,0.328222215,0.401912169,0.614901912,-0.188390879,0.321853183,-0.239914395,-0.343588273,-0.040533756,-0.001737825,0.020852715,0.151408837,0.081534118,0.005061306,-1.353993176,-0.563661241,1.562494721,-0.864055159,-1.322026188,-0.012672386,0.181880403,-0.256735902,0.122047138,0.171010392,-0.260755587,0.121962826
1702560367.790959,0.112231903,-0.000476570,0.007724823,0.157301984,-0.043996982,0.000000000,0.414980412,2.733557463,-2.981406927,0.391703188,-0.748315752,0.293491900,0.489957309,-0.724366256,0.490373953,0.363083274,-0.323793579,0.412089074,-0.040533756,-0.001737825,0.020852715,0.151408837,0.081534118,0.005061306,-1.351254381,-0.563680948,1.562416957,-0.864247439,-1.322118866,-0.012694756,0.184558913,-0.254817213,0.122047138,0.171682643,-0.260286112,0.121956871
1702560367.802519,0.051493332,-0.000458422,-0.002331225,0.075854039,-0.008499087,0.000000000,0.468402177,2.798136950,-3.269018412,0.437511921,-0.845947266,0.323547602,0.401655742,-0.681329774,-0.449760971,0.276873200,-0.267878650,0.000094441,-0.040533756,-0.001737825,0.020852715,0.151408837,0.081534118,0.005061306,-1.348107058,-0.563978689,1.562579942,-0.864058887,-1.322144433,-0.012675582,0.184558913,-0.254817213,0.122047138,0.172524654,-0.259648276,0.121868729
1702560367.814020,0.053202463,0.001685020,-0.018252854,0.091272622,0.008692286,0.000000000,0.402996421,1.421607971,-2.589660168,0.391364872,-0.834517121,0.362594485,0.375174075,0.627740933,-0.331224059,0.276108177,0.241326490,-0.000086789,-0.040533756,-0.001737825,0.020852715,0.151408837,0.081534118,0.005061306,-1.344740822,-0.563772028,1.562451045,-0.863936914,-1.322163075,-0.012679843,0.184558913,-0.254817213,0.122047138,0.173442438,-0.259132218,0.121961460
1702560367.825336,0.124895142,-0.002251599,0.021392394,0.164620692,-0.063192048,-0.000000000,0.404841185,2.814075470,-3.176639080,0.356979668,-0.276227683,0.345284581,0.513624121,-0.740977004,0.456094609,0.387779921,-0.338422609,-0.424722402,-0.040533756,-0.001737825,0.020852715,0.151408837,0.081534118,0.005061306,-1.342096836,-0.563736342,1.562367955,-0.864225601,-1.322041102,-0.012675582,0.187217184,-0.252870580,0.122047138,0.174067726,-0.258732756,0.121942778
1702560367.836869,0.121226892,-0.000446285,0.012956810,0.166959932,-0.056118588,-0.000000000,0.459839642,2.854358435,-2.975652933,0.431759179,-0.253274113,0.322317004,0.485100994,-0.707979262,0.426339007,0.372943877,-0.325654960,-0.397566149,-0.040533756,-0.001737825,0.020852715,0.151408837,0.081534118,0.005061306,-1.338825408,-0.563975494,1.562606574,-0.864080725,-1.322089039,-0.012668125,0.187217184,-0.252870580,0.122047138,0.174920670,-0.258040201,0.121858550
1702560367.848208,0.122479899,0.000525526,0.001564801,0.177381519,-0.040998027,-0.000000000,0.463283658,1.502528071,-2.583905458,0.420135677,-0.857939363,0.322471082,0.465382296,0.667280187,0.439717865,0.374232896,-0.294999803,-0.374652619,-0.040533756,-0.001737825,0.020852715,0.151408837,0.081534118,0.005061306,-1.336807798,-0.563704916,1.562494721,-0.863969938,-1.322222197,-0.012672386,0.187217184,-0.252870580,0.122047138,0.175482165,-0.257726159,0.121976863
1702560367.859133,0.148732467,-0.002039747,0.025028136,0.197106102,-0.077659905,0.000000000,0.414501339,2.833023310,-3.015491009,0.437965840,-0.822948396,0.311607510,0.551227387,-0.804442166,0.544308772,0.416908949,-0.371854039,0.000223244,-0.040533756,-0.001737825,0.020852715,0.151408837,0.081534118,0.005061306,-1.334475934,-0.563810910,1.562587399,-0.864118009,-1.322214740,-0.012683038,0.189854925,-0.250896217,0.122047138,0.176036776,-0.257272093,0.121916945
1702560367.870556,0.090380555,0.003543266,-0.017456996,0.146842292,-0.012870040,0.000000000,0.546730876,1.310894608,-2.204975605,0.500794947,-0.903513014,0.333973497,0.474104456,0.699971006,-0.194490509,0.367128235,-0.297109967,-0.000103611,-0.040533756,-0.001737825,0.020852715,0.151408837,0.081534118,0.005061306,-1.330778401,-0.564136881,1.563020429,-0.863806952,-1.322252024,-0.012664929,0.189854925,-0.250896217,0.122047138,0.177013985,-0.256423644,0.121796090
1702560367.882561,0.132059039,-0.003183455,0.024591497,0.171941809,-0.066319325,-0.000000000,0.432219148,2.827272177,-3.297472715,0.374102563,-0.310809404,0.310969204,0.599871781,-0.681441293,0.622352223,0.440500976,-0.397789299,-0.511128737,-0.040533756,-0.001737825,0.020852715,0.151408837,0.081534118,0.005061306,-1.327520822,-0.563992005,1.562706709,-0.863925729,-1.322181717,-0.012675582,0.193339477,-0.248220972,0.122047138,0.177852619,-0.255988065,0.121864005
1702560367.894135,0.152136771,0.000133265,0.019663529,0.208107176,-0.079966096,0.000000000,0.581940830,1.556857586,-2.152397156,0.518438160,-0.955356777,0.333775103,0.598377291,0.662622331,0.589859749,0.457889185,-0.397758701,0.487559087,-0.040533756,-0.001737825,0.020852715,0.151408837,0.081534118,0.005061306,-1.324585486,-0.564068172,1.562738134,-0.864447176,-1.322192902,-0.012668125,0.193339477,-0.248220972,0.122047138,0.178473934,-0.255439190,0.121784855
1702560367.906643,0.135797090,-0.008698078,0.045585205,0.157392208,-0.077241523,0.000000000,0.569748640,2.562586546,-3.159987926,0.507234156,-0.863288224,0.322471082,0.552944316,-0.379430490,0.491149090,0.396865616,-0.386239468,0.455771970,-0.040533756,-0.001737825,0.020852715,0.151408837,0.081534118,0.005061306,-1.321477044,-0.563966971,1.562862237,-0.863899630,-1.322174260,-0.012679843,0.193339477,-0.248220972,0.122047138,0.179389860,-0.254859431,0.121851269
1702560367.918311,0.188317773,0.000173978,0.026195084,0.256359538,-0.102358678,-0.000000000,0.542046726,1.421433210,-2.267485619,0.471888959,-0.869651914,0.333824724,0.677960134,0.683131356,0.651849212,0.431679517,-0.465056723,-0.534979616,-0.040533756,-0.001737825,0.020852715,0.151408837,0.081534118,0.005061306,-1.319149974,-0.564230092,1.562905913,-0.863981123,-1.322296233,-0.012683038,0.195928193,-0.246182752,0.122047138,0.179948817,-0.254365119,0.121771330
1702560367.930059,0.082779372,0.001001703,-0.013896023,0.130696821,-0.004264732,0.000000000,0.639191151,1.243677139,-2.399727821,0.582253754,-0.955304682,0.362548828,0.538407811,0.886945891,-0.208848403,0.392261295,-0.341767280,0.497325268,-0.040533756,-0.001737825,0.020852715,0.151408837,0.081534118,0.005061306,-1.315766162,-0.563976026,1.563064105,-0.863866607,-1.322366540,-0.012683038,0.195928193,-0.246182752,0.122047138,0.180827836,-0.253713139,0.121841167
1702560367.941271,0.090909974,0.003654968,-0.008682047,0.141971123,-0.029262196,-0.000000000,0.570532799,3.004245996,-3.097100019,0.460954577,-0.276467353,0.351086527,0.519166324,0.482778463,-0.555898494,0.387821991,-0.346489122,-0.467909716,-0.040533756,-0.001737825,0.020852715,0.151408837,0.081534118,0.005061306,-1.311956776,-0.564204525,1.563251591,-0.863992308,-1.322314875,-0.012672386,0.195928193,-0.246182752,0.122047138,0.181739895,-0.252942912,0.121730475
1702560367.952165,0.197712453,-0.004126055,0.040857369,0.255599446,-0.109684783,-0.000000000,0.581940830,1.433115959,-2.699029684,0.512204468,-0.938040793,0.316563189,0.689159771,-0.727848422,0.668817831,0.477226634,-0.473719833,-0.536951699,-0.040533756,-0.001737825,0.020852715,0.151408837,0.081534118,0.005061306,-1.309342617,-0.563895066,1.562974090,-0.864184588,-1.322329789,-0.012694756,0.198495422,-0.244117536,0.122047138,0.182389796,-0.252595169,0.121841427
1702560367.963084,0.142269250,0.000802327,0.017840521,0.195812725,-0.077219326,0.000000000,0.680375218,1.393230319,-2.071715593,0.524187267,-1.001391411,0.374058306,0.615650146,0.388812906,0.622716110,0.467568425,-0.427871841,0.517212460,-0.040533756,-0.001737825,0.020852715,0.151408837,0.081534118,0.005061306,-1.307302636,-0.564268974,1.563203122,-0.864118009,-1.322344702,-0.012687299,0.198495422,-0.244117536,0.122047138,0.182887034,-0.252096034,0.121708412
1702560367.974700,0.160610001,0.000188540,0.011204640,0.226188041,-0.067650523,0.000000000,0.615784407,1.237925410,-2.159992218,0.529561460,-0.886230469,0.391322553,0.608507823,0.871100971,0.583518523,0.483314569,-0.398422321,0.489369842,-0.040533756,-0.001737825,0.020852715,0.151408837,0.081534118,0.005061306,-1.304564374,-0.564231157,1.563314975,-0.863659413,-1.322311147,-0.012675582,0.198495422,-0.244117536,0.122047138,0.183677297,-0.251568845,0.121747617
1702560367.986598,0.180428588,-0.000099363,0.027333163,0.244035646,-0.100769305,0.000000000,0.641905427,2.922100782,-2.267376184,0.540976465,-0.886249185,0.328070819,0.691827885,-0.994486885,0.672943534,0.469513386,-0.476145723,0.558751084,-0.040533756,-0.001737825,0.020852715,0.151408837,0.081534118,0.005061306,-1.301029826,-0.564392012,1.563550931,-0.863870335,-1.322318603,-0.012697952,0.201040885,-0.242025550,0.122047138,0.184487195,-0.250815844,0.121646516
1702560367.997762,0.082452941,0.011947857,-0.057320870,0.171315369,0.018373712,0.000000000,0.622603655,2.960897923,-2.130568743,0.540976465,-0.984481692,0.368303567,0.561923383,0.655361152,0.184064869,0.437151246,0.371811183,-0.000129389,-0.040533756,-0.001737825,0.020852715,0.151408837,0.081534118,0.005061306,-1.297215114,-0.564246071,1.564133098,-0.863925729,-1.322355355,-0.012675582,0.201040885,-0.242025550,0.122047138,0.185376987,-0.249917659,0.121604549
1702560368.008888,0.146879951,-0.001855101,0.024170689,0.195566658,-0.076609193,0.000000000,0.616724849,2.722145557,-2.900670290,0.546821713,-0.863384128,0.368348539,0.595391489,-0.772790290,0.489954136,0.447065301,-0.387316304,0.490040384,-0.040533756,-0.001737825,0.020852715,0.151408837,0.081534118,0.005061306,-1.294097085,-0.564300399,1.564208199,-0.863933186,-1.322074125,-0.012664929,0.201040885,-0.242025550,0.122047138,0.186151597,-0.249374465,0.121551403
1702560368.020319,0.199035552,0.000592730,0.021332728,0.276213316,-0.098979667,0.000000000,0.685418665,1.347052455,-2.359451771,0.581257582,-0.978577137,0.362959653,0.716244167,0.737087246,0.682210403,0.529421093,-0.482097160,0.565098302,-0.040533756,-0.001737825,0.020852715,0.151408837,0.081534118,0.005061306,-1.291709295,-0.564401599,1.564369054,-0.864206426,-1.322307418,-0.012687299,0.203564301,-0.239907023,0.122047138,0.186656072,-0.248805858,0.121492865
1702560368.031886,0.092036411,0.000070409,-0.001699288,0.135220285,-0.024110965,-0.000000000,0.686070621,2.503372908,-2.301962137,0.529717743,-0.949689567,0.305218488,0.578767532,0.946492032,-0.501621642,0.414640002,-0.384652535,-0.531536714,-0.040533756,-0.001737825,0.020852715,0.151408837,0.081534118,0.005061306,-1.288607778,-0.564466048,1.564407936,-0.863640771,-1.322433119,-0.012672386,0.203564301,-0.239907023,0.122047138,0.187552113,-0.248173008,0.121538341
1702560368.043231,0.081779172,0.001258304,-0.004066542,0.123171085,-0.022868307,0.000000000,0.673329532,1.400106668,-2.182140589,0.569748640,-0.920920730,0.369918525,0.539971125,0.892187101,-0.589534037,0.328122002,-0.344282078,0.000493468,-0.040533756,-0.001737825,0.020852715,0.151408837,0.081534118,0.005061306,-1.284304109,-0.564385620,1.564429774,-0.863755820,-1.322400096,-0.012668125,0.203564301,-0.239907023,0.122047138,0.188592509,-0.247373825,0.121543769
1702560368.054581,0.126092239,-0.001161791,0.017326700,0.170705736,-0.061770029,0.000000000,0.743164480,1.129118204,-2.250465155,0.563994229,-1.041608572,0.328222215,0.666092239,-0.877465893,0.383010394,0.265637536,-0.457596468,0.000861986,-0.040533756,-0.001737825,0.020852715,0.151408837,0.081534118,0.005061306,-1.280643328,-0.564182687,1.564074508,-0.864188317,-1.322388911,-0.012653744,0.206894084,-0.237041436,0.122047138,0.189437640,-0.246831958,0.121607390
1702560368.065679,0.141102584,0.000928302,0.018141287,0.194366176,-0.078089048,-0.000000000,0.682125270,3.090639830,-3.280248880,0.444048464,-0.995986283,0.345332533,0.654341225,0.601224285,0.346437150,0.442606637,-0.458265818,-0.560207978,-0.040533756,-0.001737825,0.020852715,0.151408837,0.081534118,0.005061306,-1.276926088,-0.564724374,1.564067051,-0.864184588,-1.322392639,-0.012668125,0.206894084,-0.237041436,0.122047138,0.190336315,-0.246064596,0.121451711
1702560368.076544,0.165479289,-0.003504815,0.034473561,0.213982818,-0.092109644,0.000000000,0.687228143,1.180409908,-2.687465191,0.598520935,-0.989832580,0.299744248,0.649725547,-0.690020429,0.511909072,0.459890515,-0.434325718,0.529083874,-0.040533756,-0.001737825,0.020852715,0.151408837,0.081534118,0.005061306,-1.274148943,-0.564599738,1.564157066,-0.863800028,-1.322307418,-0.012675582,0.206894084,-0.237041436,0.122047138,0.191108101,-0.245537125,0.121506830
1702560368.087486,0.147462106,0.002651869,0.010085947,0.210882726,-0.074237128,0.000000000,0.787391067,1.307289720,-2.014168501,0.547457278,-0.966950953,0.305489630,0.687462106,0.698321881,0.645054220,0.472229765,-0.470722121,0.590000000,-0.040533756,-0.001737825,0.020852715,0.151408837,0.081534118,0.005061306,-1.271101222,-0.564831433,1.564293420,-0.863999765,-1.322381454,-0.012668125,0.209364986,-0.234861889,0.122047138,0.191782927,-0.244863281,0.121406660
1702560368.098673,0.163434614,-0.004014095,0.028196441,0.214775107,-0.077741811,-0.000000000,0.711450160,3.119261980,-2.088979721,0.651913583,-1.024408937,0.316720068,0.676343384,-0.376457381,0.683579870,0.509222734,-0.457674233,-0.560400323,-0.040533756,-0.001737825,0.020852715,0.151408837,0.081534118,0.005061306,-1.266955745,-0.564477233,1.564495288,-0.863877260,-1.322388911,-0.012675582,0.209364986,-0.234861889,0.122047138,0.192816539,-0.244035569,0.121494427
1702560368.110334,0.079566279,0.004499301,-0.021606352,0.135318406,-0.007213541,0.000000000,0.597080588,3.010082722,-2.911268711,0.529436350,-0.897813678,0.305868804,0.558024272,0.920482551,-0.529701125,0.409140576,-0.357718547,0.521746891,-0.040533756,-0.001737825,0.020852715,0.151408837,0.081534118,0.005061306,-1.262323443,-0.564363782,1.565004484,-0.863918272,-1.322370269,-0.012668125,0.209364986,-0.234861889,0.122047138,0.193884566,-0.242983934,0.121449810
1702560368.122310,0.194911902,-0.003466784,0.033297103,0.257854893,-0.098792250,-0.000000000,0.523808062,3.092230797,-3.360848665,0.490370303,-0.898643255,0.305055678,0.732241347,-0.773622071,0.719884728,0.556876562,-0.496814062,-0.587082172,-0.040533756,-0.001737825,0.020852715,0.151408837,0.081534118,0.005061306,-1.259594768,-0.564141675,1.564838835,-0.863977395,-1.322240839,-0.012679843,0.211812930,-0.232656586,0.122047138,0.194563646,-0.242568060,0.121519569
1702560368.133929,0.105543923,0.006331406,-0.014605635,0.170551534,-0.036510222,0.000000000,0.634302199,3.167415142,-3.091202736,0.581940830,-0.938040793,0.374456495,0.602645888,0.357494977,-0.649791479,0.448325768,-0.404733900,0.000000000,-0.040533756,-0.001737825,0.020852715,0.151408837,0.081534118,0.005061306,-1.254916127,-0.564776040,1.565288910,-0.863922001,-1.322322332,-0.012675582,0.211812930,-0.232656586,0.122047138,0.195632602,-0.241408064,0.121285338
1702560368.145544,0.142123512,-0.001515411,0.015433294,0.195078123,-0.061342621,0.000000000,0.660217285,2.447288752,-3.389587641,0.558239758,-0.897813678,0.305489630,0.682123512,-0.625497966,0.705433294,0.505078123,-0.461342621,0.590000000,-0.040533756,-0.001737825,0.020852715,0.151408837,0.081534118,0.005061306,-1.251359741,-0.564633294,1.564941101,-0.863692969,-1.322337246,-0.012675582,0.214237645,-0.230425770,0.122047138,0.196588474,-0.240839533,0.121400511
1702560368.156902,0.165976493,0.002118760,0.016055227,0.233560587,-0.087651096,-0.000000000,0.716667712,3.102148294,-3.004907370,0.656066000,-0.972568631,0.333775103,0.688498243,0.752921358,0.539083932,0.533526776,-0.474704243,-0.570903393,-0.040533756,-0.001737825,0.020852715,0.151408837,0.081534118,0.005061306,-1.246834498,-0.564862859,1.565125924,-0.864022136,-1.322381454,-0.012675582,0.214237645,-0.230425770,0.122047138,0.197566383,-0.239851483,0.121278242
1702560368.168656,0.126935610,0.002239462,-0.005872304,0.191396048,-0.037781273,0.000000000,0.702078700,1.140151024,-2.210188389,0.581684709,-0.978729427,0.311235338,0.603962431,0.929791614,-0.328911064,0.465244778,-0.389894373,0.520699719,-0.040533756,-0.001737825,0.020852715,0.151408837,0.081534118,0.005061306,-1.242224034,-0.564522507,1.565374131,-0.863630118,-1.322326060,-0.012668125,0.214237645,-0.230425770,0.122047138,0.198750125,-0.238901273,0.121377242
1702560368.181036,0.168614476,0.001141319,0.014405137,0.237290518,-0.080572271,0.000000000,0.540976465,1.317949295,-2.739312172,0.431605756,-0.840212166,0.333824724,0.692043149,1.018919295,0.683230664,0.481340474,-0.456258660,0.571894291,-0.040533756,-0.001737825,0.020852715,0.151408837,0.081534118,0.005061306,-1.236820480,-0.564542747,1.565026322,-0.863947567,-1.322259481,-0.012679843,0.216638867,-0.228169685,0.122047138,0.200005346,-0.237959934,0.121381497
1702560368.192423,0.089434447,0.000699152,-0.000540740,0.131509817,-0.028598436,0.000000000,0.615999460,3.143122435,-3.097254753,0.437360495,-0.943935752,0.346051037,0.580121284,0.954812447,-0.627529476,0.413200408,-0.384114460,0.535591735,-0.040533756,-0.001737825,0.020852715,0.151408837,0.081534118,0.005061306,-1.232886458,-0.564552334,1.565142968,-0.864299104,-1.322314875,-0.012675582,0.216638867,-0.228169685,0.122047138,0.200839894,-0.237122865,0.121331420
1702560368.204295,0.099566579,-0.000995800,0.003100407,0.141909910,-0.029539300,0.000000000,0.688888669,1.341299653,-2.376883268,0.518214583,-0.897905886,0.385567784,0.556238178,-0.574688964,0.586625228,0.404073236,-0.358598651,0.497971778,-0.040533756,-0.001737825,0.020852715,0.151408837,0.081534118,0.005061306,-1.229028603,-0.564150730,1.565057747,-0.863866607,-1.322292504,-0.012683038,0.216638867,-0.228169685,0.122047138,0.201883512,-0.236419413,0.121502281
1702560368.215577,0.163805893,0.001205604,0.015081735,0.229985348,-0.080686851,0.000000000,0.566338062,1.507841587,-2.250465155,0.506450117,-0.857476056,0.324110091,0.701341299,0.854058401,0.701932531,0.538570488,-0.478861226,0.586458530,-0.040533756,-0.001737825,0.020852715,0.151408837,0.081534118,0.005061306,-1.224736653,-0.564327031,1.565155219,-0.864114281,-1.322366540,-0.012675582,0.219803497,-0.225122693,0.122047138,0.202815252,-0.235484251,0.121418842
1702560368.227159,0.119507282,0.000232283,0.003243419,0.172224720,-0.041767861,-0.000000000,0.598493278,2.978144884,-3.442028999,0.478198022,-0.938305557,0.310809404,0.614599537,0.962911666,0.635861299,0.456444347,-0.408502864,-0.540934130,-0.040533756,-0.001737825,0.020852715,0.151408837,0.081534118,0.005061306,-1.219720322,-0.564150197,1.565089705,-0.863907087,-1.322347898,-0.012683038,0.219803497,-0.225122693,0.122047138,0.204059453,-0.234506774,0.121498919
1702560368.238411,0.067784508,0.001692360,-0.018740556,0.113119363,0.005197189,0.000000000,0.589404821,3.067817926,-2.119277477,0.569835842,-0.811439157,0.339724869,0.527947730,0.896454179,-0.496624386,0.317772332,0.346058834,0.502770927,-0.040533756,-0.001737825,0.020852715,0.151408837,0.081534118,0.005061306,-1.215394284,-0.563678285,1.565006615,-0.863918272,-1.322185445,-0.012668125,0.219803497,-0.225122693,0.122047138,0.205106955,-0.233742760,0.121631493
1702560368.249769,0.146542892,-0.005475902,0.049776029,0.174243883,-0.104026095,0.000000000,0.568905175,2.906236410,-3.240538597,0.404309124,-0.213236347,0.328070819,0.662852467,-1.009411186,-0.205580664,0.424133987,-0.475288250,0.564116017,-0.040533756,-0.001737825,0.020852715,0.151408837,0.081534118,0.005061306,-1.211665325,-0.563797594,1.565174926,-0.864062616,-1.322207283,-0.012657472,0.222148881,-0.222808615,0.122047138,0.205915605,-0.232903997,0.121560345
1702560368.260833,0.105668819,0.002603058,-0.004224402,0.159605776,-0.036320293,0.000000000,0.577800274,1.175673127,-2.618509293,0.467021435,-0.880494535,0.374765933,0.579341809,0.781894829,-0.609473223,0.357357394,-0.384848714,0.517531600,-0.040533756,-0.001737825,0.020852715,0.151408837,0.081534118,0.005061306,-1.206670300,-0.563933948,1.565062541,-0.863844236,-1.322307418,-0.012675582,0.222148881,-0.222808615,0.122047138,0.207131945,-0.231865917,0.121568240
1702560368.272131,0.116423842,-0.000708306,0.004367333,0.165889204,-0.038145379,-0.000000000,0.531963706,2.900852919,-3.406827211,0.385739565,-0.213003263,0.357211500,0.556729363,-0.508742144,0.566979943,0.376159116,-0.354976021,-0.480836774,-0.040533756,-0.001737825,0.020852715,0.151408837,0.081534118,0.005061306,-1.201950646,-0.563687339,1.564902219,-0.864055159,-1.322126323,-0.012646287,0.222148881,-0.222808615,0.122047138,0.208214146,-0.231015497,0.121624062
1702560368.283251,0.085542078,0.004842578,-0.021274244,0.144136573,-0.011270643,0.000000000,0.485585749,1.657725692,-2.238624573,0.460415423,-0.903494716,0.310756147,0.577207056,0.878664493,-0.515059748,0.384836292,-0.350304077,0.537189513,-0.040533756,-0.001737825,0.020852715,0.151408837,0.081534118,0.005061306,-1.198077345,-0.563678817,1.565089705,-0.864221340,-1.322211544,-0.012657472,0.224469904,-0.220470103,0.122047138,0.209039756,-0.230129283,0.121590958
1702560368.295029,0.031950721,0.001801494,-0.018288340,0.060759570,0.014281713,0.000000000,0.468402177,2.929441214,-3.291758537,0.558239758,-0.236014634,0.310809404,0.478788059,0.850870675,-0.589247161,0.317277301,0.345272333,0.000120652,-0.040533756,-0.001737825,0.020852715,0.151408837,0.081534118,0.005061306,-1.192478848,-0.563728352,1.565072661,-0.863844236,-1.322240839,-0.012675582,0.224469904,-0.220470103,0.122047138,0.210412723,-0.228938940,0.121620367
1702560368.306252,0.084901142,0.004229389,-0.022786882,0.143549324,-0.005302822,-0.000000000,0.496711373,1.427280784,-2.354034662,0.443115234,-0.851779819,0.374102563,0.490801159,0.793479422,-0.541436904,0.197361445,-0.305969502,-0.443483352,-0.040533756,-0.001737825,0.020852715,0.151408837,0.081534118,0.005061306,-1.187664385,-0.563634609,1.565089705,-0.864199502,-1.322233382,-0.012683038,0.224469904,-0.220470103,0.122047138,0.211430768,-0.227939324,0.121608058
1702560368.317806,0.046352515,0.001983191,-0.016374445,0.080613999,0.005766285,0.000000000,0.581940830,3.122657299,-3.413964987,0.339968473,-0.926513672,0.339529842,0.502035816,0.888034054,-0.598636441,0.342209968,0.343309472,0.497876200,-0.040533756,-0.001737825,0.020852715,0.151408837,0.081534118,0.005061306,-1.183226493,-0.563628217,1.564799953,-0.864132923,-1.322136976,-0.012672386,0.226766312,-0.218107414,0.122047138,0.212500577,-0.227116772,0.121648664
1702560368.328802,0.042797820,0.003833777,-0.026256397,0.084060685,0.015141183,-0.000000000,0.587604105,1.245273829,-2.372322559,0.500695705,-0.920758903,0.380509973,0.457348794,0.809905114,-0.555960419,0.211574225,0.322215978,-0.451610355,-0.040533756,-0.001737825,0.020852715,0.151408837,0.081534118,0.005061306,-1.178462631,-0.563625022,1.564797290,-0.863818670,-1.322174260,-0.012657472,0.226766312,-0.218107414,0.122047138,0.213652934,-0.226085258,0.121685663
1702560368.339871,0.082822995,0.001458903,-0.006722954,0.126664317,-0.019459531,0.000000000,0.437511921,2.940724611,-3.337994099,0.305055678,-0.230189726,0.374102563,0.465435160,0.745427001,-0.495616275,0.324840973,-0.281355302,0.000206151,-0.040533756,-0.001737825,0.020852715,0.151408837,0.081534118,0.005061306,-1.174414626,-0.563594129,1.564775452,-0.863969938,-1.322037374,-0.012668125,0.226766312,-0.218107414,0.122047138,0.214542543,-0.225266260,0.121669545
1702560368.351051,0.148782146,-0.001213792,0.015393298,0.204952551,-0.064695863,-0.000000000,0.594105780,1.231528521,-2.440180779,0.351227969,-0.748315752,0.362594485,0.610633784,-0.852802217,0.595012043,0.459160429,-0.406808187,-0.504135762,-0.040533756,-0.001737825,0.020852715,0.151408837,0.081534118,0.005061306,-1.169889383,-0.563472156,1.564456406,-0.864188317,-1.322118866,-0.012664929,0.229789462,-0.214920002,0.122047138,0.215554027,-0.224399302,0.121735137
1702560368.362409,0.019056884,0.004416731,-0.031450550,0.053606459,0.028410954,0.000000000,0.440153211,2.947237730,-3.205521345,0.460703045,-0.420450836,0.316510886,0.447211789,0.769149559,-0.578537374,0.299399090,0.345562736,0.467337494,-0.040533756,-0.001737825,0.020852715,0.151408837,0.081534118,0.005061306,-1.165023255,-0.563937144,1.564590629,-0.863959285,-1.322288776,-0.012661200,0.229789462,-0.214920002,0.122047138,0.216646567,-0.223203993,0.121620249
1702560368.373941,0.024257744,0.001387753,-0.024014561,0.052862215,0.028836475,0.000000000,0.504648626,2.469918013,-2.428672075,0.535469532,-0.817193806,0.362594485,0.408447500,0.748423390,-0.419594624,0.273415593,0.313421480,0.418327832,-0.040533756,-0.001737825,0.020852715,0.151408837,0.081534118,0.005061306,-1.160211455,-0.563688937,1.564137359,-0.863951828,-1.322059744,-0.012683038,0.229789462,-0.214920002,0.122047138,0.217809912,-0.222389578,0.121735967
1702560368.385270,0.090485595,-0.002788285,0.021647854,0.114193145,-0.050988740,0.000000000,0.528183877,2.975402355,-2.716391325,0.512204468,-0.823250175,0.362731457,0.529870174,-0.857147190,0.084685667,0.366432440,-0.360504576,0.000473753,-0.040533756,-0.001737825,0.020852715,0.151408837,0.081534118,0.005061306,-1.155618035,-0.563739005,1.564101140,-0.864218144,-1.322096496,-0.012679843,0.232027459,-0.212501912,0.122047138,0.218766987,-0.221393402,0.121702579
1702560368.396669,0.087646497,0.000953703,-0.003768771,0.131091737,-0.023573814,0.000000000,0.512979746,1.271850348,-2.745036602,0.437965840,-0.903787911,0.351793259,0.486759543,0.775958426,-0.513746553,0.333767480,-0.319213108,0.436067958,-0.040533756,-0.001737825,0.020852715,0.151408837,0.081534118,0.005061306,-1.152020104,-0.563757114,1.564220449,-0.863870335,-1.322181717,-0.012675582,0.232027459,-0.212501912,0.122047138,0.219620698,-0.220531506,0.121724032
1702560368.409282,0.063332382,0.001993602,-0.014202459,0.103734103,-0.003072465,0.000000000,0.439211696,2.832175732,-3.309582949,0.328070819,-0.270717710,0.305055678,0.421529043,0.693292245,-0.471898193,0.305569598,-0.268403325,0.391363019,-0.040533756,-0.001737825,0.020852715,0.151408837,0.081534118,0.005061306,-1.146866888,-0.563683078,1.563575432,-0.863922001,-1.322092767,-0.012672386,0.234240011,-0.210060519,0.122047138,0.220846210,-0.219638487,0.121823200
1702560368.420286,0.107779045,0.001336288,-0.000235702,0.158418213,-0.037628157,-0.000000000,0.557497740,2.914173841,-2.238957644,0.477782339,-0.858151674,0.357211500,0.515985977,0.744687187,-0.508993715,0.392759230,-0.340003662,-0.445783430,-0.040533756,-0.001737825,0.020852715,0.151408837,0.081534118,0.005061306,-1.142200497,-0.563980820,1.563748537,-0.864395511,-1.322174260,-0.012672386,0.234240011,-0.210060519,0.122047138,0.221711491,-0.218514635,0.121671014
1702560368.431676,0.035943674,0.002211442,-0.023185078,0.070142143,0.019848050,0.000000000,0.414381474,2.832748652,-3.315451384,0.483706594,-0.782983482,0.316981375,0.406089091,0.721938640,-0.382983434,0.282633030,0.294029840,-0.000592520,-0.040533756,-0.001737825,0.020852715,0.151408837,0.081534118,0.005061306,-1.137799357,-0.563618097,1.563314975,-0.863940110,-1.322136976,-0.012687299,0.234240011,-0.210060519,0.122047138,0.222864082,-0.217709037,0.121881178
1702560368.443134,0.114048209,-0.000866828,0.013074198,0.156179273,-0.052163023,-0.000000000,0.409558266,2.872314453,-3.205810308,0.345476359,-0.218680248,0.311235338,0.570334060,-0.850431341,0.300929872,0.239664314,-0.390152542,-0.498534540,-0.040533756,-0.001737825,0.020852715,0.151408837,0.081534118,0.005061306,-1.134145500,-0.563607977,1.563682491,-0.864195774,-1.322115138,-0.012679843,0.237150081,-0.206769542,0.122047138,0.223544279,-0.216790284,0.121803867
1702560368.454681,0.028098975,0.007101573,-0.048703600,0.081117784,0.043144740,0.000000000,0.584722698,1.290102482,-2.636181116,0.368483365,-0.869042456,0.316720068,0.439368246,0.806791822,-0.224675766,0.317216810,0.346811114,0.449128040,-0.040533756,-0.001737825,0.020852715,0.151408837,0.081534118,0.005061306,-1.128758990,-0.563571758,1.563636152,-0.864099367,-1.322103953,-0.012683038,0.237150081,-0.206769542,0.122047138,0.224741107,-0.215600732,0.121829827
1702560368.466806,0.079154935,0.001223410,-0.009116931,0.122471624,-0.012887067,0.000000000,0.524187267,1.398591995,-2.526332378,0.460523278,-0.805848956,0.305868804,0.455512652,0.733030081,-0.394659907,0.338528831,-0.288323526,0.411205653,-0.040533756,-0.001737825,0.020852715,0.151408837,0.081534118,0.005061306,-1.123673950,-0.563455644,1.563482754,-0.863914544,-1.322078386,-0.012675582,0.237150081,-0.206769542,0.122047138,0.225909409,-0.214515691,0.121901955
1702560368.478006,0.066670390,-0.000955572,0.002375068,0.094272536,-0.018834185,0.000000000,0.316720068,2.768085480,-3.309297800,0.356794089,-0.281982422,0.345715940,0.496343345,-0.787572672,0.326748957,0.322734696,-0.332632533,0.469457488,-0.040533756,-0.001737825,0.020852715,0.151408837,0.081534118,0.005061306,-1.120460580,-0.563453514,1.563314975,-0.864051430,-1.322074125,-0.012672386,0.239302324,-0.204274820,0.122047138,0.226592035,-0.213849773,0.121911877
1702560368.489431,0.024071811,0.004440939,-0.034489207,0.062843656,0.032304424,0.000000000,0.524818718,1.387656927,-2.451952934,0.467021435,-0.880475700,0.362731457,0.414834863,0.756483117,-0.429911727,0.287170593,0.321025372,0.426944816,-0.040533756,-0.001737825,0.020852715,0.151408837,0.081534118,0.005061306,-1.115691924,-0.563554714,1.563220166,-0.864129195,-1.322074125,-0.012668125,0.239302324,-0.204274820,0.122047138,0.227600551,-0.212789651,0.121887850
1702560368.501245,0.063545918,0.000634790,-0.008610093,0.098786923,-0.006282013,0.000000000,0.519076526,2.854358435,-3.160868168,0.460415423,-0.823250175,0.356979668,0.421712878,0.697070546,-0.466267875,0.304401289,-0.271590873,-0.000193091,-0.040533756,-0.001737825,0.020852715,0.151408837,0.081534118,0.005061306,-1.111787730,-0.563437002,1.563169033,-0.864062616,-1.322141237,-0.012679843,0.239302324,-0.204274820,0.122047138,0.228454954,-0.211909973,0.121942379
1702560368.512872,0.067472175,0.002815680,-0.017685746,0.112928401,-0.002158764,0.000000000,0.460954577,2.860807657,-3.314737082,0.391491741,-0.782666266,0.352216601,0.488758205,0.821982959,-0.436528501,0.342917075,-0.314222489,-0.000340679,-0.040533756,-0.001737825,0.020852715,0.151408837,0.081534118,0.005061306,-1.108905124,-0.563532344,1.563197796,-0.864143576,-1.322118866,-0.012683038,0.241428324,-0.201757697,0.122047138,0.229037748,-0.211239862,0.121900171
1702560368.524497,0.023018581,0.004087495,-0.034751477,0.061115679,0.034853388,0.000000000,0.565752983,1.427187920,-2.365206480,0.494941384,-0.903568029,0.346481442,0.398618162,0.731611193,-0.351064139,0.276737660,0.309903031,0.410377320,-0.040533756,-0.001737825,0.020852715,0.151408837,0.081534118,0.005061306,-1.103596379,-0.563472156,1.563117901,-0.863847965,-1.322218469,-0.012668125,0.241428324,-0.201757697,0.122047138,0.230234058,-0.210016075,0.121968544
1702560368.535977,0.081876310,0.001039158,-0.005541316,0.123766643,-0.019114550,-0.000000000,0.496711373,1.490878344,-2.561022282,0.391364872,-0.799930036,0.351086527,0.426193384,0.670544579,-0.445502021,0.283604992,-0.271346330,-0.376198284,-0.040533756,-0.001737825,0.020852715,0.151408837,0.081534118,0.005061306,-1.098884182,-0.563464699,1.562959709,-0.864051430,-1.322063473,-0.012672386,0.241428324,-0.201757697,0.122047138,0.231211019,-0.209025906,0.121957971
1702560368.547839,0.132648761,-0.002686570,0.024388145,0.173463774,-0.068633692,-0.000000000,0.371169776,2.727802992,-3.136340380,0.333973497,-0.241699219,0.328474373,0.559088224,-0.831874415,0.497481677,0.418271614,-0.384514776,-0.465694703,-0.040533756,-0.001737825,0.020852715,0.151408837,0.081534118,0.005061306,-1.095451900,-0.563482809,1.562842530,-0.864125466,-1.321978251,-0.012683038,0.244221768,-0.198367165,0.122047138,0.231934249,-0.208289882,0.121953869
