tud-amr/mobile-manipulator-compliance/recordings/2024-01-05/1/compliant.csv
__time,/record/cur_comp.0,/record/cur_comp.1,/record/cur_comp.2,/record/cur_comp.3,/record/cur_comp.4,/record/cur_comp.5,/record/cur_fb.0,/record/cur_fb.1,/record/cur_fb.2,/record/cur_fb.3,/record/cur_fb.4,/record/cur_fb.5,/record/cur_fric.0,/record/cur_fric.1,/record/cur_fric.2,/record/cur_fric.3,/record/cur_fric.4,/record/cur_fric.5,/record/cur_null.0,/record/cur_null.1,/record/cur_null.2,/record/cur_null.3,/record/cur_null.4,/record/cur_null.5,/record/pos_q.0,/record/pos_q.1,/record/pos_q.2,/record/pos_q.3,/record/pos_q.4,/record/pos_q.5,/record/pos_t.0,/record/pos_t.1,/record/pos_t.2,/record/pos_x.0,/record/pos_x.1,/record/pos_x.2
1704456553.07486,0.132685023,0.002205751,-0.01827307,0.180137675,0.005884443,0,0.518470109,2.411264896,-3.683076143,-0.333775103,0.253274113,0.397077292,0.591231844,0.700197568,-0.545895657,0.320889124,0.299445059,0.466149541,0.173062245,0.003070002,-0.019448597,0.183299877,0.005987191,0.000407056,0.04881308,-0.349152137,1.724549139,-1.41557345,-1.049177878,-0.001065264,0.314506942,-0.000518185,0.12219917,0.3135585,-0.016051971,0.121980798
1704456553.08631,0.098485874,0.002102543,-0.016095497,0.133290796,0.006910646,0,0.623666584,2.474706888,-3.815412045,-0.351793259,0.317346841,0.391322553,0.535056875,0.663321005,-0.516616209,0.342661289,0.285285147,0.441936888,0.138596497,0.002384727,-0.017499581,0.136381951,0.007062106,0.000373364,0.050935619,-0.349136158,1.724547008,-1.415628844,-1.049162964,-0.001057808,0.314506942,-0.000518185,0.12219917,0.313599733,-0.015399183,0.121987339
1704456553.09818,0.089445355,0.002098922,-0.015917649,0.120845508,0.007768501,0,0.519968987,2.342434883,-3.683076143,-0.299467921,0.305218488,0.368348539,0.504465096,0.623693268,-0.485879269,0.332075038,0.269519875,0.415548785,0.131717158,0.002287831,-0.017442668,0.12409818,0.007937456,0.000395337,0.053749515,-0.349120712,1.724553932,-1.415592092,-1.04915604,-0.001057808,0.314506942,-0.000518185,0.12219917,0.313642006,-0.014508263,0.121990002
1704456553.10961,0.094239509,0.002182062,-0.017091621,0.127269638,0.008858286,0,0.503334463,2.411573887,-3.654375315,-0.333973497,0.259027362,0.402832031,0.4908672,0.583734001,-0.45705541,0.3270103,0.253686652,0.388701649,0.142247786,0.002553054,-0.018760675,0.130956943,0.009036849,0.000421696,0.056697368,-0.349103135,1.724558726,-1.415669856,-1.049170421,-0.001068993,0.314506942,-0.000518185,0.12219917,0.31368177,-0.013601535,0.121995859
1704456553.12066,0.10005437,0.0021709,-0.017811609,0.13517784,0.009386736,0,0.54914844,2.376736879,-3.677298784,-0.32272771,0.224434987,0.454661161,0.486878483,0.557227256,-0.438488419,0.327789933,0.243037079,0.370755755,0.154214393,0.002645316,-0.019686974,0.139313645,0.009584205,0.000428991,0.058481686,-0.349047208,1.724544345,-1.415503143,-1.049170421,-0.001068993,0.314506942,-0.000518185,0.12219917,0.313713852,-0.013002511,0.12201333
1704456553.13281,0.123054124,0.002332499,-0.020599737,0.166451928,0.010610136,0,0.518725514,2.326119661,-3.69456315,-0.322265625,0.265280545,0.385567784,0.513911744,0.538250513,-0.427323072,0.353638561,0.236221732,0.358079207,0.192789509,0.002909917,-0.023052037,0.171701499,0.010868557,0.000424638,0.059801016,-0.348963052,1.724541682,-1.415425378,-1.049137398,-0.00107645,0.314506942,-0.000518185,0.12219917,0.313748679,-0.012570096,0.122038865
1704456553.14407,0.097100536,0.001590574,-0.015899422,0.131402463,0.008744061,0,0.478198022,2.273480415,-3.648511887,-0.316563189,0.21875596,0.402873129,0.457765178,0.511936957,-0.402743183,0.301043583,0.223533379,0.341003515,0.151971811,0.002151009,-0.01777015,0.135589856,0.008937508,0.000421696,0.061675349,-0.348941747,1.724541682,-1.415477576,-1.049159768,-0.001068993,0.314506942,-0.000518185,0.12219917,0.313769711,-0.011993829,0.122046416
1704456553.15609,0.07375639,0.001684306,-0.014521186,0.09941572,0.00899045,0,0.462747216,2.273240089,-3.585320711,-0.36902222,0.212925494,0.402873129,0.413038388,0.489278587,-0.383579765,0.255485675,0.213976826,0.325751448,0.120879512,0.002222601,-0.016100905,0.103011229,0.009151528,0.000355242,0.063654344,-0.348937486,1.724549139,-1.415569722,-1.049152311,-0.001072721,0.314506942,-0.000518185,0.12219917,0.31379474,-0.011394342,0.12204788
1704456553.16758,0.046031642,0.001569983,-0.012041918,0.061562147,0.008710088,0,0.44113028,2.330784559,-3.562190533,-0.414701015,0.224508747,0.402873129,0.358426417,0.457104513,-0.358190247,0.201252711,0.200313932,0.305620238,0.084370665,0.002036313,-0.013297733,0.064545539,0.008837773,0.00038665,0.065628545,-0.348939617,1.724549139,-1.415681042,-1.049170421,-0.001054079,0.314506942,-0.000518185,0.12219917,0.313814478,-0.010800527,0.122049231
1704456553.17889,0.039473385,0.001543151,-0.011884306,0.052539845,0.009381297,0,0.31414783,2.186870575,-3.475941181,-0.517926872,0.189993694,0.437360495,0.326728954,0.412673114,-0.322691941,0.182253964,0.181892881,0.27440872,0.080383505,0.001992367,-0.013237686,0.055738621,0.009521347,0.000443569,0.06898759,-0.348935888,1.724558726,-1.415728979,-1.049192791,-0.001068993,0.314506942,-0.000518185,0.12219917,0.313841184,-0.009757605,0.122049136
1704456553.19007,0.058137255,0.001874479,-0.01504115,0.077784675,0.011133897,0,0.375824839,2.238780022,-3.527732849,-0.500662684,0.184959263,0.448869973,0.34073437,0.383262288,-0.30392337,0.211295018,0.170536453,0.254720453,0.112385831,0.002584062,-0.016824105,0.081920413,0.0113117,0.00039394,0.071064057,-0.348936953,1.724549139,-1.415618191,-1.049207705,-0.001054079,0.314506942,-0.000518185,0.12219917,0.313857459,-0.009080029,0.122048754
1704456553.20227,0.08051523,0.002197602,-0.018155395,0.108160865,0.012373929,0,0.316981375,2.209888935,-3.418438673,-0.454624712,0.155484602,0.420096248,0.3632042,0.36638596,-0.294445674,0.236660834,0.164839518,0.243276462,0.145057307,0.003149391,-0.020239472,0.113066139,0.012576614,0.000431929,0.072276328,-0.348939084,1.724558726,-1.415599549,-1.049211434,-0.00107645,0.314506942,-0.000518185,0.12219917,0.313862826,-0.008695515,0.12204565
1704456553.21419,0.060915651,0.001991185,-0.015947836,0.081472313,0.011881364,0,0.346051037,2.140795469,-3.504657507,-0.454661161,0.173025519,0.425889909,0.319597477,0.333081034,-0.267296896,0.198397001,0.150742353,0.221239809,0.121328086,0.002788842,-0.017935553,0.08606423,0.012078999,0.000414385,0.074652134,-0.348944943,1.724556595,-1.415588364,-1.04919652,-0.001068993,0.314506942,-0.000518185,0.12219917,0.313886291,-0.007947232,0.122044125
1704456553.22594,0.070489641,0.002114926,-0.017253297,0.094469221,0.01243193,0,0.328474373,2.037252426,-3.429831982,-0.455207109,0.144328222,0.443264693,0.325119625,0.32198353,-0.259999018,0.204757088,0.146039392,0.214052778,0.133305792,0.003182676,-0.01921635,0.09924974,0.012616716,0.000417326,0.075542961,-0.348956128,1.724561389,-1.415743892,-1.049215162,-0.00107645,0.314506942,-0.000518185,0.12219917,0.313889515,-0.007703763,0.122042435
1704456553.23805,0.073335124,0.002138201,-0.017494164,0.098354403,0.012391206,0,0.306355625,2.071835518,-3.458835363,-0.466276288,0.155484602,0.437701106,0.32550512,0.314738643,-0.25519056,0.206582322,0.143372165,0.209314791,0.137942674,0.003208414,-0.019528254,0.103260975,0.012583846,0.000414385,0.076365878,-0.348956128,1.724568313,-1.415651214,-1.049174682,-0.001054079,0.314506942,-0.000518185,0.12219917,0.313901065,-0.007424265,0.122039344
1704456553.24898,0.05552206,0.001987987,-0.01574667,0.074063608,0.012236445,0,0.301945865,1.945239544,-3.447211266,-0.535314858,0.134345844,0.391322553,0.290559955,0.292935175,-0.236536169,0.176851347,0.134026498,0.19429576,0.116172346,0.002899073,-0.017690429,0.078700839,0.012425058,0.000452364,0.077541397,-0.348955063,1.724568313,-1.41561393,-1.049200248,-0.001072721,0.314506942,-0.000518185,0.12219917,0.313901979,-0.007046647,0.122038889
1704456553.26022,0.044628281,0.001924119,-0.014944566,0.059164891,0.012496572,0,0.28251043,2.095113754,-3.406827211,-0.489457756,0.155803755,0.414381474,0.266094598,0.274627292,-0.221290157,0.155021435,0.126370266,0.182454052,0.102637917,0.002824301,-0.016794689,0.063584242,0.012674659,0.000401791,0.078890022,-0.348951334,1.724578433,-1.415654943,-1.049244989,-0.001072721,0.314506942,-0.000518185,0.12219917,0.313897265,-0.006633065,0.122038469
1704456553.27158,0.067597308,0.00218913,-0.017802377,0.090401058,0.013445137,0,0.243405923,2.095366716,-3.424115896,-0.523808062,0.109944217,0.379856646,0.291353174,0.262091082,-0.214851887,0.183635324,0.121944067,0.173529182,0.135892221,0.00333746,-0.019962913,0.095556375,0.013648193,0.000382279,0.079795497,-0.348949204,1.724581097,-1.415577178,-1.049244989,-0.001061536,0.314506942,-0.000518185,0.12219917,0.313900142,-0.006330947,0.122037104
1704456553.28303,0.037429592,0.001822183,-0.014037341,0.049378502,0.012251043,0,0.289172262,1.968197823,-3.435702085,-0.512463033,0.120986551,0.356794089,0.242168825,0.247132969,-0.200144645,0.136970113,0.114891198,0.164058226,0.095231059,0.002668512,-0.015901812,0.0537813,0.012432835,0.000404148,0.080971282,-0.348953465,1.724583227,-1.415636301,-1.049240728,-0.001061536,0.314506942,-0.000518185,0.12219917,0.313908867,-0.005975612,0.122036431
1704456553.29461,0.047941813,0.001963051,-0.015482027,0.063647114,0.012853233,0,0.27071771,2.026486874,-3.349660873,-0.546730876,0.092075892,0.431759179,0.251273764,0.237810125,-0.194005079,0.146235614,0.111363353,0.157509437,0.110202783,0.002969248,-0.01744861,0.068368899,0.013040827,0.000389575,0.081703918,-0.348950802,1.724592814,-1.415817396,-1.049251914,-0.001061536,0.314506942,-0.000518185,0.12219917,0.313912183,-0.00578771,0.122038537
1704456553.30583,0.069272436,0.002254378,-0.018349905,0.092619047,0.013931351,0,0.248522311,1.927873373,-3.303628683,-0.535469532,0.1156689,0.402996421,0.269362451,0.235590534,-0.194984881,0.176531069,0.111297691,0.155804198,0.140340358,0.003481286,-0.020571999,0.097981267,0.014139265,0.000389541,0.081879154,-0.348956128,1.724592814,-1.415803015,-1.049259371,-0.001061536,0.314506942,-0.000518185,0.12219917,0.313910182,-0.005729444,0.122036577
1704456553.3171,0.066818741,0.002127571,-0.017334463,0.08939316,0.012989538,0,0.26478073,1.922092795,-3.429826975,-0.47795558,0.110694699,0.362731457,0.27649105,0.23493794,-0.194874159,0.173524502,0.110731547,0.155514014,0.13723919,0.003266971,-0.019565547,0.094721684,0.013201979,0.000420226,0.08187436,-0.348960922,1.724588021,-1.415740164,-1.049225815,-0.001065264,0.314506942,-0.000518185,0.12219917,0.313918329,-0.0057163,0.12203506
1704456553.32839,0.067065565,0.002151772,-0.017511201,0.089707077,0.013166081,0,0.311235338,1.959056973,-3.383808613,-0.489288568,0.097999744,0.374058306,0.276584509,0.234613207,-0.194693292,0.173644468,0.11061091,0.155186282,0.137619031,0.003304104,-0.019745214,0.095040707,0.013378158,0.000411456,0.081884214,-0.348963585,1.724583227,-1.415721522,-1.049222619,-0.001061536,0.314506942,-0.000518185,0.12219917,0.313920189,-0.005708776,0.122034929
1704456553.34069,0.066653168,0.0021893,-0.017772799,0.089101946,0.013514905,0,0.27071771,1.962907434,-3.395298481,-0.506548226,0.08077167,0.454661161,0.275660932,0.233824045,-0.193729256,0.172798497,0.110247733,0.154431397,0.137379786,0.003361564,-0.020012188,0.094453049,0.013726373,0.000418755,0.081891405,-0.348963052,1.724583227,-1.415610734,-1.049225815,-0.001065264,0.314506942,-0.000518185,0.12219917,0.313916218,-0.005680952,0.122033011
1704456553.35174,0.06696345,0.002184359,-0.017781204,0.089529397,0.013512236,0,0.253470123,1.904959083,-3.389587641,-0.489187032,0.104222842,0.368348539,0.276136599,0.234138133,-0.194233541,0.17315395,0.110532342,0.154688719,0.137574619,0.003362257,-0.020008286,0.094881675,0.013722426,0.000434162,0.081886611,-0.348960389,1.724590684,-1.415651214,-1.049251914,-0.001083374,0.314506942,-0.000518185,0.12219917,0.313908029,-0.005692039,0.122032892
1704456553.36363,0.067630059,0.002181567,-0.017758148,0.090449957,0.013401857,0,0.25921908,2.021520853,-3.383832932,-0.506417394,0.111736909,0.391322553,0.275368606,0.234843603,-0.19469108,0.174164578,0.111067947,0.154766877,0.138325873,0.003294666,-0.020003845,0.095832746,0.013617389,0.000482641,0.08186717,-0.348958791,1.724590684,-1.415710337,-1.049244989,-0.00107645,0.314506942,-0.000518185,0.12219917,0.313911649,-0.005711761,0.122034522
1704456553.37553,0.067603326,0.002136653,-0.017514462,0.090448612,0.013167214,0,0.277185142,2.03143239,-3.378039122,-0.506711602,0.1156689,0.408627301,0.276865343,0.235721761,-0.195442191,0.174754924,0.111265144,0.155832784,0.138216028,0.003259627,-0.019758384,0.095782589,0.013381852,0.000407065,0.08187436,-0.348956128,1.724583227,-1.415803015,-1.049248185,-0.001068993,0.314506942,-0.000518185,0.12219917,0.313916746,-0.005730634,0.122038694
1704456553.38766,0.067745426,0.002178027,-0.017764053,0.090606743,0.013415203,0,0.287967265,1.939382553,-3.383808613,-0.48343268,0.115238644,0.374765933,0.276105078,0.235785461,-0.195538799,0.175021514,0.111404257,0.155852109,0.138473037,0.003324192,-0.020010529,0.095926883,0.013628758,0.000366711,0.081854919,-0.348958791,1.724592814,-1.415780644,-1.049251914,-0.001057808,0.314506942,-0.000518185,0.12219917,0.313911013,-0.005731907,0.122035353
1704456553.40079,0.06718336,0.002162677,-0.017617333,0.089856871,0.013289831,0,0.276227683,1.939348459,-3.424072266,-0.51843816,0.1156689,0.379813045,0.276434171,0.235107466,-0.195117881,0.174072664,0.111184017,0.155427036,0.138157992,0.003254741,-0.019894407,0.095215557,0.013509034,0.000408569,0.081845066,-0.348959324,1.724588021,-1.415699151,-1.049248185,-0.001072721,0.314506942,-0.000518185,0.12219917,0.313911317,-0.005716044,0.122034712
1704456553.41278,0.067672327,0.002177093,-0.017757703,0.090508486,0.013413876,0,0.289172262,2.026070118,-3.406827211,-0.506548226,0.109944217,0.420096248,0.275694688,0.235662217,-0.195551557,0.174872959,0.11114653,0.15572231,0.138560488,0.003347557,-0.01999759,0.095867118,0.013625894,0.00041146,0.081825624,-0.348959324,1.724583227,-1.415717793,-1.049255642,-0.001068993,0.314506942,-0.000518185,0.12219917,0.313911641,-0.005726307,0.122036073
1704456553.42456,0.067500269,0.002161207,-0.01766384,0.090285394,0.013335639,0,0.287967265,2.009073019,-3.349660873,-0.518214583,0.120986551,0.385567784,0.276232019,0.235695503,-0.195305373,0.174643604,0.111138132,0.15555096,0.138431235,0.003295848,-0.019916509,0.095661904,0.013550725,0.000440699,0.081823228,-0.348959324,1.724588021,-1.415706608,-1.049240728,-0.001080178,0.314506942,-0.000518185,0.12219917,0.313913356,-0.00572461,0.122034878
1704456553.43602,0.068067967,0.00212607,-0.017516572,0.091090695,0.013151691,0,0.282217205,2.083860636,-3.452965736,-0.495743662,0.103585377,0.385739565,0.277239127,0.236459213,-0.195797384,0.174107131,0.111266779,0.156050128,0.13834193,0.003300643,-0.019723951,0.09641853,0.013360283,0.000433345,0.081818434,-0.348959324,1.724581097,-1.415776916,-1.049251914,-0.001061536,0.314506942,-0.000518185,0.12219917,0.313915119,-0.005742136,0.122037655
1704456553.44762,0.068103578,0.002126719,-0.017464114,0.091146125,0.013054684,0,0.26478073,2.054451466,-3.366544485,-0.472029269,0.103585377,0.379813045,0.277355953,0.236514582,-0.195715547,0.174302834,0.11148076,0.156083182,0.138405983,0.003211066,-0.019706521,0.09647851,0.013270969,0.000446523,0.081816037,-0.348956128,1.724590684,-1.415788101,-1.049230076,-0.00107645,0.314506942,-0.000518185,0.12219917,0.313917845,-0.005745712,0.122036863
1704456553.45945,0.067719668,0.00211389,-0.017372476,0.090633132,0.012995036,0,0.276287615,2.0151546,-3.395537376,-0.518054724,0.104222842,0.437360495,0.277752263,0.23620921,-0.19558322,0.174453827,0.111297695,0.15595602,0.138183823,0.003200455,-0.019622923,0.095972948,0.013211985,0.000439228,0.081833081,-0.348958259,1.724585358,-1.415773187,-1.049240728,-0.001072721,0.314506942,-0.000518185,0.12219917,0.313916509,-0.005736787,0.122037034
1704456553.47204,0.067325067,0.002159822,-0.017602944,0.090053695,0.013259608,0,0.293999225,1.945316076,-3.406812906,-0.506417394,0.10949146,0.460379452,0.277422559,0.235635347,-0.195325151,0.17439985,0.111349135,0.155721557,0.138048049,0.00324381,-0.019874178,0.095384727,0.013478427,0.000392457,0.081830684,-0.348959324,1.724590684,-1.41572525,-1.049244989,-0.001050351,0.314506942,-0.000518185,0.12219917,0.313911812,-0.005726661,0.122034635
1704456553.48412,0.066700926,0.002132552,-0.017459126,0.08921788,0.013194678,0,0.276766658,2.060848951,-3.418360949,-0.535191119,0.121396437,0.437360495,0.276580346,0.234778629,-0.194577188,0.173245398,0.110828042,0.155055416,0.13769557,0.003261128,-0.01973071,0.094557954,0.0134113,0.000370473,0.081847462,-0.348956128,1.724581097,-1.415654943,-1.049251914,-0.001050351,0.314506942,-0.000518185,0.12219917,0.313912103,-0.005704845,0.12203637
1704456553.49614,0.066863047,0.002156287,-0.017639228,0.08941215,0.013393413,0,0.287967265,2.07753396,-3.406827211,-0.500794947,0.097999744,0.426006526,0.276603018,0.235149371,-0.194893992,0.173545584,0.110910287,0.155300229,0.137535221,0.003310434,-0.019878772,0.094754445,0.013605941,0.000411443,0.081859713,-0.348958259,1.724588021,-1.415699151,-1.049255642,-0.001061536,0.314506942,-0.000518185,0.12219917,0.313909583,-0.005711445,0.122035018
1704456553.5086,0.067052642,0.002140963,-0.017479605,0.089696472,0.013155048,0,0.25921908,1.968155861,-3.355059624,-0.506450117,0.092255555,0.443264693,0.276878417,0.235210627,-0.194872368,0.17388713,0.111029498,0.155342093,0.137721308,0.003222799,-0.01974475,0.095045391,0.01337355,0.000430483,0.081854919,-0.348959324,1.724588021,-1.415710337,-1.049233272,-0.001072721,0.314506942,-0.000518185,0.12219917,0.313915592,-0.005715513,0.122034974
1704456553.51986,0.067290497,0.002118715,-0.01729222,0.090051325,0.012892067,0,0.299467921,2.07753396,-3.372299194,-0.517958879,0.092255555,0.414381474,0.277143286,0.235447436,-0.195021211,0.1739665,0.110920074,0.155514573,0.137770171,0.003165019,-0.019559947,0.095389881,0.01311254,0.000439269,0.081857316,-0.348961454,1.724595478,-1.415758806,-1.049237533,-0.001057808,0.314506942,-0.000518185,0.12219917,0.313912799,-0.005726207,0.122033585
1704456553.53124,0.067276067,0.002134897,-0.017386961,0.090017704,0.012992556,0,0.282041132,2.043452501,-3.424193144,-0.517958879,0.115238644,0.351086527,0.277273354,0.235297993,-0.195064057,0.17431619,0.110989603,0.15540678,0.137944691,0.003187802,-0.019658754,0.095377254,0.013213264,0.000451687,0.081854919,-0.34896465,1.724585358,-1.415740164,-1.049225815,-0.001090831,0.314506942,-0.000518185,0.12219917,0.313918788,-0.005722356,0.122034472
1704456553.54257,0.067052456,0.002163917,-0.017616928,0.089675732,0.013301349,0,0.28251043,2.060399055,-3.383867264,-0.506450117,0.093680426,0.431950867,0.277113557,0.235218326,-0.194979537,0.173884443,0.111183169,0.155422619,0.137946398,0.003254605,-0.019888705,0.09503701,0.013520168,0.000423167,0.081852522,-0.34896252,1.724588021,-1.415706608,-1.049244989,-0.001072721,0.314506942,-0.000518185,0.12219917,0.313912026,-0.005715451,0.122033865
1704456553.55479,0.067069237,0.002135032,-0.017461631,0.089723554,0.01314475,0,0.288254619,1.996929049,-3.360774994,-0.500794947,0.092255555,0.414501339,0.276826927,0.235106993,-0.194863578,0.173883328,0.110984728,0.15533121,0.137952347,0.003226614,-0.019736843,0.095069758,0.013363672,0.000398328,0.081857316,-0.348960922,1.724588021,-1.415699151,-1.049230076,-0.001087635,0.314506942,-0.000518185,0.12219917,0.31391592,-0.005712191,0.122034277
1704456553.5661,0.067299493,0.002167374,-0.017685971,0.090005197,0.013375769,0,0.282217205,1.910583377,-3.424193144,-0.506940246,0.1156689,0.437398344,0.276979064,0.235553877,-0.195228194,0.174314694,0.111132051,0.155470866,0.138123404,0.003304092,-0.019934011,0.095369993,0.013590224,0.000433353,0.081840272,-0.348959324,1.724590684,-1.415717793,-1.049244989,-0.001061536,0.314506942,-0.000518185,0.12219917,0.313911649,-0.00572193,0.122034495
1704456553.57735,0.067636521,0.002141976,-0.017536637,0.090493246,0.013177204,0,0.26478073,2.014291763,-3.418322325,-0.512301445,0.109944217,0.426006526,0.277208479,0.235839863,-0.195425183,0.174076615,0.111301926,0.155783387,0.138053631,0.003263623,-0.019779104,0.095803823,0.013391371,0.000391045,0.081835478,-0.348958259,1.724588021,-1.415747088,-1.049237533,-0.001065264,0.314506942,-0.000518185,0.12219917,0.313915573,-0.005730092,0.12203598
1704456553.58837,0.06786157,0.002121971,-0.017434533,0.090817726,0.013052682,0,0.293717504,1.99742651,-3.389622211,-0.500960231,0.109944217,0.425889909,0.277437304,0.236136375,-0.195510337,0.174032743,0.111313321,0.155824521,0.138185196,0.003222804,-0.019671595,0.096153391,0.013267679,0.000447994,0.081835478,-0.348956128,1.724585358,-1.415776916,-1.049237533,-0.001080178,0.314506942,-0.000518185,0.12219917,0.313917723,-0.00573687,0.122037781
1704456553.60002,0.067748652,0.00212058,-0.017393054,0.090668495,0.013000271,0,0.281982422,2.020578623,-3.435658932,-0.512204468,0.103585377,0.362548828,0.277216099,0.236034995,-0.195460747,0.174442063,0.111223687,0.155758668,0.138250205,0.003213525,-0.01964188,0.096013794,0.013216815,0.000443582,0.081830684,-0.348958791,1.724583227,-1.415762002,-1.049233272,-0.001068993,0.314506942,-0.000518185,0.12219917,0.313918866,-0.005734888,0.122037147
1704456553.61224,0.067449723,0.002135022,-0.01741976,0.090252281,0.013026153,0,0.293717504,1.985461354,-3.40105319,-0.506417394,0.104222842,0.408627301,0.277067616,0.235585264,-0.195145997,0.174542717,0.111081542,0.155620907,0.138110011,0.00317573,-0.019700067,0.09559661,0.013248075,0.000427525,0.081830684,-0.34896252,1.724585358,-1.415728979,-1.049240728,-0.001072721,0.314506942,-0.000518185,0.12219917,0.313914687,-0.00572738,0.122034875
1704456553.62359,0.067183564,0.002155693,-0.017624307,0.089855549,0.013329157,0,0.277185142,2.008611679,-3.447110415,-0.494941384,0.1156689,0.374058306,0.276995269,0.235396696,-0.195136859,0.174120158,0.110954485,0.15514561,0.13806452,0.003302458,-0.019867173,0.095242255,0.013542826,0.000463344,0.081840272,-0.348958791,1.724588021,-1.415699151,-1.049244989,-0.001083374,0.314506942,-0.000518185,0.12219917,0.313912188,-0.005717539,0.12203489
1704456553.63526,0.067269419,0.002162869,-0.017656645,0.089968854,0.013346522,0,0.259027362,2.032410383,-3.435624838,-0.512204468,0.120986551,0.368348539,0.277190354,0.235483784,-0.195245068,0.174222681,0.111062148,0.155536185,0.137953635,0.003311851,-0.019898181,0.095310034,0.013559516,0.000408536,0.081845066,-0.348960389,1.724592814,-1.415714065,-1.049244989,-0.001072721,0.314506942,-0.000518185,0.12219917,0.313910622,-0.005719643,0.122033631
1704456553.6463,0.067410746,0.002138645,-0.017518965,0.090183861,0.013187822,0,0.276467353,1.962401152,-3.372284412,-0.506940246,0.097999744,0.333775103,0.277292934,0.235563193,-0.195192813,0.174116114,0.111048996,0.155610647,0.137941182,0.003275441,-0.019758443,0.095511727,0.013401131,0.000405602,0.081850126,-0.348957193,1.724585358,-1.415736435,-1.049240728,-0.001065264,0.314506942,-0.000518185,0.12219917,0.31391566,-0.005722945,0.122036679
1704456553.65867,0.067502787,0.002127144,-0.017452081,0.090320759,0.013106943,0,0.282041132,1.910583377,-3.412582159,-0.512301445,0.110694699,0.397118986,0.277464842,0.235707437,-0.195269353,0.17423174,0.111005082,0.155558,0.138033255,0.00327842,-0.019678778,0.095672271,0.013318651,0.000445102,0.081850126,-0.348959324,1.724590684,-1.415758806,-1.049248185,-0.001068993,0.314506942,-0.000518185,0.12219917,0.313912071,-0.005728306,0.122035252
1704456553.67015,0.067350546,0.002145394,-0.017570061,0.090093906,0.013257614,0,0.287967265,1.945103168,-3.412582159,-0.517958879,0.104222842,0.420096248,0.277251808,0.235575466,-0.195241477,0.174149603,0.111118498,0.155620039,0.137899523,0.003286826,-0.019806437,0.095428502,0.013470505,0.000414401,0.081859713,-0.348958791,1.724588021,-1.415747088,-1.049251914,-0.001068993,0.314506942,-0.000518185,0.12219917,0.313911895,-0.005722508,0.122035763
1704456553.68133,0.067012515,0.00215799,-0.017560994,0.089629004,0.013233487,0,0.293999225,2.009073019,-3.361011267,-0.48343268,0.092075892,0.374058306,0.276990564,0.235121176,-0.194911787,0.173825231,0.111105978,0.155333581,0.137839956,0.003217769,-0.01984159,0.094987174,0.013454592,0.000428991,0.081857316,-0.348958791,1.724592814,-1.415710337,-1.049237533,-0.001068993,0.314506942,-0.000518185,0.12219917,0.313912722,-0.005714911,0.122034087
1704456553.69233,0.067023118,0.00216402,-0.017625039,0.089633702,0.013318377,0,0.287794709,1.876125693,-3.378039122,-0.506711602,0.106112219,0.391364872,0.277042328,0.235205206,-0.194893523,0.173838233,0.111135575,0.155261711,0.137898076,0.003255192,-0.019893447,0.095003779,0.013536941,0.000440707,0.081852522,-0.348959324,1.724590684,-1.41570288,-1.049240728,-0.001080178,0.314506942,-0.000518185,0.12219917,0.313912394,-0.005714638,0.122034231
1704456553.70346,0.066997141,0.002149812,-0.017499762,0.089617836,0.013161211,0,0.299467921,1.969139934,-3.378112555,-0.483535409,0.122076541,0.397077292,0.276870425,0.234989499,-0.194839097,0.17377416,0.1109692,0.155100176,0.137809332,0.003227215,-0.019770647,0.09498682,0.013380633,0.000447994,0.081857316,-0.34896252,1.724592814,-1.415695423,-1.049233272,-0.001080178,0.314506942,-0.000518185,0.12219917,0.313912947,-0.005711501,0.122032658
1704456553.71507,0.067285896,0.002135659,-0.017481511,0.090017729,0.013150951,0,0.276467353,1.968424916,-3.406807899,-0.483535409,0.110694699,0.402996421,0.277236648,0.235555678,-0.195172359,0.174266912,0.111161114,0.155620069,0.137883016,0.003240229,-0.019735622,0.095352765,0.013367252,0.000412931,0.081850126,-0.348959324,1.724585358,-1.415736435,-1.049240728,-0.001065264,0.314506942,-0.000518185,0.12219917,0.313915403,-0.005722966,0.122036013
1704456553.72621,0.067488029,0.002131625,-0.017471808,0.090297839,0.013124909,0,0.276766658,1.968660593,-3.395303488,-0.506940246,0.1156689,0.437360495,0.27750083,0.235810511,-0.195330641,0.174270856,0.111137659,0.155770604,0.138001528,0.003268636,-0.019710515,0.095621995,0.013338125,0.000401223,0.081850126,-0.348959324,1.724588021,-1.415754545,-1.049233272,-0.001065264,0.314506942,-0.000518185,0.12219917,0.313916859,-0.00572722,0.122035802
1704456553.73752,0.06756134,0.00212395,-0.01739716,0.090409702,0.013017778,0,0.28251043,1.916882396,-3.383832932,-0.523808062,0.1156689,0.402832031,0.277477063,0.235822283,-0.195332441,0.174306407,0.111163024,0.155700493,0.1380722,0.003191857,-0.019657844,0.095750048,0.013236572,0.000436295,0.081842669,-0.348958259,1.724585358,-1.415758806,-1.049233272,-0.001068993,0.314506942,-0.000518185,0.12219917,0.313918089,-0.00573045,0.122036791
1704456553.74948,0.067340658,0.002153471,-0.017601669,0.090075966,0.013281161,0,0.28251043,1.927873373,-3.372520208,-0.506940246,0.103745103,0.443451405,0.277380321,0.235663199,-0.19537315,0.17437452,0.1112908,0.155710989,0.137956889,0.003272345,-0.019848538,0.095420845,0.013496205,0.000426109,0.081837875,-0.348959324,1.724595478,-1.415743892,-1.049240728,-0.001072721,0.314506942,-0.000518185,0.12219917,0.313911674,-0.005728851,0.12203396
1704456553.7609,0.067366951,0.002163574,-0.017634831,0.090105693,0.013294557,0,0.288254619,2.10048914,-3.39531827,-0.500662684,0.086512759,0.356840491,0.277226878,0.235683506,-0.195151259,0.174434492,0.11135964,0.155689785,0.138069056,0.003243918,-0.019905354,0.095439221,0.013513522,0.000399711,0.081837875,-0.348957193,1.724595478,-1.415728979,-1.049237533,-0.001050351,0.314506942,-0.000518185,0.12219917,0.313912329,-0.005725384,0.122034358
1704456553.77194,0.067420031,0.002110156,-0.017342819,0.090223839,0.012995375,0,0.293999225,1.962401152,-3.372299194,-0.489187032,0.10949146,0.448869973,0.277390382,0.235701819,-0.195163889,0.174545305,0.11107855,0.155676432,0.138065678,0.003213361,-0.019596502,0.095572389,0.013211861,0.000430479,0.081837875,-0.348956128,1.724578433,-1.415740164,-1.049237533,-0.001072721,0.314506942,-0.000518185,0.12219917,0.313919314,-0.005727419,0.122038593
1704456553.78333,0.067530959,0.002121555,-0.017422414,0.090365636,0.013073152,0,0.288254619,1.951401114,-3.39534235,-0.489457756,0.115238644,0.385567784,0.277187495,0.235824799,-0.195295775,0.174569645,0.111141717,0.155594484,0.138175363,0.00325077,-0.019663767,0.095724018,0.013287313,0.000445114,0.081842669,-0.348961454,1.724588021,-1.415732707,-1.049237533,-0.00107645,0.314506942,-0.000518185,0.12219917,0.313914808,-0.005724548,0.122034712
1704456553.79507,0.067505237,0.002130957,-0.017440807,0.090326698,0.01307161,0,0.288656443,1.979765534,-3.372358322,-0.513334692,0.098505341,0.408748835,0.277318869,0.235661155,-0.195257415,0.174250643,0.111153024,0.155673342,0.138046193,0.003226488,-0.019693523,0.095667354,0.013288282,0.000430479,0.081840272,-0.348960922,1.724583227,-1.415740164,-1.049240728,-0.001072721,0.314506942,-0.000518185,0.12219917,0.313916079,-0.005726869,0.122036046
1704456553.80615,0.067360422,0.002125926,-0.017387161,0.090134172,0.013016503,0,0.288254619,1.945103168,-3.401072502,-0.523713231,0.10949146,0.414341509,0.277151733,0.235445795,-0.195007299,0.174160548,0.110984174,0.155502671,0.137908026,0.003231573,-0.019647006,0.0954369,0.013232925,0.000363162,0.081847462,-0.348960389,1.724583227,-1.41572525,-1.049225815,-0.001050351,0.314506942,-0.000518185,0.12219917,0.31391964,-0.005721146,0.122035986
1704456553.81806,0.067311186,0.002145066,-0.017530153,0.090045278,0.013193956,0,0.293548316,2.008702278,-3.337875128,-0.489187032,0.115094863,0.385567784,0.277119874,0.235505052,-0.195169846,0.174308356,0.111125897,0.155560096,0.137990276,0.003259715,-0.019786056,0.095379102,0.013409899,0.000399799,0.081847462,-0.34896252,1.724585358,-1.41572525,-1.049240728,-0.001068993,0.314506942,-0.000518185,0.12219917,0.313914674,-0.005721253,0.122034806
1704456553.83023,0.067115534,0.00214153,-0.017482899,0.08978316,0.013150226,0,0.282041132,2.042966366,-3.39531827,-0.483535409,0.097999744,0.426200807,0.277068514,0.235289717,-0.195005024,0.173973748,0.111057082,0.155414267,0.137866039,0.00322626,-0.019758583,0.095106305,0.013369297,0.000375481,0.081847462,-0.348959324,1.724590684,-1.415706608,-1.049233272,-0.001061536,0.314506942,-0.000518185,0.12219917,0.313914421,-0.005717077,0.122034327
1704456553.84131,0.067142477,0.00216363,-0.017657912,0.089793452,0.013362166,0,0.259538263,2.0151546,-3.406885624,-0.506450117,0.10949146,0.431759179,0.277151974,0.235402411,-0.195029393,0.174053269,0.111146865,0.155227501,0.137912723,0.003277645,-0.019910031,0.095164991,0.01357816,0.000453835,0.081852522,-0.348958791,1.724590684,-1.415717793,-1.049248185,-0.00107645,0.314506942,-0.000518185,0.12219917,0.313910949,-0.005718083,0.12203465
1704456553.8526,0.067402887,0.002136484,-0.017478319,0.090179225,0.013127198,0,0.282041132,2.025874138,-3.332398891,-0.489457756,0.098505341,0.431605756,0.277461224,0.23574841,-0.195331025,0.174555494,0.11122598,0.155628507,0.138071835,0.003225838,-0.019737877,0.095532021,0.01334493,0.000436295,0.081835478,-0.348956128,1.724590684,-1.415736435,-1.049233272,-0.001068993,0.314506942,-0.000518185,0.12219917,0.313915611,-0.005727691,0.122035884
1704456553.86373,0.06745525,0.002131564,-0.017465967,0.09025348,0.013119274,0,0.276467353,1.927873373,-3.424115896,-0.51843816,0.109944217,0.425889909,0.277481422,0.235753513,-0.195312725,0.174335279,0.111216553,0.155753691,0.138003908,0.00323154,-0.019720029,0.09558232,0.013335755,0.000408577,0.081842669,-0.348957193,1.724585358,-1.415747088,-1.049240728,-0.001072721,0.314506942,-0.000518185,0.12219917,0.313915929,-0.005727744,0.122036878
1704456553.87618,0.067446394,0.002132629,-0.017453243,0.09024311,0.013094505,0,0.282217205,1.991440535,-3.383789063,-0.483535409,0.097830638,0.397118986,0.277510132,0.235792049,-0.195338816,0.174354316,0.111213411,0.155731875,0.138003023,0.00322074,-0.019708863,0.095584494,0.013311845,0.000430466,0.081842669,-0.348958259,1.724588021,-1.415751349,-1.049237533,-0.001072721,0.314506942,-0.000518185,0.12219917,0.313915739,-0.005728818,0.12203606
1704456553.88747,0.067307783,0.002130585,-0.017422722,0.09005637,0.013067022,0,0.282041132,2.008413553,-3.326365948,-0.500662684,0.122076541,0.345284581,0.277265634,0.235500629,-0.195115175,0.174306294,0.11107585,0.155621278,0.137916146,0.003216649,-0.019683654,0.095394515,0.013284896,0.000418755,0.081835478,-0.348960922,1.724592814,-1.415736435,-1.049240728,-0.001065264,0.314506942,-0.000518185,0.12219917,0.31391227,-0.005727815,0.122033899
1704456553.89878,0.067378867,0.002138131,-0.01748361,0.09014546,0.013133071,0,0.27071771,1.905037284,-3.424149513,-0.483398438,0.120986551,0.374235332,0.277282825,0.235545865,-0.195225426,0.174465653,0.11117042,0.155598285,0.138029313,0.003233564,-0.01974156,0.095491361,0.013350287,0.000426054,0.081842669,-0.348960389,1.724590684,-1.415717793,-1.049244989,-0.00107645,0.314506942,-0.000518185,0.12219917,0.313911534,-0.005721188,0.122034162
1704456553.91066,0.067154849,0.002144933,-0.017497153,0.089834868,0.013156946,0,0.282217205,1.963211179,-3.424149513,-0.512204468,0.092255555,0.408627301,0.277062482,0.235248864,-0.194935185,0.174033669,0.111047379,0.155428571,0.137883414,0.00322443,-0.019767588,0.095179489,0.013376021,0.000415856,0.081854919,-0.348961454,1.724585358,-1.415714065,-1.049237533,-0.001072721,0.314506942,-0.000518185,0.12219917,0.313915352,-0.005716316,0.12203494
1704456553.9222,0.067319132,0.002139179,-0.017510043,0.090059064,0.013181831,0,0.276766658,2.026070118,-3.401072502,-0.529467642,0.099342272,0.362594485,0.277267376,0.235527014,-0.195120083,0.174298558,0.111126931,0.155597028,0.13793702,0.003250367,-0.019762077,0.095397614,0.013397648,0.000415813,0.081850126,-0.348958259,1.724585358,-1.415732707,-1.049240728,-0.001054079,0.314506942,-0.000518185,0.12219917,0.313915422,-0.005722095,0.122036276
1704456553.93431,0.067455652,0.002158869,-0.017635753,0.09022823,0.013303994,0,0.270534128,2.014456034,-3.418491602,-0.52943635,0.097999744,0.351086527,0.277338681,0.235742685,-0.195252263,0.174177855,0.111274044,0.155659476,0.137945732,0.003287997,-0.019883513,0.095526085,0.013518135,0.000359314,0.081840272,-0.348957193,1.72457577,-1.415743892,-1.049244989,-0.001061536,0.314506942,-0.000518185,0.12219917,0.313918382,-0.005727463,0.122038881
1704456553.94609,0.06735705,0.002145664,-0.017566277,0.090103789,0.01324872,0,0.293717504,1.910886645,-3.383867264,-0.519968987,0.115094863,0.426006526,0.277330275,0.235631237,-0.195275541,0.174292211,0.111176751,0.155650872,0.137952895,0.003276198,-0.019808908,0.095442763,0.013462748,0.000417284,0.081852522,-0.348958259,1.724592814,-1.415740164,-1.049248185,-0.001057808,0.314506942,-0.000518185,0.12219917,0.313910852,-0.005723308,0.122034774
1704456553.95798,0.0672784,0.002138431,-0.017479601,0.090008287,0.01313691,0,0.270534128,1.985594869,-3.383793831,-0.500794947,0.104222842,0.402832031,0.277270924,0.235395457,-0.195111851,0.174287605,0.111114449,0.155510877,0.137963658,0.00324734,-0.019733487,0.095360792,0.013353126,0.000431937,0.081852522,-0.348958259,1.724588021,-1.415728979,-1.049240728,-0.001065264,0.314506942,-0.000518185,0.12219917,0.313914307,-0.005720566,0.12203563
1704456553.97042,0.067184548,0.002136373,-0.01749188,0.089877929,0.013177689,0,0.287737161,2.014168501,-3.418555021,-0.500695705,0.097830638,0.379856646,0.277119058,0.235316179,-0.194998797,0.174096048,0.111083816,0.15546224,0.137913683,0.003247888,-0.019748706,0.095226963,0.013393997,0.000420226,0.081845066,-0.348957193,1.724583227,-1.41570288,-1.049259371,-0.001057808,0.314506942,-0.000518185,0.12219917,0.3139106,-0.005716746,0.122036446
1704456553.98187,0.067387599,0.002164858,-0.017644312,0.090133107,0.013302847,0,0.276467353,2.002948284,-3.406827211,-0.512463033,0.115094863,0.460415423,0.277181282,0.235706062,-0.195234892,0.174469527,0.111376458,0.15570233,0.138098537,0.003259866,-0.019910132,0.095466429,0.013520645,0.00039687,0.081830684,-0.348959324,1.724592814,-1.415721522,-1.049240728,-0.001061536,0.314506942,-0.000518185,0.12219917,0.313911999,-0.005725862,0.122034119
1704456553.996,0.067399392,0.002132833,-0.017467755,0.090175541,0.013124508,0,0.276467353,2.083225012,-3.429826975,-0.517958879,0.103745103,0.397118986,0.277481151,0.235715623,-0.19527438,0.174402954,0.111155239,0.155257751,0.138028873,0.003235722,-0.019713455,0.095549921,0.013340549,0.000477203,0.081845066,-0.348959324,1.724583227,-1.415747088,-1.049237533,-0.001080178,0.314506942,-0.000518185,0.12219917,0.313917336,-0.005726942,0.122036686
1704456554.00715,0.067377929,0.002150921,-0.017578625,0.090129691,0.013246984,0,0.276467353,1.991440535,-3.349265575,-0.48343268,0.1156689,0.426006526,0.277302677,0.235651216,-0.195302087,0.174191686,0.111135149,0.155637727,0.137912205,0.003290759,-0.019818972,0.09544875,0.013460152,0.000389558,0.081852522,-0.34896252,1.724588021,-1.415743892,-1.049244989,-0.001061536,0.314506942,-0.000518185,0.12219917,0.313913116,-0.005724055,0.122034563
1704456554.01847,0.067433786,0.00215854,-0.017608197,0.090201505,0.013260802,0,0.28292042,2.060270548,-3.355015278,-0.512204468,0.105014205,0.431605756,0.277587538,0.235876267,-0.195352367,0.174526449,0.111349767,0.155763693,0.138053133,0.003259452,-0.019861305,0.095548917,0.013477334,0.000431941,0.081835478,-0.348960389,1.724592814,-1.415743892,-1.049237533,-0.00107645,0.314506942,-0.000518185,0.12219917,0.313913386,-0.005729526,0.122034216
1704456554.02992,0.067291878,0.002123583,-0.017448009,0.090032235,0.013139614,0,0.276467353,2.089169979,-3.39531827,-0.500960231,0.104222842,0.425889909,0.277319219,0.235596456,-0.195131297,0.174335519,0.111006004,0.155634286,0.137959372,0.003270645,-0.019686736,0.095378915,0.013352549,0.000420226,0.081847462,-0.348956128,1.724588021,-1.415732707,-1.049244989,-0.001065264,0.314506942,-0.000518185,0.12219917,0.313913532,-0.005722999,0.12203635
1704456554.04101,0.067351747,0.002165586,-0.017626547,0.090086287,0.013273641,0,0.258963436,1.945239544,-3.372520208,-0.541068256,0.105014205,0.408748835,0.277180961,0.23560109,-0.195141115,0.174401653,0.111309233,0.155660489,0.138066152,0.003233858,-0.019900287,0.095430972,0.013493573,0.000418755,0.081835478,-0.348958791,1.724598141,-1.415717793,-1.049233272,-0.001061536,0.314506942,-0.000518185,0.12219917,0.313911887,-0.005723649,0.122033088
1704456554.05232,0.067345996,0.00216054,-0.017643081,0.090076944,0.013322775,0,0.293548316,2.014168501,-3.378112555,-0.506450117,0.097999744,0.402873129,0.277107028,0.235567766,-0.195273306,0.174341409,0.111229253,0.155570166,0.137987188,0.003290211,-0.019896082,0.095392863,0.013537512,0.000371944,0.081847462,-0.348953998,1.724590684,-1.415732707,-1.049237533,-0.001080178,0.314506942,-0.000518185,0.12219917,0.313914716,-0.005723053,0.122036465
1704456554.06347,0.067392978,0.002126121,-0.017422765,0.090174381,0.013073846,0,0.248055458,1.945239544,-3.406812906,-0.483535409,0.104222842,0.379813045,0.277378369,0.235674864,-0.19520863,0.174328583,0.111136068,0.155672428,0.137950113,0.003235009,-0.019677946,0.095489045,0.013289838,0.000382176,0.081845066,-0.348961454,1.724590684,-1.415747088,-1.049240728,-0.001083374,0.314506942,-0.000518185,0.12219917,0.313913388,-0.005727202,0.122034393
1704456554.07444,0.067440896,0.002129318,-0.017407524,0.090242652,0.01302921,0,0.28292042,1.88756454,-3.349305153,-0.518054724,0.121396437,0.385567784,0.277430511,0.235691674,-0.195238459,0.174183383,0.111116818,0.155469903,0.137969974,0.003198005,-0.019667136,0.095592781,0.013247935,0.000450959,0.081845066,-0.348960922,1.724588021,-1.415747088,-1.049233272,-0.001068993,0.314506942,-0.000518185,0.12219917,0.313916418,-0.005727103,0.122035163
1704456554.08584,0.06743107,0.002149564,-0.01757475,0.090203563,0.013239247,0,0.287794709,1.962907434,-3.4413414,-0.500794947,0.110694699,0.420096248,0.277443105,0.235792569,-0.195355816,0.174283718,0.111288556,0.155752117,0.137963005,0.003266286,-0.019821753,0.095529606,0.013454242,0.000404123,0.081847462,-0.348959324,1.724590684,-1.415751349,-1.049244989,-0.001061536,0.314506942,-0.000518185,0.12219917,0.313912672,-0.005727417,0.122035124
1704456554.09733,0.067382529,0.002138751,-0.017536975,0.090143386,0.013221405,0,0.270534128,1.99702847,-3.418336868,-0.512301445,0.110694699,0.368348539,0.277319453,0.235704174,-0.195286332,0.174477262,0.111076795,0.155695488,0.138038793,0.003288958,-0.019774255,0.095490273,0.013434034,0.000421696,0.081835478,-0.348958259,1.724585358,-1.41572525,-1.049248185,-0.001068993,0.314506942,-0.000518185,0.12219917,0.313913174,-0.005724982,0.12203611
1704456554.10946,0.067151399,0.002163725,-0.017637705,0.089809011,0.013325426,0,0.264968276,1.893319249,-3.383867264,-0.501191556,0.103745103,0.431605756,0.277073841,0.235261,-0.195061182,0.174036506,0.111077936,0.155246753,0.13787952,0.003284743,-0.019886873,0.095173683,0.013540714,0.000446535,0.081852522,-0.348961454,1.724590684,-1.415710337,-1.049244989,-0.00107645,0.314506942,-0.000518185,0.12219917,0.313911243,-0.005716385,0.12203369
1704456554.12096,0.067318334,0.002145202,-0.017513836,0.0900578,0.013164333,0,0.288254619,2.026486874,-3.395376444,-0.512204468,0.115094863,0.420096248,0.277270778,0.235517999,-0.195163422,0.174328414,0.111178582,0.155587146,0.137959384,0.003223879,-0.019786179,0.095374232,0.013383359,0.000377846,0.081842669,-0.348957193,1.724590684,-1.41572525,-1.049237533,-0.001050351,0.314506942,-0.000518185,0.12219917,0.313914084,-0.005722868,0.122035327
1704456554.13238,0.067377817,0.002145933,-0.017530094,0.090135551,0.01318307,0,0.259538263,2.037471771,-3.349438667,-0.517958879,0.109944217,0.425889909,0.277314832,0.235679028,-0.195130476,0.174205971,0.111191033,0.15566159,0.137895079,0.003253349,-0.019784003,0.095446494,0.013398993,0.000380809,0.081850126,-0.348958791,1.724590684,-1.415747088,-1.049230076,-0.001057808,0.314506942,-0.000518185,0.12219917,0.313916519,-0.005725573,0.122035263
1704456554.14338,0.067346008,0.00212486,-0.017435585,0.090108291,0.013107087,0,0.28251043,2.020906687,-3.401754379,-0.512204468,0.115238644,0.443152606,0.277266953,0.2355602,-0.195120396,0.174206242,0.111116839,0.15562592,0.137912026,0.003242591,-0.019682029,0.095444431,0.013322069,0.000417339,0.081854919,-0.348958791,1.724581097,-1.415743892,-1.049248185,-0.00107645,0.314506942,-0.000518185,0.12219917,0.313915399,-0.005723053,0.122037216
1704456554.15489,0.067473476,0.002116714,-0.017375461,0.090292818,0.013019804,0,0.299744248,2.065960884,-3.355020285,-0.500960231,0.109944217,0.448869973,0.277530804,0.235765905,-0.195242957,0.174304533,0.11113212,0.155377322,0.138032178,0.003208737,-0.019623683,0.095656494,0.013236507,0.000468408,0.081835478,-0.348957193,1.724590684,-1.415743892,-1.049240728,-0.001061536,0.314506942,-0.000518185,0.12219917,0.313913754,-0.005729431,0.122035665
1704456554.16682,0.067387455,0.002146418,-0.017544409,0.090148255,0.013204038,0,0.264968276,2.002857447,-3.3611691,-0.500695705,0.10949146,0.449017495,0.277483187,0.235746944,-0.195377236,0.174525047,0.111293669,0.155478725,0.138061416,0.003244234,-0.019799087,0.095508324,0.01342098,0.000447414,0.081837875,-0.348958259,1.724590684,-1.415736435,-1.049240728,-0.001061536,0.314506942,-0.000518185,0.12219917,0.313913421,-0.005726969,0.122035192
1704456554.18,0.067267027,0.00214503,-0.017518302,0.089986291,0.013179122,0,0.28292042,1.899074078,-3.332001209,-0.506548226,0.110694699,0.356840491,0.277319084,0.235460169,-0.195133757,0.174285566,0.111171972,0.155392102,0.13799285,0.003231442,-0.019780968,0.095348006,0.013397338,0.000445052,0.081842669,-0.348959324,1.724585358,-1.415721522,-1.049240728,-0.001072721,0.314506942,-0.000518185,0.12219917,0.313914924,-0.005721866,0.122035734
1704456554.19175,0.067311118,0.002160384,-0.017603637,0.090034442,0.013260062,0,0.271023363,2.021095037,-3.360814333,-0.518054724,0.097999744,0.368303567,0.277269472,0.235562613,-0.195158641,0.17434809,0.111283974,0.155501451,0.138034441,0.003223914,-0.019877493,0.095387106,0.013480325,0.000431874,0.081840272,-0.348958791,1.724595478,-1.415721522,-1.049240728,-0.001057808,0.314506942,-0.000518185,0.12219917,0.313911098,-0.005722931,0.122033708
1704456554.20323,0.067324104,0.002148567,-0.0175376,0.090061852,0.013191525,0,0.264968276,2.060206175,-3.389543772,-0.506417394,0.097999744,0.385610729,0.277237894,0.235475796,-0.195070707,0.174358962,0.111179474,0.15532209,0.138008325,0.003219995,-0.019802575,0.095426151,0.013410722,0.000456093,0.081847462,-0.348961454,1.724588021,-1.415736435,-1.049237533,-0.001065264,0.314506942,-0.000518185,0.12219917,0.313914944,-0.005723903,0.122034782
1704456554.21633,0.067454588,0.002168383,-0.017713095,0.090215083,0.013399734,0,0.287967265,1.910652757,-3.429846287,-0.506711602,0.120986551,0.362548828,0.277297403,0.235811088,-0.195352729,0.174414975,0.111242316,0.155746857,0.138059724,0.003312434,-0.01995081,0.095555493,0.013612657,0.000417322,0.081840272,-0.348959324,1.724595478,-1.415736435,-1.049248185,-0.00107645,0.314506942,-0.000518185,0.12219917,0.313909524,-0.005726387,0.122033794
1704456554.22739,0.067353874,0.002147692,-0.017568534,0.090099143,0.013244474,0,0.328222215,2.054443359,-3.366603374,-0.500695705,0.097999744,0.431759179,0.277300597,0.23553316,-0.195085902,0.17426581,0.111251099,0.155612921,0.137954688,0.003230586,-0.01983191,0.095434101,0.013462657,0.000414385,0.081847462,-0.348956128,1.724590684,-1.415728979,-1.049248185,-0.001068993,0.314506942,-0.000518185,0.12219917,0.313911569,-0.005722227,0.122035692
1704456554.23864,0.067367936,0.002141352,-0.017488232,0.090130173,0.013129065,0,0.276287615,2.083248854,-3.383808613,-0.495041728,0.092075892,0.362548828,0.277292326,0.235615222,-0.195209911,0.174461991,0.111183777,0.155619364,0.138058079,0.003203417,-0.019762233,0.095476162,0.013349355,0.000424595,0.081835478,-0.348959324,1.724588021,-1.41572525,-1.049237533,-0.001057808,0.314506942,-0.000518185,0.12219917,0.313914806,-0.005725063,0.122035238
1704456554.25052,0.067321238,0.002121769,-0.017433298,0.090075078,0.013117365,0,0.276467353,1.899937034,-3.355020285,-0.494907916,0.115238644,0.448906839,0.27733273,0.235662278,-0.195178466,0.174391278,0.111063094,0.155659351,0.138017784,0.003263972,-0.019679159,0.095410036,0.01333106,0.000396857,0.081835478,-0.348957193,1.724581097,-1.41572525,-1.049248185,-0.001061536,0.314506942,-0.000518185,0.12219917,0.313914935,-0.005724838,0.122037366
1704456554.2621,0.067305334,0.002146558,-0.017559802,0.090033619,0.013239686,0,0.26478073,1.979932666,-3.372323751,-0.494941384,0.115094863,0.414501339,0.277253723,0.235582549,-0.195254383,0.17434259,0.111203547,0.1555634,0.138029171,0.003261337,-0.019813294,0.095387549,0.013455597,0.000428996,0.081840272,-0.348958259,1.724588021,-1.415721522,-1.049248185,-0.001068993,0.314506942,-0.000518185,0.12219917,0.313912073,-0.0057227,0.122035464
1704456554.27405,0.067343576,0.002140563,-0.017520813,0.090091069,0.013191828,0,0.293548316,1.974287868,-3.481662512,-0.500695705,0.092792444,0.414381474,0.277265949,0.235574333,-0.195205127,0.174393585,0.11110396,0.155558791,0.138006265,0.003260023,-0.01976925,0.09544089,0.013407031,0.000428996,0.081847462,-0.348958791,1.724585358,-1.415732707,-1.049240728,-0.001068993,0.314506942,-0.000518185,0.12219917,0.313915343,-0.005722937,0.12203611
1704456554.285,0.067398497,0.002149477,-0.017579415,0.090158362,0.013251306,0,0.293717504,1.92797637,-3.355257034,-0.517958879,0.116382487,0.420096248,0.277493516,0.235762714,-0.195393257,0.174453128,0.111238048,0.155549856,0.138033559,0.00327001,-0.019822664,0.095517735,0.013466097,0.000448746,0.081845066,-0.348959324,1.724592814,-1.415743892,-1.049244989,-0.001083374,0.314506942,-0.000518185,0.12219917,0.313911624,-0.005726515,0.122034522
1704456554.29661,0.067414875,0.002141452,-0.017521994,0.090188997,0.013181066,0,0.264968276,2.083415747,-3.418322325,-0.506450117,0.097830638,0.420135677,0.27735274,0.23572416,-0.195233193,0.174485056,0.111208506,0.155709967,0.13803798,0.003252294,-0.019777221,0.095517777,0.013397087,0.000398328,0.081833081,-0.348958791,1.724585358,-1.415728979,-1.049237533,-0.001065264,0.314506942,-0.000518185,0.12219917,0.313915985,-0.005726587,0.122036051
1704456554.30773,0.06735192,0.002149532,-0.017558182,0.09009635,0.013220473,0,0.282217205,1.899065256,-3.401097059,-0.512463033,0.111736909,0.420135677,0.277366526,0.235652574,-0.19518786,0.174288091,0.11122013,0.155346525,0.137959339,0.003247844,-0.019807275,0.095460465,0.013436931,0.000462584,0.081850126,-0.348959324,1.724590684,-1.415743892,-1.049237533,-0.001080178,0.314506942,-0.000518185,0.12219917,0.313914415,-0.005724851,0.12203501
1704456554.31978,0.067418245,0.002158152,-0.01766923,0.090172478,0.013368106,0,0.293548316,2.088979721,-3.355020285,-0.517958879,0.104222842,0.379813045,0.277259767,0.235813499,-0.19544711,0.174551707,0.111170838,0.155696558,0.138141711,0.003317461,-0.019904858,0.095528895,0.013580222,0.000428996,0.081823228,-0.348958259,1.724585358,-1.415717793,-1.049255642,-0.001068993,0.314506942,-0.000518185,0.12219917,0.31391094,-0.005727116,0.122035944
1704456554.33202,0.067435473,0.002130926,-0.017458147,0.090227433,0.013110211,0,0.289172262,1.991972566,-3.389622211,-0.512301445,0.105014205,0.431759179,0.277468131,0.235735329,-0.195299123,0.174434432,0.111203469,0.155688528,0.138041558,0.003224528,-0.019714864,0.095570919,0.013327374,0.000427525,0.081840272,-0.348958259,1.724592814,-1.415717793,-1.049233272,-0.001054079,0.314506942,-0.000518185,0.12219917,0.313914019,-0.005721972,0.122034408
1704456554.34338,0.06737744,0.002145808,-0.017557917,0.09013256,0.013230327,0,0.276227683,1.950891852,-3.360789776,-0.518054724,0.103745103,0.368303567,0.277301406,0.235640717,-0.19524137,0.17445916,0.111222679,0.155607911,0.138036982,0.003252846,-0.019811758,0.095481465,0.0134466,0.000428996,0.081837875,-0.348956128,1.724590684,-1.41572525,-1.049240728,-0.001068993,0.314506942,-0.000518185,0.12219917,0.313913351,-0.005724366,0.122035648
1704456554.35448,0.067395389,0.002127797,-0.017407385,0.090179353,0.013040366,0,0.287737161,2.048720837,-3.349438667,-0.495041728,0.109944217,0.374102563,0.277417801,0.235641734,-0.195204004,0.174359699,0.111106171,0.155717421,0.137988594,0.003200293,-0.019672123,0.095519888,0.013259273,0.000426109,0.081842669,-0.348959324,1.724585358,-1.415740164,-1.049230076,-0.001080178,0.314506942,-0.000518185,0.12219917,0.313918249,-0.005726154,0.122036121
1704456554.36579,0.067295945,0.002141424,-0.01750202,0.090028284,0.013161734,0,0.293999225,2.025964022,-3.424309254,-0.518054724,0.104222842,0.402832031,0.277222678,0.235440216,-0.195058655,0.174286619,0.111123622,0.155477514,0.137938671,0.003240837,-0.019758956,0.095372983,0.013378621,0.000424596,0.081850126,-0.348959324,1.724585358,-1.41572525,-1.049237533,-0.001057808,0.314506942,-0.000518185,0.12219917,0.31391591,-0.005720381,0.122035815
1704456554.37747,0.067284564,0.002145818,-0.017562055,0.090004438,0.013249052,0,0.270472944,2.008809328,-3.412562847,-0.506548226,0.104222842,0.426006526,0.277284631,0.235562614,-0.195230923,0.174286785,0.111151165,0.15559833,0.137945258,0.003270936,-0.019812138,0.095341781,0.013463972,0.000407073,0.081842669,-0.348957193,1.724590684,-1.415721522,-1.049244989,-0.001068993,0.314506942,-0.000518185,0.12219917,0.313912029,-0.005722017,0.122035231
1704456554.39049,0.067336448,0.002136026,-0.017502543,0.09008529,0.013178893,0,0.270534128,1.973876953,-3.389622211,-0.484630018,0.126735061,0.408627301,0.277163736,0.235550267,-0.195163808,0.174349875,0.111077988,0.155569632,0.137964346,0.003278565,-0.01974775,0.095406099,0.013392368,0.000380788,0.081842669,-0.348958791,1.724585358,-1.415717793,-1.049248185,-0.001068993,0.314506942,-0.000518185,0.12219917,0.313912933,-0.005721009,0.122035804
1704456554.4024,0.067295028,0.00215165,-0.017592914,0.090014054,0.013278043,0,0.293999225,2.03816247,-3.39531827,-0.512204468,0.109944217,0.408748835,0.277327486,0.2355516,-0.195194331,0.174337563,0.111179736,0.155130801,0.137989833,0.00326279,-0.019839501,0.095393534,0.013493749,0.000477174,0.081837875,-0.348960389,1.724590684,-1.415721522,-1.049237533,-0.001054079,0.314506942,-0.000518185,0.12219917,0.313913561,-0.005723544,0.122034259
1704456554.41408,0.067288023,0.002140474,-0.017525012,0.090014593,0.013206348,0,0.282217205,1.97966516,-3.349265575,-0.517958879,0.103745103,0.402996421,0.277211693,0.235539739,-0.195182577,0.174271326,0.111102923,0.155560689,0.137879094,0.003275726,-0.019772319,0.09533016,0.013420313,0.000376976,0.081847462,-0.348959324,1.724583227,-1.415728979,-1.049248185,-0.001065264,0.314506942,-0.000518185,0.12219917,0.313914039,-0.005722024,0.122036309
1704456554.4254,0.06732758,0.002139069,-0.017459604,0.090078125,0.013093925,0,0.293999225,1.991440535,-3.360814333,-0.517958879,0.117374189,0.437360495,0.277364887,0.235412483,-0.195161078,0.174404454,0.111109773,0.15530142,0.138005224,0.003226335,-0.019716749,0.095447955,0.01331168,0.000465025,0.081840272,-0.348961454,1.724583227,-1.41572525,-1.049233272,-0.001087635,0.314506942,-0.000518185,0.12219917,0.313917524,-0.005723423,0.122035626
1704456554.43723,0.067274247,0.002144816,-0.017541824,0.089993248,0.013219507,0,0.270534128,2.027271032,-3.372402191,-0.506450117,0.120849609,0.431644112,0.277282854,0.235548616,-0.195210041,0.174266114,0.111167663,0.155580326,0.137947833,0.003264192,-0.019796734,0.095323575,0.013435082,0.000393916,0.081842669,-0.348958791,1.724588021,-1.415721522,-1.049244989,-0.001054079,0.314506942,-0.000518185,0.12219917,0.313912856,-0.005721949,0.122035308
1704456554.44825,0.067406476,0.002124803,-0.017418386,0.090193717,0.013069284,0,0.276467353,2.025677919,-3.418903589,-0.477678388,0.092792444,0.437360495,0.27717466,0.235582505,-0.195154847,0.174410012,0.111101431,0.155634004,0.138017545,0.003217736,-0.019680867,0.095518099,0.013286809,0.000393916,0.081842669,-0.348956128,1.724583227,-1.415732707,-1.049237533,-0.001054079,0.314506942,-0.000518185,0.12219917,0.313917287,-0.005724344,0.122037415
1704456554.46011,0.067301893,0.002147598,-0.017532624,0.090033314,0.01318938,0,0.299301982,2.03143239,-3.389548779,-0.507234156,0.097830638,0.420096248,0.277268181,0.235489387,-0.19520609,0.174314593,0.111184648,0.155603143,0.137940258,0.003216797,-0.01980172,0.095376076,0.013408828,0.000424638,0.081847462,-0.348958791,1.724592814,-1.41572525,-1.049244989,-0.00107645,0.314506942,-0.000518185,0.12219917,0.313911156,-0.005721456,0.12203434
1704456554.4719,0.067418011,0.002145734,-0.017546207,0.09019082,0.013206003,0,0.282217205,1.910609365,-3.349502802,-0.495442957,0.104222842,0.408748835,0.277401272,0.235734838,-0.195324856,0.174521226,0.111297685,0.15561826,0.138066795,0.003229943,-0.019806939,0.09554277,0.013424077,0.000437757,0.081837875,-0.348959324,1.724588021,-1.415736435,-1.049248185,-0.001072721,0.314506942,-0.000518185,0.12219917,0.313912366,-0.005726905,0.12203541
1704456554.48479,0.067282522,0.002140156,-0.017474185,0.090014636,0.013120725,0,0.25921908,2.009798288,-3.418555021,-0.478198022,0.103745103,0.397077292,0.277132619,0.235350645,-0.195071362,0.1741315,0.11107487,0.155519299,0.137861593,0.003222033,-0.019738621,0.095342021,0.013338979,0.000404165,0.081854919,-0.348961454,1.724585358,-1.415728979,-1.049240728,-0.001061536,0.314506942,-0.000518185,0.12219917,0.313914955,-0.005719762,0.122035208
1704456554.49672,0.067406092,0.00213584,-0.017498834,0.090180949,0.013165017,0,0.25921908,1.991440535,-3.464527607,-0.506417394,0.1156689,0.420096248,0.277369892,0.235610898,-0.19525272,0.174350468,0.111071399,0.15569051,0.137997222,0.003280094,-0.019736342,0.095517796,0.013377889,0.000412914,0.081845066,-0.348959324,1.724583227,-1.415740164,-1.049244989,-0.001065264,0.314506942,-0.000518185,0.12219917,0.313915187,-0.005725354,0.12203653
1704456554.50823,0.067365651,0.002141855,-0.017540072,0.090118212,0.01321732,0,0.288254619,2.037187099,-3.332016468,-0.506450117,0.10949146,0.397118986,0.277349221,0.235677967,-0.195248442,0.174473664,0.111123597,0.155422251,0.138073338,0.003262386,-0.019785632,0.095486551,0.013432409,0.000455371,0.081842669,-0.348957193,1.724585358,-1.415736435,-1.049240728,-0.001080178,0.314506942,-0.000518185,0.12219917,0.313915617,-0.005725286,0.122036679
1704456554.52073,0.067366707,0.002139645,-0.017512227,0.090125932,0.013176795,0,0.259027362,2.043452501,-3.406807899,-0.500695705,0.098505341,0.448869973,0.27707512,0.235606256,-0.195272192,0.174435383,0.111218446,0.155649785,0.13808387,0.003222195,-0.019783642,0.095458983,0.013395702,0.000396807,0.081833081,-0.348955063,1.724590684,-1.415717793,-1.049244989,-0.001061536,0.314506942,-0.000518185,0.12219917,0.313912122,-0.005724145,0.122035826
1704456554.53178,0.067279625,0.002144552,-0.017576951,0.08999583,0.013280455,0,0.276467353,1.996929049,-3.401131153,-0.506417394,0.1156689,0.391322553,0.277286031,0.235563875,-0.195220616,0.174276203,0.110981802,0.155587987,0.137951203,0.003320683,-0.019807551,0.095333774,0.013491108,0.000401791,0.081842669,-0.348960389,1.724583227,-1.415721522,-1.049255642,-0.001072721,0.314506942,-0.000518185,0.12219917,0.313911719,-0.005721828,0.12203581
1704456554.54288,0.067354342,0.00213481,-0.017435036,0.090118638,0.013065734,0,0.270534128,1.973876953,-3.412567616,-0.500794947,0.122076541,0.414381474,0.277343384,0.235503034,-0.195138475,0.174317445,0.111105886,0.155600262,0.137951861,0.003198127,-0.019703487,0.095459798,0.013285434,0.000427525,0.081847462,-0.348958791,1.724585358,-1.415740164,-1.049233272,-0.001065264,0.314506942,-0.000518185,0.12219917,0.313917507,-0.005724648,0.122036276
1704456554.55384,0.067350704,0.002134546,-0.017454239,0.090111037,0.013099819,0,0.282217205,1.893870234,-3.401097059,-0.489288568,0.103585377,0.345332533,0.277251422,0.235498844,-0.195123995,0.174216248,0.111094836,0.155574743,0.137921424,0.003222795,-0.019717012,0.095432271,0.013317561,0.000393928,0.081845066,-0.348958791,1.724585358,-1.415721522,-1.049244989,-0.001087635,0.314506942,-0.000518185,0.12219917,0.31391389,-0.005721113,0.122035885
1704456554.56582,0.067453351,0.002132141,-0.017415362,0.090257383,0.013029884,0,0.270534128,2.008702278,-3.424077034,-0.507234156,0.120986551,0.426006526,0.277445516,0.235666134,-0.195284851,0.1745898,0.111137806,0.15523645,0.138134497,0.003192522,-0.019679078,0.095638591,0.013249718,0.000486857,0.081840272,-0.348956128,1.724595478,-1.41572525,-1.049248185,-0.001050351,0.314506942,-0.000518185,0.12219917,0.313909583,-0.005723774,0.122034583
1704456554.57684,0.067394568,0.002158516,-0.017645411,0.090142923,0.013329584,0,0.305218488,1.870512843,-3.401072502,-0.517926872,0.104222842,0.443115234,0.277308213,0.235723516,-0.195299114,0.174307275,0.11123713,0.155619967,0.13793448,0.003300874,-0.019892714,0.095434622,0.013542973,0.000341214,0.081845066,-0.348959324,1.724592814,-1.415736435,-1.049248185,-0.001047155,0.314506942,-0.000518185,0.12219917,0.313910571,-0.005724798,0.122034371
1704456554.5879,0.067376659,0.002142907,-0.017508765,0.090139314,0.013157598,0,0.270534128,2.066345453,-3.360947371,-0.517958879,0.122076541,0.391322553,0.277468973,0.23568454,-0.195325884,0.174491007,0.111234236,0.155662333,0.138024404,0.003217491,-0.019774664,0.095486403,0.013376558,0.000430458,0.081837875,-0.348959324,1.724590684,-1.415732707,-1.049240728,-0.001072721,0.314506942,-0.000518185,0.12219917,0.313913183,-0.005726119,0.12203479
1704456554.59932,0.067345421,0.002186895,-0.017797774,0.090052246,0.013486167,0,0.287737161,2.026331663,-3.39534235,-0.489694476,0.109944217,0.362594485,0.277411441,0.235649953,-0.195328838,0.174409591,0.111342584,0.155350564,0.138043668,0.003311138,-0.020041346,0.095423456,0.013700879,0.000461093,0.081840272,-0.348961454,1.724600271,-1.41572525,-1.049251914,-0.00107645,0.314506942,-0.000518185,0.12219917,0.31390613,-0.005723982,0.122031868
1704456554.61028,0.067256365,0.002143785,-0.017515412,0.089972303,0.013180342,0,0.276227683,1.968122244,-3.389782906,-0.506940246,0.110694699,0.448869973,0.277186826,0.235432347,-0.195137817,0.174203434,0.111147528,0.155508233,0.137895598,0.003245523,-0.019779641,0.095285707,0.013397459,0.000370597,0.081847462,-0.348958259,1.724588021,-1.415721522,-1.049240728,-0.001050351,0.314506942,-0.000518185,0.12219917,0.31391406,-0.005720434,0.12203549
1704456554.62192,0.067363538,0.00214729,-0.017584754,0.090109207,0.013273409,0,0.277185142,2.026192904,-3.366529703,-0.506548226,0.104222842,0.443264693,0.277389793,0.235693358,-0.195327018,0.174335138,0.111126384,0.15541559,0.137980769,0.003285564,-0.019820546,0.095467524,0.013486631,0.000447398,0.081847462,-0.348958259,1.724588021,-1.415740164,-1.049248185,-0.001061536,0.314506942,-0.000518185,0.12219917,0.313912659,-0.005724745,0.122035813
1704456554.63323,0.067484602,0.002124279,-0.017380522,0.09030697,0.012996603,0,0.270472944,1.974413753,-3.366544485,-0.489457756,0.104222842,0.397118986,0.277382601,0.23575061,-0.195285748,0.174467613,0.111118174,0.155765346,0.138053202,0.003180474,-0.019656681,0.095622864,0.013217101,0.000388054,0.081850126,-0.348958259,1.724598141,-1.415736435,-1.049244989,-0.00107645,0.314506942,-0.000518185,0.12219917,0.313909523,-0.005723363,0.122033561
1704456554.64451,0.067403966,0.002153486,-0.017578891,0.09016574,0.013233556,0,0.265280545,2.054733515,-3.429831982,-0.523808062,0.099342272,0.397244036,0.277444503,0.235711723,-0.195285358,0.174510938,0.111314469,0.155255257,0.138081367,0.003232946,-0.01983691,0.095541398,0.013451854,0.000475761,0.081850126,-0.348958259,1.724585358,-1.415728979,-1.049240728,-0.001072721,0.314506942,-0.000518185,0.12219917,0.313915313,-0.005721235,0.122036207
1704456554.65594,0.067311927,0.00214083,-0.017518245,0.090048911,0.013189187,0,0.288254619,1.922161698,-3.355193138,-0.483706594,0.110694699,0.460379452,0.277064928,0.23550501,-0.195170396,0.174309924,0.111173892,0.155554294,0.138018535,0.003250778,-0.019779889,0.095377646,0.0134058,0.000388054,0.081835478,-0.348958259,1.724583227,-1.415710337,-1.049244989,-0.001057808,0.314506942,-0.000518185,0.12219917,0.313914388,-0.005721469,0.122036304
1704456554.66692,0.067288063,0.00213698,-0.017486527,0.090021328,0.013153261,0,0.282041132,2.066922426,-3.378039122,-0.472029269,0.110694699,0.432219148,0.277286839,0.235487345,-0.195131339,0.174320173,0.111138114,0.155241394,0.13797031,0.003233751,-0.019741313,0.095388112,0.013370291,0.000458171,0.081845066,-0.348960389,1.724588021,-1.415721522,-1.049244989,-0.001068993,0.314506942,-0.000518185,0.12219917,0.313912677,-0.005721213,0.122034809
1704456554.67828,0.067428492,0.002155682,-0.017585137,0.090198203,0.013232449,0,0.2934919,2.048696756,-3.406812906,-0.477643698,0.097830638,0.402832031,0.277359791,0.235699939,-0.19531899,0.174404152,0.111301863,0.155378103,0.138061083,0.003246135,-0.019839818,0.09555997,0.013449761,0.0004562,0.081842669,-0.348958791,1.724598141,-1.415736435,-1.049233272,-0.001065264,0.314506942,-0.000518185,0.12219917,0.313912474,-0.005725694,0.122033437
1704456554.68943,0.067326759,0.002100954,-0.017246775,0.090109749,0.012877081,0,0.282041132,2.027050734,-3.349280119,-0.518725514,0.109340124,0.448869973,0.277334108,0.235461422,-0.194930937,0.174412704,0.110879729,0.155408694,0.137995495,0.003171011,-0.019513108,0.095468131,0.013096408,0.000448006,0.081840272,-0.348956128,1.724578433,-1.41572525,-1.049225815,-0.001080178,0.314506942,-0.000518185,0.12219917,0.31392195,-0.00572321,0.122038355
1704456554.70089,0.067334143,0.002114291,-0.017337549,0.090106762,0.012979825,0,0.27071771,1.962578416,-3.314752102,-0.506417394,0.097830638,0.368348539,0.277276656,0.235536756,-0.195039789,0.17438006,0.110992567,0.155591009,0.137964459,0.003216691,-0.019599567,0.095425409,0.013196763,0.000380788,0.081837875,-0.348958259,1.724585358,-1.415721522,-1.049230076,-0.001057808,0.314506942,-0.000518185,0.12219917,0.313917805,-0.005723347,0.122036105
1704456554.71272,0.067314818,0.002128417,-0.017410016,0.090069294,0.013051723,0,0.287967265,1.858862281,-3.303267479,-0.483535409,0.092075892,0.408748835,0.277299843,0.235475479,-0.195110746,0.174348389,0.111058291,0.155602356,0.137958198,0.003180013,-0.0196891,0.095402098,0.013272842,0.000408569,0.081845066,-0.348960922,1.724590684,-1.415740164,-1.049233272,-0.001057808,0.314506942,-0.000518185,0.12219917,0.313915196,-0.005725589,0.122034456
1704456554.72387,0.067347857,0.002121661,-0.017379983,0.090118239,0.013022706,0,0.299467921,2.002725124,-3.458773136,-0.517958879,0.110694699,0.345284581,0.27724018,0.235544786,-0.195113287,0.174429648,0.111050794,0.155653779,0.138047121,0.003194202,-0.019650017,0.095464625,0.013242143,0.000423167,0.081840272,-0.348956128,1.724583227,-1.415728979,-1.049230076,-0.001072721,0.314506942,-0.000518185,0.12219917,0.31391911,-0.005724227,0.122037371
1704456554.73586,0.067473488,0.002139611,-0.01750184,0.09027391,0.013146469,0,0.299246639,2.014563084,-3.418360949,-0.506450117,0.097999744,0.362731457,0.277278172,0.235851416,-0.195414167,0.174649576,0.111278108,0.155789375,0.138110319,0.003247563,-0.019759638,0.095598478,0.013362843,0.000389558,0.081830684,-0.348959324,1.724590684,-1.415736435,-1.049240728,-0.001061536,0.314506942,-0.000518185,0.12219917,0.313913251,-0.005729237,0.122034859
1704456554.74908,0.067321758,0.002138558,-0.017495823,0.090064915,0.013159273,0,0.264968276,1.922222137,-3.412582159,-0.489153177,0.115238644,0.437360495,0.277334383,0.235575992,-0.195155084,0.17436752,0.111178438,0.155640956,0.137968547,0.003240198,-0.019752453,0.095407523,0.013376012,0.000420226,0.081845066,-0.34896252,1.724595478,-1.415721522,-1.049248185,-0.001072721,0.314506942,-0.000518185,0.12219917,0.313908729,-0.005721472,0.122032517
1704456554.76053,0.06736251,0.002167126,-0.01766438,0.09009623,0.013332214,0,0.276287615,1.996970534,-3.4413414,-0.500695705,0.120986551,0.425889909,0.277258984,0.235430137,-0.195227552,0.174323188,0.111293658,0.155490359,0.137998534,0.003278213,-0.019914376,0.095447929,0.013547966,0.000436295,0.081833081,-0.348959324,1.724590684,-1.415743892,-1.049248185,-0.001050351,0.314506942,-0.000518185,0.12219917,0.313911537,-0.005730214,0.122034973
1704456554.77179,0.067388988,0.00213536,-0.017453258,0.090164134,0.013090161,0,0.287794709,2.043225527,-3.40105319,-0.500794947,0.103745103,0.414701015,0.277406642,0.235612711,-0.195243788,0.174461805,0.11115349,0.155710838,0.13802361,0.003223672,-0.019714361,0.095505963,0.01330796,0.000421696,0.081842669,-0.348960922,1.724583227,-1.415728979,-1.049237533,-0.001080178,0.314506942,-0.000518185,0.12219917,0.313916599,-0.005723531,0.122035847
1704456554.7832,0.067350623,0.002118113,-0.017313895,0.090131907,0.012922271,0,0.288254619,1.980041623,-3.418491602,-0.500960231,0.099342272,0.449017495,0.277249896,0.235422289,-0.195009807,0.174437512,0.110930424,0.155412077,0.138036482,0.003185164,-0.019582755,0.095488788,0.013141962,0.000443631,0.081840272,-0.348960922,1.724581097,-1.41572525,-1.049222619,-0.001068993,0.314506942,-0.000518185,0.12219917,0.313921184,-0.005723338,0.122036292
1704456554.79456,0.067381228,0.002120947,-0.017394433,0.090163335,0.013046182,0,0.282217205,1.899074078,-3.360848665,-0.512204468,0.110694699,0.443115234,0.277339789,0.235584776,-0.195126498,0.174359613,0.111078551,0.155665976,0.137999713,0.003218136,-0.019651104,0.09550623,0.013263141,0.000424638,0.081840272,-0.348957193,1.724583227,-1.415728979,-1.049240728,-0.00107645,0.314506942,-0.000518185,0.12219917,0.313916202,-0.005724251,0.122037001
1704456554.80577,0.06727501,0.002157229,-0.017624175,0.089982489,0.01331275,0,0.310969204,1.979840875,-3.395420313,-0.512172163,0.109944217,0.426006526,0.277266466,0.235476302,-0.195197793,0.17427451,0.111292686,0.155304652,0.137956484,0.003258176,-0.019877925,0.095346158,0.013529456,0.000452364,0.081850126,-0.348958791,1.724590684,-1.41572525,-1.049255642,-0.001072721,0.314506942,-0.000518185,0.12219917,0.313909208,-0.005720566,0.122034764
1704456554.8171,0.067362658,0.002146339,-0.017573748,0.090109961,0.013257708,0,0.310809404,2.071715593,-3.395303488,-0.52943635,0.120986551,0.420096248,0.277373882,0.235705272,-0.195326861,0.17443122,0.111066601,0.155675447,0.138000396,0.003307448,-0.019809361,0.095441791,0.013469509,0.000396857,0.081837875,-0.348960389,1.724585358,-1.415728979,-1.049248185,-0.001061536,0.314506942,-0.000518185,0.12219917,0.31391304,-0.005725111,0.122035515
1704456554.82796,0.06726535,0.00214168,-0.017517962,0.089984273,0.013191834,0,0.287794709,1.945103168,-3.406812906,-0.477782339,0.080566406,0.443152606,0.277275961,0.235495599,-0.195154169,0.17427187,0.11112373,0.155370782,0.137964823,0.003250991,-0.019770929,0.095342863,0.01340801,0.000440653,0.081845066,-0.348958259,1.724588021,-1.415721522,-1.049240728,-0.001061536,0.314506942,-0.000518185,0.12219917,0.313914046,-0.005721186,0.12203549
1704456554.83961,0.067324159,0.002127313,-0.01741454,0.090080734,0.013063135,0,0.28251043,1.986220241,-3.372358322,-0.501851857,0.127126426,0.402873129,0.27725872,0.235447978,-0.195067353,0.174276459,0.111049937,0.155589529,0.137940378,0.003215919,-0.019675044,0.095421265,0.013280841,0.000421696,0.081847462,-0.348958259,1.724581097,-1.415728979,-1.049237533,-0.001068993,0.314506942,-0.000518185,0.12219917,0.313917764,-0.005721933,0.122037141
1704456554.85063,0.067441641,0.002144474,-0.017559618,0.090221686,0.013230666,0,0.299301982,1.927873373,-3.452850819,-0.494941384,0.086512759,0.362594485,0.27733915,0.235762808,-0.195408667,0.174452575,0.111326942,0.155739779,0.138040482,0.003244135,-0.019818462,0.095547334,0.013447533,0.00039687,0.081835478,-0.348956128,1.724595478,-1.415732707,-1.049244989,-0.001061536,0.314506942,-0.000518185,0.12219917,0.313910607,-0.005726996,0.122034734
1704456554.86223,0.06719545,0.002141022,-0.017485167,0.089892904,0.013147018,0,0.293548316,2.025964022,-3.349339485,-0.494941384,0.115238644,0.460379452,0.277172168,0.235390149,-0.195090579,0.174167672,0.111105258,0.155194881,0.137897502,0.003206343,-0.019753255,0.095259328,0.013366812,0.000458172,0.081852522,-0.348958259,1.724590684,-1.41572525,-1.049237533,-0.001068993,0.314506942,-0.000518185,0.12219917,0.313914012,-0.005719786,0.122034994
1704456554.87406,0.067327319,0.00215759,-0.017611735,0.090054867,0.013283172,0,0.287794709,1.870300293,-3.406885624,-0.512301445,0.109944217,0.443115234,0.27727477,0.235612855,-0.195245387,0.174354259,0.111152572,0.155628986,0.138001629,0.003284284,-0.019860542,0.095396717,0.013497957,0.000413082,0.081842669,-0.348960922,1.724590684,-1.41572525,-1.049240728,-0.001047155,0.314506942,-0.000518185,0.12219917,0.3139128,-0.005722909,0.122034151
1704456554.8857,0.067470911,0.002135765,-0.017519941,0.090267495,0.013193375,0,0.253796577,1.985386372,-3.355020285,-0.517926872,0.1156689,0.443115234,0.277476983,0.235812338,-0.195387691,0.174419838,0.111257469,0.155655636,0.138064498,0.003251322,-0.019765511,0.09561729,0.013408513,0.000437765,0.081835478,-0.348956128,1.724585358,-1.415740164,-1.049248185,-0.001072721,0.314506942,-0.000518185,0.12219917,0.313913868,-0.005728402,0.122037055
1704456554.8971,0.067341763,0.002158792,-0.01765382,0.090069629,0.013348886,0,0.299301982,2.014365673,-3.424077034,-0.489457756,0.092255555,0.356840491,0.277259922,0.235630541,-0.195307014,0.174383513,0.111223636,0.155577346,0.138022854,0.003288443,-0.019899596,0.095421374,0.013563334,0.000428996,0.081840272,-0.348957193,1.724592814,-1.415721522,-1.049251914,-0.001068993,0.314506942,-0.000518185,0.12219917,0.313909392,-0.005722845,0.122034745
1704456554.90803,0.067380437,0.002134002,-0.017454255,0.090151647,0.013098445,0,0.27071771,1.985461354,-3.384278297,-0.489187032,0.104222842,0.397244036,0.277392462,0.235590952,-0.195191801,0.174422836,0.111135186,0.155186529,0.13804758,0.00321638,-0.019710417,0.095527595,0.013316437,0.000477318,0.081845066,-0.348958791,1.724585358,-1.415736435,-1.049233272,-0.001080178,0.314506942,-0.000518185,0.12219917,0.313917384,-0.00572454,0.122036206
1704456554.91927,0.067343928,0.002151479,-0.01755923,0.090086247,0.013214627,0,0.271023363,1.916338086,-3.372456312,-0.489457756,0.097999744,0.397077292,0.277313437,0.235526757,-0.195202619,0.174391357,0.111230709,0.15556805,0.137997556,0.003241467,-0.019819557,0.095434618,0.013432319,0.000430483,0.081842669,-0.348959324,1.724590684,-1.41572525,-1.049240728,-0.001072721,0.314506942,-0.000518185,0.12219917,0.313912993,-0.005722893,0.12203465
1704456554.93072,0.06735537,0.00214498,-0.017550017,0.090103326,0.013222987,0,0.259027362,2.065960884,-3.332175016,-0.51843816,0.116382487,0.402996421,0.277367896,0.235680866,-0.19529186,0.174403758,0.111119162,0.155642477,0.137966513,0.003285811,-0.019795008,0.095423622,0.013436519,0.000382155,0.081840272,-0.348958259,1.724590684,-1.415728979,-1.049240728,-0.001061536,0.314506942,-0.000518185,0.12219917,0.313913217,-0.005724496,0.122035053
1704456554.94392,0.067298632,0.002147207,-0.017540457,0.090027182,0.013205055,0,0.287737161,2.026070118,-3.349502802,-0.512301445,0.097999744,0.391703188,0.27726811,0.235495693,-0.195202934,0.174319923,0.111196516,0.155384605,0.137988416,0.003229664,-0.019803518,0.095383636,0.013423458,0.000440702,0.081840272,-0.348958259,1.724590684,-1.41572525,-1.049244989,-0.001065264,0.314506942,-0.000518185,0.12219917,0.313911996,-0.005723641,0.122034968
1704456554.95778,0.067336971,0.002143363,-0.017546089,0.090078536,0.013225018,0,0.276467353,2.009798288,-3.3781569,-0.494941384,0.097999744,0.437511921,0.277297725,0.235585264,-0.195182769,0.174319574,0.111137117,0.155602955,0.137943707,0.00326917,-0.019795067,0.095405318,0.013439711,0.000395386,0.081845066,-0.348958791,1.724585358,-1.415728979,-1.049244989,-0.001057808,0.314506942,-0.000518185,0.12219917,0.313914108,-0.005722834,0.122036025
1704456554.96885,0.067363938,0.002147389,-0.01758142,0.090111367,0.013266783,0,0.264968276,2.014686346,-3.355020285,-0.483706594,0.1156689,0.402873129,0.277396877,0.235688689,-0.195336726,0.174458801,0.111220443,0.155490616,0.138027581,0.003273446,-0.019824628,0.095471803,0.013481285,0.000446523,0.081842669,-0.348958791,1.724590684,-1.415732707,-1.049251914,-0.00107645,0.314506942,-0.000518185,0.12219917,0.313910356,-0.005724623,0.122034916
1704456554.98022,0.067367588,0.002138228,-0.017467538,0.090131848,0.01310649,0,0.27071771,1.916338086,-3.418395042,-0.489998758,0.120849609,0.385567784,0.277297441,0.235576962,-0.195193504,0.174224714,0.111134785,0.155629033,0.137918699,0.00323603,-0.019725155,0.095452226,0.013323302,0.000393928,0.081850126,-0.348959324,1.724590684,-1.415740164,-1.049230076,-0.001054079,0.314506942,-0.000518185,0.12219917,0.313916252,-0.005723981,0.122034967
1704456554.99151,0.067269039,0.002141786,-0.01752676,0.08998844,0.01320612,0,0.281982422,2.003650904,-3.464360237,-0.517958879,0.122076541,0.368348539,0.277188669,0.235502491,-0.195170969,0.174234714,0.111188006,0.155540529,0.137874971,0.003253615,-0.019784506,0.095304256,0.013422169,0.000377867,0.081845066,-0.348957193,1.724588021,-1.415721522,-1.049244989,-0.001050351,0.314506942,-0.000518185,0.12219917,0.313913063,-0.005721181,0.122035808
1704456555.00361,0.067316615,0.002140918,-0.01747163,0.090061544,0.013108701,0,0.282041132,2.089003563,-3.395474195,-0.500794947,0.105014205,0.454661161,0.277292846,0.235410038,-0.195140437,0.174346642,0.111103615,0.155530929,0.137963604,0.003225249,-0.019734406,0.095407378,0.01332687,0.000427525,0.081835478,-0.348958791,1.724598141,-1.41572525,-1.049244989,-0.001065264,0.314506942,-0.000518185,0.12219917,0.313909047,-0.005725385,0.122033186
1704456555.01436,0.067351147,0.002133161,-0.017439826,0.090113623,0.013080248,0,0.276287615,2.031456947,-3.366603374,-0.483535409,0.104222842,0.414501339,0.277324221,0.235493286,-0.195144575,0.174357989,0.111095702,0.155611336,0.13796401,0.003232447,-0.019699555,0.095440159,0.013297223,0.00039687,0.081833081,-0.348959324,1.724588021,-1.415728979,-1.049244989,-0.001065264,0.314506942,-0.000518185,0.12219917,0.313912955,-0.005726685,0.122035282
1704456555.02545,0.067446177,0.002144712,-0.017560756,0.090227927,0.013231268,0,0.282041132,2.094758034,-3.372323751,-0.489288568,0.109340124,0.420253873,0.277325939,0.235726217,-0.195383298,0.17441567,0.111222144,0.155728916,0.13803468,0.003285912,-0.019802684,0.095553794,0.013444559,0.000394492,0.081837875,-0.348958791,1.724588021,-1.415721522,-1.049233272,-0.001072721,0.314506942,-0.000518185,0.12219917,0.313915887,-0.005723439,0.12203535
1704456555.03725,0.067357949,0.002133864,-0.017466069,0.090119771,0.013122318,0,0.270534128,1.904898167,-3.383793831,-0.518054724,0.109944217,0.391364872,0.27729261,0.235515802,-0.195151191,0.174341956,0.111129582,0.155483494,0.137987895,0.003232902,-0.019720454,0.095469485,0.013339065,0.000434824,0.081850126,-0.348960389,1.724581097,-1.415736435,-1.049244989,-0.001065264,0.314506942,-0.000518185,0.12219917,0.313915794,-0.005722848,0.122036589
1704456555.04804,0.067327727,0.002125299,-0.017400191,0.090088453,0.01304618,0,0.265280545,2.048696756,-3.412640333,-0.512463033,0.099342272,0.402873129,0.277253694,0.235525241,-0.195105872,0.174276057,0.11105928,0.155586397,0.137898812,0.003207707,-0.019667561,0.095400137,0.013264541,0.000377867,0.081850126,-0.348957193,1.724588021,-1.415736435,-1.049237533,-0.001050351,0.314506942,-0.000518185,0.12219917,0.313915474,-0.005723025,0.122036113
1704456555.05875,0.067374649,0.002140365,-0.017518361,0.090134557,0.013184207,0,0.276287615,2.008933067,-3.355035067,-0.506548226,0.088030644,0.425889909,0.277245018,0.235420089,-0.195060506,0.174290439,0.111064914,0.155217633,0.138043847,0.003275186,-0.019761695,0.095483146,0.013398172,0.000424595,0.081840272,-0.348960922,1.724585358,-1.415728979,-1.049240728,-0.001057808,0.314506942,-0.000518185,0.12219917,0.313914935,-0.005724355,0.122035375
1704456555.06981,0.067254179,0.002117451,-0.017363756,0.089992889,0.013023194,0,0.276467353,1.975084543,-3.447326422,-0.541068256,0.10949146,0.362548828,0.277215453,0.235383859,-0.194868735,0.17422275,0.111183781,0.155414007,0.137932722,0.003186608,-0.019867925,0.095309838,0.013439676,0.000439269,0.081852522,-0.348958791,1.72457577,-1.41572525,-1.049244989,-0.001083374,0.314506942,-0.000518185,0.12219917,0.313917714,-0.005719332,0.122038032
1704456555.08196,0.067275474,0.002131545,-0.01745333,0.090007526,0.013119671,0,0.276227683,1.939357042,-3.429831982,-0.512172163,0.092792444,0.414341509,0.277235143,0.235536249,-0.195144881,0.174275404,0.111126698,0.155583066,0.137887159,0.003230215,-0.019715255,0.095325522,0.0133368,0.000382217,0.081840272,-0.348958791,1.724585358,-1.415721522,-1.049237533,-0.001042894,0.314506942,-0.000518185,0.12219917,0.313915808,-0.005722609,0.122035912
1704456555.09392,0.109885354,0.002524691,-0.021598381,0.148136862,0.013285645,0,0.270534128,1.899623275,-3.355193138,-0.512204468,0.115238644,0.443152606,0.407038941,0.381134084,-0.30904855,0.281747821,0.17217402,0.251935056,0.180554577,0.003669967,-0.023829579,0.153515591,0.013498296,0.000475703,0.081845066,-0.348958259,1.724592814,-1.415721522,-1.049251914,-0.001057808,0.314495124,0.002775292,0.12219917,0.313909291,-0.005721351,0.122034412
1704456555.10486,0.109431307,0.002489861,-0.021334527,0.147549689,0.013019105,0,0.404309124,2.147629738,-3.510397911,-0.379987389,0.178767934,0.385610729,0.406228499,0.380295783,-0.308164291,0.280909932,0.17184668,0.252075314,0.180222592,0.003522942,-0.023638238,0.152862584,0.013243061,0.000357941,0.081857316,-0.348949204,1.724583227,-1.4156624,-1.04921889,-0.001054079,0.314495124,0.002775292,0.12219917,0.313921016,-0.00570343,0.122038328
1704456555.11726,0.10945321,0.002498968,-0.021426455,0.147567392,0.013139613,0,0.403489143,2.153573751,-3.481619596,-0.397118986,0.178489834,0.420135677,0.406379655,0.380493275,-0.308353094,0.281026532,0.17203052,0.252127552,0.180279138,0.00356271,-0.023707934,0.152925581,0.013360507,0.000428991,0.08186211,-0.348949204,1.724581097,-1.415681042,-1.049215162,-0.001080178,0.314495124,0.002775292,0.12219917,0.313923377,-0.005706155,0.122039152
1704456555.12863,0.15196328,0.002833052,-0.024967609,0.205654114,0.012509676,0,0.414980412,2.192625046,-3.510511398,-0.379987389,0.172642291,0.431644112,0.536079712,0.526420281,-0.421809195,0.388547611,0.232673547,0.349451705,0.222663056,0.003925603,-0.02723896,0.210976271,0.012727898,0.000379338,0.081854919,-0.348950802,1.724585358,-1.415676781,-1.049230076,-0.001072721,0.314448818,0.006068465,0.12219917,0.313917494,-0.005707597,0.122037597
1704456555.13973,0.150920926,0.00277117,-0.024473191,0.20428768,0.012021682,0,0.558210075,2.273589611,-3.596880198,-0.305001378,0.230836228,0.402832031,0.534368311,0.524671534,-0.420235173,0.386674337,0.231555165,0.348436856,0.221870714,0.003709012,-0.02682197,0.209623705,0.012254482,0.000388104,0.081903655,-0.348941214,1.72457577,-1.415588364,-1.049192791,-0.001057808,0.314448818,0.006068465,0.12219917,0.313929746,-0.005671451,0.122041148
1704456555.15128,0.150801642,0.002755529,-0.024406264,0.204133876,0.011982721,0,0.546821713,2.296495914,-3.619738102,-0.305001378,0.248055458,0.443264693,0.534118464,0.52450806,-0.420012725,0.386477891,0.231436881,0.348348115,0.221729385,0.003726446,-0.026736139,0.209488741,0.012212352,0.000420226,0.081913242,-0.348940149,1.724570977,-1.415584635,-1.04919652,-0.001065264,0.314448818,0.006068465,0.12219917,0.313930683,-0.005667425,0.122042437
1704456555.16257,0.194059576,0.003069437,-0.027628691,0.263307012,0.01078405,0,0.546700597,2.302479744,-3.614019871,-0.299301982,0.224729896,0.448869973,0.661664906,0.670723925,-0.533395747,0.495250134,0.291644692,0.445811437,0.265243595,0.004064934,-0.02995752,0.268684133,0.011012659,0.000424638,0.081908449,-0.34894228,1.724578433,-1.415592092,-1.049203977,-0.00107645,0.314368028,0.009360972,0.12219917,0.313925814,-0.005670915,0.122040268
1704456555.17356,0.189985998,0.002888844,-0.026384907,0.257869412,0.009855183,0,0.638880134,2.342208862,-3.683323383,-0.178397045,0.293999225,0.420253873,0.659130239,0.668340769,-0.530615102,0.489054189,0.289850528,0.444212108,0.260481716,0.00375665,-0.028743748,0.263193339,0.010091918,0.000430462,0.081986479,-0.348916713,1.724551269,-1.415495686,-1.049159768,-0.001057808,0.314368028,0.009360972,0.12219917,0.313948465,-0.005623008,0.122052498
1704456555.18456,0.192041784,0.002883337,-0.026596561,0.260668016,0.009982493,0,0.673698366,2.503736496,-3.717568636,-0.17273818,0.305055678,0.402832031,0.661201394,0.667411653,-0.530139749,0.491549788,0.289584204,0.443758527,0.263116039,0.003766388,-0.028977386,0.266008011,0.010220807,0.000385162,0.082064244,-0.348897539,1.724556595,-1.415518056,-1.049162964,-0.001050351,0.314368028,0.009360972,0.12219917,0.313948998,-0.005603737,0.122057741
1704456555.19562,0.234375757,0.003060615,-0.028748332,0.318722424,0.007589449,0,0.679449737,2.39574337,-3.757851839,-0.184241682,0.276287615,0.431605756,0.790818531,0.812897995,-0.642066967,0.599040066,0.348380148,0.540122153,0.305545475,0.003902733,-0.031141223,0.324100668,0.00783125,0.000443631,0.082086082,-0.348888484,1.724549139,-1.415510599,-1.049152311,-0.001068993,0.314252765,0.012652453,0.12219917,0.313955632,-0.005594822,0.122062085
1704456555.20671,0.232358598,0.002838859,-0.027528637,0.316115013,0.006595125,0,0.788735807,2.567395926,-3.838452816,-0.081384361,0.356794089,0.408627301,0.78716955,0.81016635,-0.638958199,0.595570365,0.346330815,0.538449031,0.303400028,0.003677618,-0.029925302,0.321482819,0.006837047,0.000442148,0.082271171,-0.348811785,1.724517181,-1.415369985,-1.049111831,-0.001065264,0.314252765,0.012652453,0.12219917,0.313984605,-0.005502438,0.122090498
1704456555.22099,0.191929767,-0.000125878,-0.014355894,0.262435374,0.000700522,0,0.771157086,2.63673377,-3.838418007,-0.126735061,0.32272771,0.425850987,0.723231276,-0.56163653,-0.613540115,0.53541438,0.333744604,0.528563513,0.249000609,-0.000038317,-0.016515986,0.266731228,0.000944895,0.000382197,0.083427516,-0.348547067,1.724527301,-1.415407269,-1.049129941,-0.001054079,0.314252765,0.012652453,0.12219917,0.314015211,-0.005145644,0.122171653
1704456555.2319,0.236406354,0.003113164,-0.027044948,0.321742392,0.004203138,0,0.842161059,2.522705078,-3.8671875,-0.065614171,-0.241699219,0.408627301,0.828997647,0.718778554,-0.698416614,0.625453533,0.377575414,0.591868302,0.297197647,0.004227065,-0.028916614,0.326397342,0.004375414,0.000445065,0.084610492,-0.348730292,1.724485755,-1.415551079,-1.049222619,-0.00107645,0.314103041,0.015942546,0.12219917,0.313994984,-0.004808049,0.122125754
1704456555.24311,0.263263752,-0.000648125,-0.012872536,0.360923897,-0.008894275,0,0.834517121,2.545704842,-3.849927425,-0.035004739,0.385567784,0.374058306,0.86459822,0.887350474,-0.684464565,0.667503502,-0.373135219,0.592715868,0.33279822,0.000790474,-0.014964565,0.366203502,-0.008710171,0.000415868,0.084766287,-0.348515109,1.724330227,-1.415470119,-1.049019153,-0.001072721,0.314103041,0.015942546,0.12219917,0.31413191,-0.004732786,0.122225978
1704456555.25455,0.248754394,-0.002803556,0.017498762,0.346038646,-0.050886325,0,0.840212166,2.618717909,-3.873151541,-0.030990241,0.253470123,0.356840491,0.845135141,-0.850389791,0.592337165,0.650753908,0.158877844,0.592151792,0.313335141,-0.028531429,0.004538299,0.349453908,-0.048401509,0.000436295,0.085002243,-0.348364906,1.724283888,-1.415314591,-1.04951823,-0.001068993,0.314103041,0.015942546,0.12219917,0.314033967,-0.004620748,0.122278211
1704456555.26615,0.267546758,0.008985125,-0.072999629,0.357151039,0.056300311,0,0.812723756,0.949689567,-2.606904984,-0.025735995,0.155378073,0.443264693,0.850046204,0.835368767,-0.420271511,0.663289977,-0.006417179,0.592699799,0.318246204,0.026650798,-0.06774685,0.361989977,0.05501283,0.000399799,0.086302132,-0.348430953,1.724313183,-1.415355071,-1.049082004,-0.001068993,0.313849831,0.020326556,0.12219917,0.314135598,-0.004222497,0.122253599
1704456555.27751,0.240751909,0.000230688,-0.013180054,0.329935617,-0.008948084,0,0.881997705,2.418334723,-3.414314032,-0.018198097,0.10949146,0.385567784,0.816622357,-0.680488978,-0.662385177,0.634439512,-0.321757104,0.592702686,0.284822357,-0.002813003,-0.016101145,0.333139512,-0.008494054,0.000402686,0.088490451,-0.348799534,1.724206123,-1.415355071,-1.049248185,-0.001057808,0.313849831,0.020326556,0.12219917,0.314097251,-0.003535854,0.122160993
1704456555.28998,0.331568539,0.003269863,-0.042898025,0.450785331,0.018721524,0,0.863518357,1.196986556,-3.746408463,-0.047454827,-0.299246639,0.391364872,0.928143231,0.881707095,-0.706143366,0.758188725,0.012484146,0.590753038,0.396343231,0.024764981,-0.036643366,0.456888725,0.01717006,0.000477942,0.089697929,-0.348579025,1.724490549,-1.415388627,-1.049681215,-0.001083374,0.313619767,0.023612009,0.12219917,0.313907078,-0.003173136,0.122167295
1704456555.30199,0.282182717,0.002595942,-0.034507978,0.383553663,0.013180066,0,0.915004194,0.932428241,-3.850030661,0.09646707,-0.123022355,0.385567784,0.862223226,0.902537235,-0.700398374,0.689316864,0.117880702,0.591037993,0.330423226,0.015977235,-0.030898374,0.388016864,0.01224772,0.000470643,0.091516335,-0.348508717,1.724259387,-1.415081298,-1.049496392,-0.001068993,0.313619767,0.023612009,0.12219917,0.31404782,-0.002521886,0.122234321
1704456555.3135,0.254566778,0.001235198,-0.013544321,0.349008459,-0.014091366,0,0.900851667,2.619173288,-3.936395645,-0.012867997,-0.161235541,0.402996421,0.821843874,-0.888747785,-0.685787234,0.59647246,-0.294326019,0.592438215,0.290043874,-0.002187785,-0.016287234,0.351594447,-0.013642978,0.000430466,0.093702258,-0.348726031,1.724223168,-1.414992881,-1.049352049,-0.001072721,0.313619767,0.023612009,0.12219917,0.314075091,-0.001815564,0.122173147
1704456555.32508,0.270209435,0.00273435,-0.022206327,0.369287855,-0.007008075,0,0.846905768,2.486715078,-3.953546286,-0.087085068,0.023018973,0.40858677,0.830395799,0.77729899,-0.692760614,0.621083342,-0.366307366,0.592673489,0.298595799,0.002775757,-0.023260614,0.371530248,-0.006887493,0.000373489,0.095992843,-0.348729227,1.724215711,-1.415177704,-1.049562438,-0.001057808,0.313355311,0.026894873,0.12219917,0.314031991,-0.001139511,0.122176438
1704456555.33652,0.262097163,0.002376723,-0.033077876,0.356242258,0.014145342,0,0.788735807,2.641433477,-3.913293123,-0.057547431,-0.368483365,0.443451405,0.831042613,0.899229626,-0.644106323,0.660995969,0.154998618,0.59269242,0.299242613,0.012669626,-0.030306519,0.359695969,0.013428727,0.00039242,0.098874915,-0.34843841,1.724123033,-1.415129767,-1.049784546,-0.001061536,0.313355311,0.026894873,0.12219917,0.314044886,-0.000217668,0.122285713
1704456555.34785,0.236687945,-0.001611298,0.015283143,0.328965849,-0.050197549,0,0.896928072,2.69410491,-3.838452816,0.020749021,-0.161235541,0.397118986,0.793784316,-0.908002952,0.568637347,0.613180188,0.028765677,0.592632018,0.261984316,-0.021442952,0.006260727,0.329848577,-0.048391508,0.000332018,0.102009989,-0.348526827,1.724054856,-1.415266654,-1.049300383,-0.001061536,0.313355311,0.026894873,0.12219917,0.314190384,0.00074008,0.122277212
1704456555.35928,0.29772681,0.001621912,-0.013885465,0.408512048,-0.020442559,0,0.826061249,2.479412794,-3.79244566,-0.012867997,-0.305055678,0.426006526,0.864736136,-0.887935648,-0.685942008,0.679739461,-0.293161884,0.592673414,0.332936136,-0.001375648,-0.016442008,0.411070401,-0.020031862,0.000373414,0.10429578,-0.348743075,1.724111315,-1.415347614,-1.049514501,-0.001057808,0.313056492,0.030174787,0.12219917,0.314087197,0.001433129,0.122198085
1704456555.3714,0.273993178,0.003885702,-0.040532364,0.371201452,0.019521463,0,0.902614594,0.959714532,-2.981156826,0.075032666,-0.322471082,0.443152606,0.849145999,0.901098599,-0.566466382,0.676442204,0.133087464,0.592150823,0.317345999,0.014538599,-0.037862003,0.375142204,0.018801827,0.000436319,0.106907808,-0.348544936,1.723648458,-1.414937487,-1.049581613,-0.001072721,0.313056492,0.030174787,0.12219917,0.314251157,0.002368877,0.12235257
1704456555.38335,0.271031091,-0.011888536,0.071421788,0.385074668,-0.111016338,0,0.823712587,0.990234017,-3.919930696,-0.03452846,-0.069296286,0.431644112,0.838103821,-0.838857754,-0.00582134,0.661562388,0.07520632,0.592675481,0.306303821,-0.029398408,0.062946446,0.386823473,-0.109363642,0.000375481,0.110576046,-0.348586481,1.723100912,-1.41494814,-1.049344592,-0.001087635,0.313056492,0.030174787,0.12219917,0.314506542,0.003543859,0.122459624
1704456555.39442,0.220289114,0.004121589,-0.024012145,0.299849375,-0.002907589,0,0.859019518,0.976900518,-3.119155884,-0.012867997,0.046396222,0.420253873,0.750767725,0.68898275,-0.493150345,0.533751677,-0.340219584,0.592693021,0.218967725,0.000310323,-0.025451415,0.299768192,-0.002590785,0.000393021,0.113803798,-0.348817644,1.723456177,-1.415259197,-1.049581613,-0.001068993,0.312723343,0.033451393,0.12219917,0.314279709,0.004466595,0.122315008
1704456555.40628,0.252125028,-0.001976013,0.002096233,0.347738474,-0.028011131,0,0.807347655,1.98808682,-3.861861467,-0.212925494,-0.27071771,0.420135677,0.808315286,-0.672058363,-0.670474141,0.650715537,-0.295090711,0.59271146,0.276515286,-0.007300245,-0.000974141,0.349415537,-0.027449891,0.00041146,0.117761788,-0.348877299,1.723217558,-1.415369985,-1.049378147,-0.001061536,0.312723343,0.033451393,0.12219917,0.314400617,0.005697107,0.122350998
1704456555.41792,0.230703699,-0.008088414,0.047193468,0.325709469,-0.078974868,0,0.725668311,1.077382565,-3.667234659,-0.086512759,-0.299246639,0.362731457,0.784750447,-0.894688074,-0.068839701,0.628835906,-0.251279146,0.592720226,0.252950447,-0.008128074,0.04636002,0.327535906,-0.078875297,0.000420226,0.121279291,-0.348886353,1.723443927,-1.415347614,-1.049651388,-0.001065264,0.312723343,0.033451393,0.12219917,0.314219151,0.006794314,0.122297564
1704456555.4302,0.315359434,0.003781181,-0.035725384,0.429101448,0.006436634,0,0.857456744,0.794237971,-3.355193138,0.046037946,-0.173503369,0.397118986,0.884954539,0.79825453,-0.701776797,0.734008889,0.145184768,0.592714397,0.353154539,0.015800105,-0.032276797,0.432708889,0.005575204,0.000414397,0.124823426,-0.349052002,1.723358706,-1.415126039,-1.049673758,-0.001054079,0.312225806,0.037814432,0.12219917,0.314191204,0.00796003,0.122260042
1704456555.44146,0.19811134,0.000002132,-0.00624207,0.271899676,-0.014574288,0,0.829182386,2.526391268,-3.872959375,0.058687095,-0.149733961,0.368303567,0.72720871,0.888551502,-0.656189339,0.573356517,-0.38795993,0.592711451,0.19540871,0.001991502,-0.005262114,0.272056517,-0.01475993,0.000411451,0.128657312,-0.348958791,1.723210101,-1.415055732,-1.049137398,-0.001061536,0.312225806,0.037814432,0.12219917,0.314363146,0.009196607,0.1223222
1704456555.4531,0.199705954,-0.011420834,0.064309052,0.285699191,-0.091440113,0,0.811745286,2.589692116,-3.337994099,-0.099342272,0.241973102,0.454661161,0.710126538,-0.890740932,-0.206374375,0.464230304,-0.398549523,0.591867826,0.178326538,-0.004180932,0.068168088,0.284838633,-0.092158386,0.000445077,0.134725857,-0.349046676,1.723332074,-1.415495686,-1.049470293,-0.001065264,0.311812702,0.04108192,0.12219917,0.314176049,0.010990725,0.122275141
1704456555.46624,0.280952245,-0.000243085,-0.017222892,0.384747872,-0.005174553,0,0.7020787,0.874739945,-3.763883829,-0.061980482,-0.2934919,0.40858677,0.821865217,0.879826554,-0.678181644,0.512908211,-0.3801951,0.592718755,0.290065217,0.021495336,-0.008681644,0.386858328,-0.0069951,0.000418755,0.139270542,-0.34908396,1.723388,-1.415485033,-1.04995126,-0.001061536,0.311812702,0.04108192,0.12219917,0.313971385,0.012409467,0.122249365
1704456555.47735,0.248496446,0.002592782,-0.027617435,0.337862163,0.005695611,0,0.863211513,2.648082495,-3.084590912,-0.036396194,-0.420450836,0.379856646,0.811570771,0.865584342,-0.670866252,0.642240276,0.150424242,0.591009559,0.279770771,0.012926338,-0.02458222,0.340940276,0.004948212,0.000467062,0.143518017,-0.348919909,1.722988526,-1.415111125,-1.049655116,-0.00107645,0.311812702,0.04108192,0.12219917,0.314148225,0.013858323,0.122381512
1704456555.48925,0.201998378,-0.001828634,0.008403333,0.279624143,-0.033096017,0,0.782645106,2.717116594,-3.344218731,-0.093680426,0.020749021,0.454770386,0.719056246,-0.719216408,0.673256163,0.528881303,-0.189343928,0.592723167,0.187256246,-0.014837794,0.003756163,0.278087432,-0.032052762,0.000423167,0.14884647,-0.348641875,1.723164295,-1.415151605,-1.049318493,-0.001068993,0.311365404,0.044344902,0.12219917,0.314125831,0.015524052,0.122432402
1704456555.50075,0.173844727,-0.007416941,0.035933411,0.245382335,-0.054973004,0,0.720263064,2.584289789,-3.546434879,-0.166986749,0.036848336,0.425850987,0.692096475,0.849938364,0.051879632,0.517165016,-0.42918898,0.590751362,0.160296475,0.003710169,0.041069839,0.245317782,-0.05598898,0.000479709,0.153831908,-0.348651995,1.72324419,-1.415344418,-1.049584809,-0.001087635,0.311365404,0.044344902,0.12219917,0.313952524,0.017035718,0.122414428
1704456555.5117,0.190257777,0.00896795,-0.067400777,0.25136167,0.056640969,0,0.812295854,2.520741701,-3.188460112,-0.10949146,-0.420450836,0.443152606,0.720351311,0.901973096,-0.080204038,0.553130913,0.11970207,0.592696807,0.188551311,0.015413096,-0.06465009,0.251830913,0.056078986,0.000396807,0.158062339,-0.348484216,1.723451384,-1.415295949,-1.049466564,-0.001061536,0.311365404,0.044344902,0.12219917,0.313847593,0.018367924,0.122421468
1704456555.52289,0.185917013,-0.003241025,0.02382027,0.259761666,-0.052028127,0,0.791502059,2.647688627,-3.28628087,-0.092255555,0.185584888,0.431759179,0.706873167,-0.902350915,0.575602983,0.559813856,-0.155026615,0.592698291,0.175073167,-0.015790915,0.019191399,0.258513856,-0.051005622,0.000398291,0.163023276,-0.348752663,1.723107836,-1.415355071,-1.048770947,-0.001065264,0.310883961,0.047603022,0.12219917,0.314034465,0.019942908,0.122415994
1704456555.53384,0.162830084,-0.003976028,0.024832782,0.228420841,-0.047946034,0,0.687228143,2.545262337,-3.833389282,-0.109944217,-0.264718175,0.437360495,0.680740759,-0.892296373,0.310713636,0.520247249,-0.30524852,0.592462618,0.148940759,-0.005736373,0.024730879,0.227582669,-0.047861111,0.000434151,0.16858076,-0.348777164,1.723516897,-1.415336961,-1.049296122,-0.001083374,0.310883961,0.047603022,0.12219917,0.313623628,0.021652597,0.122317025
1704456555.54495,0.152545566,0.008742324,-0.05248749,0.201736691,0.036651819,0,0.770899355,0.834437788,-2.946630955,-0.120849609,-0.247520864,0.408627301,0.671920201,-0.888179797,0.016799421,0.501811113,0.41067912,0.592718755,0.140120201,-0.001619797,-0.056150656,0.200511113,0.03747912,0.000418755,0.173127841,-0.34870153,1.723319823,-1.415162791,-1.049255642,-0.001061536,0.310883961,0.047603022,0.12219917,0.313607282,0.02313363,0.122380399
1704456555.55721,0.151805129,-0.003322237,0.039031222,0.215384741,-0.073554911,0,0.685998201,2.520899534,-3.424077034,-0.138113841,0.351793259,0.368483365,0.663571958,-0.929691128,0.693161427,0.513247621,0.302958685,0.592692445,0.131771958,-0.043131128,0.023661427,0.211947621,-0.070241315,0.000392445,0.179568697,-0.348858656,1.723322487,-1.415244283,-1.048830602,-0.001065264,0.310368427,0.050855922,0.12219917,0.313546626,0.025142298,0.122333849
1704456555.56858,0.208680069,0.004263808,-0.032845995,0.28239465,0.013227356,0,0.755275786,0.903787911,-2.664446115,-0.058687095,0.088030644,0.425889909,0.747377706,0.770640711,-0.61157102,0.579120346,0.233819132,0.591014924,0.215577706,0.010338328,-0.030574998,0.283497843,0.012734933,0.000468433,0.184570912,-0.34897477,1.723643664,-1.415369985,-1.049352049,-0.00107645,0.310368427,0.050855922,0.12219917,0.313153185,0.026642134,0.122228109
1704456555.57963,0.169510827,-0.000800595,-0.002837586,0.233115305,-0.013604978,0,0.741134107,2.54412365,-3.901715994,-0.133480266,-0.138113841,0.368348539,0.701729042,-0.76981304,-0.643765241,0.534482331,-0.33631208,0.592707106,0.169929042,-0.004325086,-0.004228085,0.233182331,-0.013304901,0.000407106,0.190627207,-0.348655724,1.723380544,-1.415295949,-1.049270556,-0.001083374,0.310368427,0.050855922,0.12219917,0.313140335,0.028583799,0.122383964
1704456555.59129,0.198094192,0.004281425,-0.030385689,0.268308636,0.01029604,0,0.587096632,1.067842126,-2.572891712,-0.19574587,-0.346051037,0.414501339,0.726070356,0.468835084,-0.693581552,0.565318657,0.113017258,0.5915863,0.194270356,0.019245916,-0.024081552,0.26913791,0.008996265,0.000455305,0.195101317,-0.348807524,1.723380544,-1.415369985,-1.049917704,-0.001080178,0.309628114,0.055184384,0.12219917,0.312827675,0.029944372,0.122335394
1704456555.60237,0.195079794,0.005576238,-0.045463952,0.261333353,0.031556928,0,0.633675396,0.948991895,-2.693244457,-0.197010681,0.155484602,0.449017495,0.729840728,0.891443733,-0.186502138,0.563011008,0.275702205,0.592655916,0.198040728,0.004883733,-0.045809776,0.261711008,0.031626588,0.000355916,0.202179999,-0.348882092,1.722969351,-1.415274111,-1.049207705,-0.001050351,0.309628114,0.055184384,0.12219917,0.31293214,0.032232641,0.122402301
1704456555.61446,0.117425797,-0.005311453,0.035357645,0.167501365,-0.055041937,0,0.777423024,2.561274529,-3.229416132,-0.167283967,0.258963436,0.402996421,0.616335705,-0.896212485,0.300492992,0.459423011,-0.263931206,0.592698328,0.084535705,-0.009652485,0.034950837,0.165143888,-0.054820979,0.000398328,0.207992881,-0.349021109,1.723225015,-1.415355071,-1.04930784,-0.001065264,0.309033258,0.058423717,0.12219917,0.312605766,0.034005734,0.122304375
1704456555.62555,0.101544359,0.0052107,-0.057623744,0.130597167,0.065840256,0,0.702102244,0.932943165,-2.900396347,-0.218680248,-0.241973102,0.431605756,0.598725292,0.904401562,-0.022349018,0.427796857,-0.050518568,0.592721696,0.066925292,0.017841562,-0.051047082,0.12908213,0.064601471,0.000421696,0.213189774,-0.348581688,1.723383207,-1.415355071,-1.049263099,-0.001068993,0.309033258,0.058423717,0.12219917,0.312428935,0.035629814,0.122407683
1704456555.63656,0.169688708,-0.005661398,0.028393775,0.238335753,-0.048351195,0,0.664816082,2.61288166,-3.264405966,-0.189993694,0.029343547,0.402873129,0.704525966,-0.89005456,0.192614,0.540227585,-0.351840364,0.592153764,0.172725966,-0.00349456,0.029222104,0.238927585,-0.048526476,0.000439261,0.219545408,-0.348795273,1.723169089,-1.415329504,-1.049281741,-0.00107645,0.309033258,0.058423717,0.12219917,0.312244867,0.037632103,0.122386815
