tud-amr/mobile-manipulator-compliance/recordings/2024-01-05/4/compliant.csv
__time,/record/cur_comp.0,/record/cur_comp.1,/record/cur_comp.2,/record/cur_comp.3,/record/cur_comp.4,/record/cur_comp.5,/record/cur_fb.0,/record/cur_fb.1,/record/cur_fb.2,/record/cur_fb.3,/record/cur_fb.4,/record/cur_fb.5,/record/cur_fric.0,/record/cur_fric.1,/record/cur_fric.2,/record/cur_fric.3,/record/cur_fric.4,/record/cur_fric.5,/record/cur_null.0,/record/cur_null.1,/record/cur_null.2,/record/cur_null.3,/record/cur_null.4,/record/cur_null.5,/record/pos_q.0,/record/pos_q.1,/record/pos_q.2,/record/pos_q.3,/record/pos_q.4,/record/pos_q.5,/record/pos_t.0,/record/pos_t.1,/record/pos_t.2,/record/pos_x.0,/record/pos_x.1,/record/pos_x.2
1704447581.49671,0.126030401,-0.035819497,0.017762725,0.193857946,0.12513316,0,0.558239758,1.463335156,-2.589660168,-0.454661161,0.466276288,0.056677647,0.539012774,0.727145296,0.421720341,0.473020811,0.477160051,0.563010138,0.033565836,0.001659665,0.019058764,0.188348097,0.122453776,0.000061244,0.208102337,-0.326474788,1.740741158,-1.619878386,-1.098291362,-0.00019228,0.314578562,-0.000497776,0.122140351,0.31015073,-0.014572119,0.133551403
1704447581.50873,0.05257397,-0.036786956,0.03180335,0.096270831,0.101990595,0,0.45825246,1.858790994,-3.712255478,-0.512204468,0.431644112,0.060081284,0.416609244,0.801321023,0.530084845,0.360432606,0.435528346,0.533729696,-0.062577803,0.002471704,0.030517682,0.088941337,0.099250411,0.00002814,0.210714099,-0.326694765,1.740865794,-1.619864005,-1.098420792,-0.000181095,0.314578562,-0.000497776,0.122140351,0.31008442,-0.013781526,0.133459047
1704447581.52006,0.087635054,-0.0319275,-0.009203334,0.126955465,0.154213956,0,0.458216339,2.43047142,-2.653691769,-0.483946204,0.391364872,0.057547431,0.444321533,-0.462804344,-0.16151034,0.378324945,0.472478929,0.511608597,-0.014989974,-0.001594751,-0.012182865,0.12015151,0.152146558,0.000043712,0.214263294,-0.326421524,1.741079912,-1.619889571,-1.098516665,-0.000184823,0.314578562,-0.000497776,0.122140351,0.310059978,-0.012703002,0.133498192
1704447581.53168,0.03386639,-0.033571075,0.020842376,0.064293287,0.106806204,0,0.420253873,1.365342379,-3.429846287,-0.535469532,0.414381474,0.049168546,0.354216489,0.479828403,0.547191291,0.30016226,0.407292852,0.482662696,-0.07990356,0.005341357,0.019615406,0.057099767,0.104089296,0.00010946,0.21864233,-0.326474788,1.741033573,-1.619934312,-1.098516665,-0.000203466,0.314578562,-0.000497776,0.122140351,0.310127535,-0.011352321,0.13349464
1704447581.54319,0.055836619,-0.037085671,0.030250165,0.100318516,0.106135014,0,0.381943285,1.940039873,-3.631698847,-0.519491076,0.374058306,0.070009477,0.373201889,0.698550755,0.461514856,0.326233361,0.397409848,0.466540979,-0.045620452,0.000335007,0.030211588,0.094052559,0.103493907,0.000071493,0.221760625,-0.326549356,1.741064998,-1.620033914,-1.098483642,-0.000188552,0.314578562,-0.000497776,0.122140351,0.310158498,-0.010409077,0.133471406
1704447581.55473,0.054085844,-0.036954824,0.024500071,0.095249506,0.11550129,0,0.421512872,1.255602717,-2.774078846,-0.535222054,0.345332533,0.072792388,0.360800972,-0.424220153,0.534863351,0.318871296,0.398238018,0.452528111,-0.045472183,-0.002965577,0.023393104,0.088917739,0.113128689,0.000035464,0.22467439,-0.326273985,1.741138502,-1.619941236,-1.098420792,-0.000203466,0.314578562,-0.000497776,0.122140351,0.310198327,-0.009480655,0.133532645
1704447581.56603,-0.018185999,-0.034865112,0.034638809,-0.003118427,0.086274409,0,0.393895239,1.32484138,-2.664750576,-0.592766464,0.356794089,0.05305611,0.245208477,0.487021826,0.516072331,-0.227776023,0.353134961,0.427891172,-0.138921105,0.004269879,0.032479335,-0.010910032,0.083565273,0.000061252,0.228313599,-0.326676122,1.741148089,-1.620011544,-1.098494295,-0.00019228,0.314578562,-0.000497776,0.122140351,0.310171575,-0.008382468,0.133414586
1704447581.57855,0.011806424,-0.037420409,0.036481052,0.040733832,0.095017019,0,0.28251043,2.136754036,-2.652961493,-1.087661624,0.282041132,0.054594286,0.277784811,-0.491964349,0.502668934,0.244337493,0.352883128,0.413362537,-0.093293598,-0.001034202,0.035506477,0.034096943,0.092472331,0.000068552,0.231925911,-0.326458809,1.741169927,-1.620137245,-1.09851347,-0.00019228,0.314578562,-0.000497776,0.122140351,0.310220856,-0.00728675,0.133482918
1704447581.59099,0.033477342,-0.033769675,0.018384856,0.062739786,0.111947756,0,0.258515447,1.27884841,-2.693275213,-0.673403323,0.276227683,0.052111421,0.278480953,0.485896861,0.47259182,0.261318583,0.358939404,0.401300182,-0.057772418,0.001726014,0.019053976,0.057209618,0.109425194,0.000059757,0.234951528,-0.326562139,1.741223723,-1.620141506,-1.098579516,-0.000181095,0.314578562,-0.000497776,0.122140351,0.310194529,-0.006360751,0.133441267
1704447581.60286,0.030093747,-0.035954006,0.027516427,0.062407399,0.105124032,0,0.259984493,2.112116098,-2.727754354,-0.691168368,0.328070819,0.060081284,0.155096594,-0.532116954,0.461336356,0.255458789,0.348529149,0.390250475,-0.059316381,-0.001527357,0.02804956,0.05697447,0.102680003,0.000067064,0.236920936,-0.326623925,1.741176851,-1.620100493,-1.098450619,-0.000188552,0.314578562,-0.000497776,0.122140351,0.310245944,-0.005729852,0.133429266
1704447581.6148,0.000430556,-0.037610681,0.03808605,0.025348608,0.092587639,0,0.195999488,1.227110505,-2.797095299,-0.621538937,0.287794709,0.054594286,0.249247807,-0.425872489,0.471103125,0.214395452,0.331641508,0.38332706,-0.094879707,-0.002927551,0.03787001,0.019424373,0.090143974,0.000050026,0.239101798,-0.326449221,1.741199222,-1.619971064,-1.098450619,-0.000181095,0.314578562,-0.000497776,0.122140351,0.310257061,-0.00502284,0.133469232
1704447581.62603,-0.048806177,-0.035414712,0.039619528,-0.044162048,0.078769212,0,0.205887958,2.215695858,-2.698999166,-1.12794435,0.253274113,0.060081284,0.182297695,0.47568567,0.459726803,-0.160525676,0.300004754,0.372896909,-0.152756576,0.002583952,0.039403818,-0.050594472,0.076092847,0.000093382,0.243293614,-0.326690504,1.741206679,-1.620459487,-1.09865728,-0.00019228,0.314578562,-0.000497776,0.122140351,0.31023738,-0.003848353,0.133425961
1704447581.63755,-0.029803267,-0.039886827,0.052701641,-0.01052868,0.075636913,0,0.20725067,2.238713503,-2.762660265,-1.093643427,0.236014634,0.025735995,0.19631736,-0.347983987,0.468691539,-0.205117173,0.299883225,0.369440716,-0.135355276,-0.003118462,0.051758799,-0.017202609,0.073065461,0.000035484,0.245077932,-0.326432177,1.741208809,-1.620544176,-1.098649823,-0.000181095,0.314578562,-0.000497776,0.122140351,0.310279761,-0.003305754,0.133508108
1704447581.64899,0.037740217,-0.035062442,0.026925727,0.072825004,0.102716206,0,0.20725067,1.329395533,-2.721999645,-1.09353745,0.21898292,0.04069218,-0.232391009,0.369926236,0.43380399,0.039191183,0.327995078,0.364900492,-0.06961086,0.002403911,0.026010392,0.066057794,0.100094627,0.000061261,0.246416703,-0.326654817,1.741191765,-1.620452031,-1.098568863,-0.00019228,0.314578562,-0.000497776,0.122140351,0.310278696,-0.002869387,0.133438776
1704447581.66032,0.028622513,-0.036013511,0.027230835,0.060227047,0.105839142,0,-0.242792875,2.130195856,-2.808320761,-0.823652387,0.264718175,0.043826818,-0.376388407,-0.499267143,0.421604603,0.241115703,0.326320136,0.364486477,-0.049193657,-0.002122101,0.029229733,0.055738159,0.103396554,0.000068556,0.2464191,-0.326651621,1.741165133,-1.620193171,-1.09857632,-0.00019228,0.314578562,-0.000497776,0.122140351,0.310264181,-0.002811128,0.133429815
1704447581.67217,0.020187357,-0.033744457,0.018750541,0.044048518,0.110668857,0,-0.368348539,1.220873952,-2.791050434,-0.64455694,0.26478073,0.057547431,-0.366443981,-0.544120942,0.429914811,0.224815143,0.330466386,0.362947566,-0.049016044,-0.000955953,0.021593236,0.040218938,0.108282505,0.000065614,0.24642629,-0.326744299,1.74116034,-1.619797426,-1.098531579,-0.000184823,0.314578562,-0.000497776,0.122140351,0.310232674,-0.002722967,0.133378925
1704447581.68365,0.031855496,-0.033938268,0.019566496,0.061002729,0.110528593,0,-0.368483365,1.058935285,-2.825672626,-0.679279149,0.270472944,0.067111261,-0.376301061,0.462869478,0.430317252,0.213275212,0.334840344,0.362115943,-0.051088754,0.000081501,0.020897095,0.0561003,0.108093363,0.000084616,0.246433747,-0.326880653,1.741179514,-1.619878386,-1.098579516,-0.000196009,0.314578562,-0.000497776,0.122140351,0.310206219,-0.002746748,0.133339142
1704447581.6951,0.031239156,-0.035519079,0.024715629,0.062721467,0.10822644,0,-0.362731457,1.209605336,-2.802654505,-0.696347713,0.282217205,0.075691827,-0.376399505,-0.498062626,0.436375507,0.227320668,0.334755217,0.362474105,-0.050260368,-0.00268408,0.025788534,0.057885164,0.105881344,0.000114747,0.246394865,-0.326741636,1.741213603,-1.619926855,-1.098568863,-0.000199737,0.314578562,-0.000497776,0.122140351,0.310215451,-0.00276786,0.133376543
1704447581.70614,0.038277582,-0.034552268,0.020609062,0.070707918,0.1115679,0,-0.345284581,1.093416333,-2.785349369,-0.661795497,0.247520864,0.056677647,-0.364486911,-0.543774671,0.418825666,0.246507149,0.337508524,0.361941856,-0.039124618,-0.001365506,0.022412926,0.066230621,0.109179815,0.000100665,0.246216966,-0.326931786,1.741230647,-1.619948693,-1.098601887,-0.000199737,0.314578562,-0.000497776,0.122140351,0.31018209,-0.002836669,0.133317417
1704447581.71811,0.043902908,-0.034307653,0.018459241,0.077687302,0.114493641,0,-0.345476359,1.197207928,-2.826053619,-0.633440137,0.270472944,0.05783445,-0.360075681,-0.545475553,0.429879562,0.244219279,0.341189999,0.36346394,-0.033659541,-0.001309525,0.020153798,0.073173536,0.112121734,0.000079683,0.245839862,-0.326896632,1.741227984,-1.620100493,-1.098583777,-0.000184823,0.314578562,-0.000497776,0.122140351,0.310203547,-0.002983768,0.133337528
1704447581.72974,0.082120376,-0.033286274,0.006838953,0.126537564,0.131872594,0,-0.339578599,1.226246476,-2.779690027,-0.627372622,0.316510886,0.054594286,-0.300571744,-0.549417246,0.422672626,0.291921923,0.360083975,0.36572942,0.016773673,-0.001844122,0.009694799,0.122961139,0.129581483,0.000083158,0.244720003,-0.326899295,1.741225853,-1.620144702,-1.098564602,-0.00019228,0.314578562,-0.000497776,0.122140351,0.310209183,-0.003339194,0.133339706
1704447581.74134,0.078383663,-0.03375904,0.009159588,0.122358851,0.129684943,0,-0.237064689,1.099216223,-2.871639967,-0.633021772,0.316510886,0.064339988,-0.211598756,-0.547943433,0.422720472,0.305127291,0.359397288,0.368274207,0.012666373,-0.002239429,0.011990404,0.118742022,0.127388955,0.000057338,0.243658733,-0.326903024,1.741206679,-1.620134049,-1.098568863,-0.000181095,0.314578562,-0.000497776,0.122140351,0.310210048,-0.003664777,0.133342006
1704447581.75265,0.080954494,-0.033455163,0.007307294,0.125128293,0.131726539,0,-0.323956788,1.168567181,-2.785890102,-0.6043576,0.264968276,0.063302174,-0.124610856,-0.560876574,0.432186698,0.310062004,0.364790063,0.373623685,0.013413736,-0.001744593,0.009949218,0.121378488,0.129421836,0.00007438,0.241594517,-0.326910481,1.74122106,-1.620141506,-1.098572059,-0.000188552,0.314578562,-0.000497776,0.122140351,0.310195629,-0.004308415,0.133337214
1704447581.76412,0.086889766,-0.033131659,0.004670762,0.13231482,0.135166653,0,-0.134345844,1.053369641,-2.76808548,-0.604275465,0.310969204,0.051792689,-0.133586511,-0.566863742,0.434344369,0.320789921,0.37045619,0.377677906,0.021162857,-0.001630609,0.007499505,0.128693793,0.132871875,0.000052495,0.239893024,-0.326913676,1.74123331,-1.619997163,-1.098568863,-0.000177899,0.314578562,-0.000497776,0.122140351,0.31017141,-0.004806126,0.133324984
1704447581.77521,0.062492343,-0.033820191,0.012016236,0.101111251,0.124366187,0,-0.08239539,1.128061771,-2.76230073,-0.569981098,0.287967265,0.044945981,-0.354779047,-0.569528999,0.44354403,0.290047454,0.358147586,0.38010327,-0.013566577,-0.000696116,0.013980757,0.096727941,0.121978614,0.000072909,0.239415785,-0.326911013,1.741238104,-1.620052556,-1.098609343,-0.000184823,0.314578562,-0.000497776,0.122140351,0.310162185,-0.004969156,0.133328374
1704447581.78646,0.061209922,-0.033916582,0.012846441,0.099680987,0.123286615,0,-0.333973497,1.174193263,-2.796858311,-0.610029936,0.287737161,0.047454827,-0.358437233,-0.570449641,0.444725488,0.286489132,0.359769825,0.380655322,-0.016725194,-0.000783931,0.014533293,0.095137535,0.120905534,0.00006856,0.239359859,-0.326906752,1.741247691,-1.620174529,-1.098609343,-0.00019228,0.314578562,-0.000497776,0.122140351,0.310169366,-0.005013477,0.133334969
1704447581.7976,0.102726122,-0.032998225,0.001232299,0.153230059,0.141216844,0,-0.359060943,1.185700536,-2.773839951,-0.610247016,0.282041132,0.046396222,-0.249052035,-0.57528491,0.434889428,0.342751531,0.379134116,0.383346945,0.039291252,-0.001667183,0.004316983,0.149791146,0.138927921,0.000052495,0.2385689,-0.326903556,1.741218397,-1.620178258,-1.098609343,-0.000188552,0.314578562,-0.000497776,0.122140351,0.310176642,-0.005256929,0.133342311
1704447581.80867,0.069170532,-0.033943536,0.012407276,0.110745597,0.124430584,0,-0.30548963,1.053259492,-2.791050434,-0.530217707,0.351086527,0.057547431,-0.354873929,-0.581059449,0.445774142,0.303365059,0.366141115,0.387237625,-0.007093522,-0.001277205,0.014169343,0.106324374,0.1220801,0.000083146,0.237137451,-0.326906752,1.741191765,-1.620000891,-1.098468729,-0.00019228,0.314578562,-0.000497776,0.122140351,0.310198447,-0.005651065,0.133335354
1704447581.82162,0.070761983,-0.033445088,0.008730154,0.111312018,0.128819532,0,-0.316563189,1.202961564,-2.779755354,-0.587688625,0.310969204,0.063563213,-0.353646583,-0.580911462,0.448678226,0.30408232,0.369523137,0.387363478,-0.00559843,-0.00068286,0.010509293,0.106889938,0.126462189,0.000088449,0.237215481,-0.326907285,1.741235441,-1.620063742,-1.098620529,-0.000181095,0.314578562,-0.000497776,0.122140351,0.310150007,-0.00565442,0.1333308
1704447581.83467,0.066663654,-0.033829418,0.011524306,0.106814148,0.125429418,0,-0.030990241,1.191245675,-2.739312172,-0.575503111,0.333775103,0.049168546,-0.344850824,-0.581846377,0.452205734,0.297837645,0.366202375,0.388462902,-0.011962042,-0.00049852,0.013191577,0.102225961,0.123034816,0.000071438,0.237103362,-0.326911546,1.74123331,-1.620130321,-1.098631714,-0.000181095,0.314578562,-0.000497776,0.122140351,0.31015257,-0.005704197,0.133334046
1704447581.8457,0.07248571,-0.033698646,0.009946521,0.11434542,0.127843048,0,-0.334221303,1.035869718,-2.791341066,-0.615865111,0.305055678,0.070009477,-0.352790715,-0.581819588,0.450722863,0.304213664,0.368564232,0.388306071,-0.004149705,-0.000602638,0.011807563,0.10987369,0.125460037,0.000002065,0.237069274,-0.326917938,1.741238104,-1.620093036,-1.0986168,-0.000170442,0.314578562,-0.000497776,0.122140351,0.310150515,-0.005706333,0.133328779
1704447581.85697,0.067377641,-0.033705013,0.010809602,0.10748268,0.126169279,0,-0.374456495,1.064689636,-2.762492657,-0.581684709,0.316510886,0.047454827,-0.350463808,-0.581732748,0.45129991,0.296752189,0.367484364,0.388354298,-0.011284018,-0.000545337,0.012406917,0.102880815,0.123788413,0.000070026,0.23706448,-0.326912611,1.741255148,-1.62010795,-1.098579516,-0.00019228,0.314578562,-0.000497776,0.122140351,0.310155521,-0.005709898,0.133327441
1704447581.86878,0.066878511,-0.033905603,0.012097289,0.107376026,0.124749743,0,-0.339724869,1.041751623,-2.756576061,-0.604275465,0.310756147,0.064339988,-0.35206889,-0.581766183,0.450745929,0.300327486,0.366847062,0.387367204,-0.011256465,-0.000690301,0.013797647,0.102847154,0.122362385,0.000116821,0.237074068,-0.326911013,1.741223723,-1.620096765,-1.09857632,-0.000203466,0.314578562,-0.000497776,0.122140351,0.310167052,-0.005701493,0.133333834
1704447581.88062,0.066473772,-0.033955763,0.012559058,0.107013207,0.124139935,0,-0.356794089,1.036109447,-2.704827309,-0.587011993,0.287967265,0.04069218,-0.349476307,-0.58166479,0.449052608,0.299879187,0.366290509,0.388168616,-0.011647853,-0.000827787,0.014223564,0.102459118,0.121759577,0.000077321,0.237093775,-0.326911546,1.741225853,-1.620104222,-1.098557678,-0.000196009,0.314578562,-0.000497776,0.122140351,0.31017167,-0.005695939,0.13333355
1704447581.89242,0.067097656,-0.033840147,0.011755526,0.107526886,0.125080297,0,-0.339724869,1.179736376,-2.756546021,-0.610247016,0.305001378,0.046037946,-0.354284235,-0.5815697,0.45126028,0.29976674,0.367298006,0.38813493,-0.011124724,-0.000697458,0.013342309,0.102355616,0.122778153,0.000061219,0.237086318,-0.326911013,1.741245028,-1.620093036,-1.098583777,-0.000184823,0.314578562,-0.000497776,0.122140351,0.310157155,-0.005699267,0.13332918
1704447581.90444,0.067020367,-0.033816538,0.011459806,0.107286784,0.125496211,0,-0.356840491,1.049637437,-2.756738186,-0.610111356,0.282041132,0.052111421,-0.356013358,-0.581511003,0.450710383,0.300211619,0.366108126,0.388045962,-0.010938009,-0.000521862,0.013214902,0.102760766,0.123101884,0.000086108,0.237105759,-0.326913144,1.741247691,-1.620078655,-1.098605615,-0.000173638,0.314578562,-0.000497776,0.122140351,0.310149329,-0.005691893,0.133327263
1704447581.91561,0.06729457,-0.033825596,0.011479262,0.107683414,0.12550887,0,-0.351793259,1.024748325,-2.710875034,-0.58148545,0.305055678,0.05305611,-0.355795305,-0.581324651,0.451821262,0.297896824,0.365586845,0.388102434,-0.01110414,-0.000479248,0.013186542,0.103102319,0.123112038,0.000046654,0.23711801,-0.326912611,1.741252485,-1.620096765,-1.098586973,-0.00019228,0.314578562,-0.000497776,0.122140351,0.310153959,-0.005691152,0.133327379
1704447581.92694,0.067134418,-0.033869929,0.011952198,0.107669765,0.124863437,0,-0.351086527,1.047426462,-2.773839951,-0.598935843,0.310809404,0.041895162,-0.358282549,-0.581669973,0.451587344,0.300524537,0.366991417,0.387579287,-0.010882259,-0.000843562,0.01359412,0.103128989,0.122490857,0.000097239,0.23711801,-0.326911013,1.741240767,-1.620093036,-1.098561407,-0.000188552,0.314578562,-0.000497776,0.122140351,0.31016453,-0.005687564,0.133329927
1704447581.9384,0.066987414,-0.033877662,0.012009959,0.107486347,0.124787473,0,-0.369425833,1.151078105,-2.779636383,-0.575733244,0.333824724,0.054594286,-0.356788392,-0.581544329,0.451981256,0.300287655,0.366869198,0.3880444,-0.011096944,-0.000822965,0.013651576,0.102927807,0.122412857,0.000071489,0.237122803,-0.326911546,1.741230647,-1.620086112,-1.098572059,-0.000199737,0.314578562,-0.000497776,0.122140351,0.310164911,-0.005684422,0.133331549
1704447581.9501,0.067259288,-0.033811783,0.011583899,0.107671811,0.125261671,0,-0.35103935,1.197041869,-2.768037558,-0.610436976,0.328020364,0.049168546,-0.359039347,-0.581544154,0.451832871,0.300537365,0.367378433,0.387009993,-0.010650643,-0.000809232,0.013235208,0.103152039,0.122890534,0.000122066,0.237098569,-0.326911013,1.741242898,-1.620078655,-1.098568863,-0.000199737,0.314578562,-0.000497776,0.122140351,0.310160532,-0.005691185,0.133328664
1704447581.96137,0.067303373,-0.033835759,0.011599407,0.107747787,0.12533976,0,-0.333973497,1.162472367,-2.814163685,-0.621538937,0.305055678,0.041498043,-0.359103912,-0.581560911,0.451863959,0.300647258,0.366891115,0.387826729,-0.010639069,-0.000637648,0.013319361,0.103218794,0.122953096,0.000088465,0.237096172,-0.326911546,1.74123331,-1.620081851,-1.098586973,-0.000188552,0.314578562,-0.000497776,0.122140351,0.310159663,-0.005692998,0.133330833
1704447581.973,0.067577442,-0.03385952,0.011721591,0.108193366,0.125237571,0,-0.351227969,1.11714673,-2.797521591,-0.575934529,0.310756147,0.036396194,-0.359017837,-0.581685878,0.451516551,0.300524278,0.366838547,0.388245745,-0.010480632,-0.000641981,0.013427745,0.103639101,0.122849866,0.000057353,0.237086318,-0.326913144,1.741235441,-1.620115407,-1.098572059,-0.000181095,0.314578562,-0.000497776,0.122140351,0.310165292,-0.005702508,0.133331823
1704447581.98428,0.067664149,-0.033802466,0.011355703,0.108147039,0.125639709,0,-0.352216601,1.053133726,-2.716238737,-0.581257582,0.345284581,0.041895162,-0.358877351,-0.581682258,0.451876044,0.300806999,0.367014007,0.387745458,-0.01032119,-0.000606761,0.013067564,0.103618956,0.123253451,0.000097239,0.237081524,-0.326911013,1.741238104,-1.620115407,-1.098579516,-0.000188552,0.314578562,-0.000497776,0.122140351,0.310162641,-0.005704674,0.133331952
1704447581.99575,0.067691541,-0.033837056,0.011640626,0.108314857,0.125287518,0,-0.3572115,1.059873104,-2.739282131,-0.58148545,0.316720068,0.065614171,-0.358807169,-0.581773325,0.452093163,0.300859802,0.367496688,0.387705804,-0.010276424,-0.000740197,0.013316679,0.103783516,0.12290911,0.000099219,0.237079128,-0.326911013,1.741245028,-1.620115407,-1.09857632,-0.000199737,0.314578562,-0.000497776,0.122140351,0.310160909,-0.005705813,0.133330475
1704447582.00809,0.067287796,-0.033853498,0.011750546,0.107795538,0.125150609,0,-0.368303567,1.180409908,-2.721999645,-0.592738569,0.345284581,0.052111421,-0.359141327,-0.581350191,0.451480575,0.300699221,0.367328426,0.388035916,-0.01065264,-0.000735463,0.013438937,0.103257248,0.122770363,0.000079698,0.237081524,-0.326909415,1.741240767,-1.620078655,-1.09857632,-0.000177899,0.314578562,-0.000497776,0.122140351,0.310159502,-0.005696742,0.133329642
1704447582.01978,0.067156568,-0.033851882,0.011755193,0.107610401,0.125129702,0,-0.345284581,1.145714402,-2.76230073,-0.604494631,0.310756147,0.04069218,-0.357346511,-0.581652338,0.451726082,0.300503654,0.367298911,0.388198534,-0.010833221,-0.000704592,0.013447749,0.10306687,0.122747275,0.00007438,0.237081524,-0.326909415,1.741235441,-1.620074394,-1.098579516,-0.000188552,0.314578562,-0.000497776,0.122140351,0.310160273,-0.005695569,0.133330527
1704447582.03126,0.067111544,-0.033854229,0.011792123,0.107562072,0.125071938,0,-0.374765933,1.031400323,-2.768414259,-0.615784407,0.299301982,0.070009477,-0.356719093,-0.581413081,0.451367258,0.300271701,0.366913466,0.388043013,-0.010985997,-0.000661648,0.013484757,0.102999186,0.122686268,0.000050014,0.237098569,-0.326913676,1.741240767,-1.620078655,-1.098564602,-0.000181095,0.314578562,-0.000497776,0.122140351,0.310162098,-0.005690781,0.133328284
1704447582.0432,0.067068895,-0.033833368,0.011639879,0.107434065,0.125251412,0,-0.362959653,1.13369894,-2.796899796,-0.615757525,0.305055678,0.043826818,-0.355933813,-0.581445339,0.451940966,0.299994276,0.366995418,0.387555785,-0.011043371,-0.000637899,0.013334914,0.102897198,0.122865579,0.000100727,0.237113216,-0.326915274,1.741240767,-1.620086112,-1.098586973,-0.000199737,0.314578562,-0.000497776,0.122140351,0.310157008,-0.005689382,0.133328402
1704447582.05477,0.067130047,-0.033843445,0.011740915,0.107563651,0.125116767,0,-0.339578599,1.127988458,-2.750773191,-0.604275465,0.287967265,0.051792689,-0.35662757,-0.581331439,0.451967525,0.299985782,0.367198333,0.388060197,-0.010994921,-0.000695527,0.013413549,0.103009655,0.122734787,0.000075851,0.237108156,-0.326912611,1.741245028,-1.620089308,-1.098561407,-0.00019228,0.314578562,-0.000497776,0.122140351,0.310162431,-0.005690234,0.133328327
1704447582.06663,0.067000478,-0.033847502,0.011774961,0.107396595,0.125070295,0,-0.35103935,1.087783456,-2.733599901,-0.610436976,0.310756147,0.063563213,-0.35663444,-0.581185459,0.451847813,0.300183528,0.367131029,0.388002408,-0.01105893,-0.000701421,0.013454655,0.102834625,0.122688245,0.000051012,0.23711801,-0.326912611,1.741242898,-1.620081851,-1.098568863,-0.000184823,0.314578562,-0.000497776,0.122140351,0.310160745,-0.005685884,0.133328377
1704447582.07816,0.067274101,-0.033819517,0.011531374,0.107673868,0.125389207,0,-0.368707985,1.208509803,-2.756672144,-0.6043576,0.299301982,0.05305611,-0.358703625,-0.581495949,0.451906702,0.300565956,0.367294369,0.387614672,-0.01068647,-0.00066136,0.01323374,0.103146742,0.12300581,0.000099207,0.237096172,-0.326911013,1.741247691,-1.620086112,-1.098579516,-0.000196009,0.314578562,-0.000497776,0.122140351,0.310156722,-0.005694669,0.133328176
1704447582.08929,0.067291539,-0.033818211,0.011518898,0.107692406,0.12540549,0,-0.356979668,1.225773811,-2.756672144,-0.598493278,0.293548316,0.064339988,-0.359087288,-0.581524266,0.451883986,0.300546673,0.367181569,0.388113171,-0.010649462,-0.000646042,0.013224481,0.103133516,0.123020951,0.000035464,0.237096172,-0.326911013,1.741245028,-1.620081851,-1.098579516,-0.000181095,0.314578562,-0.000497776,0.122140351,0.310157328,-0.005693517,0.13332848
1704447582.10323,0.067410799,-0.033820362,0.011465967,0.107840464,0.125513476,0,-0.356840491,1.157619119,-2.733509064,-0.575733244,0.299301982,0.064339988,-0.359076521,-0.581560767,0.451951013,0.300762854,0.36686135,0.38824434,-0.010555865,-0.000605891,0.013187231,0.103302768,0.123125623,0.00007438,0.237093775,-0.326911013,1.741247691,-1.620081851,-1.09857632,-0.000199737,0.314578562,-0.000497776,0.122140351,0.31015715,-0.005694281,0.133327898
1704447582.11451,0.067538713,-0.033835161,0.011599656,0.108082359,0.125347927,0,-0.34571594,1.1739676,-2.796811104,-0.592766464,0.316510886,0.05783445,-0.359121547,-0.58173085,0.452087257,0.300052686,0.367445752,0.387739613,-0.010569589,-0.000662359,0.013284069,0.103541759,0.12296398,0.000095756,0.237083921,-0.326911013,1.741242898,-1.62010795,-1.098583777,-0.000203466,0.314578562,-0.000497776,0.122140351,0.310159194,-0.005703033,0.133330525
1704447582.12677,0.067501158,-0.033843432,0.011646334,0.108050229,0.12529868,0,-0.357535869,1.23792541,-2.710508585,-0.615757525,0.305001378,0.078272976,-0.359080272,-0.581695763,0.45210772,0.300565079,0.367378565,0.388229305,-0.010553465,-0.0006692,0.013336195,0.10349102,0.122914434,0.000052495,0.237081524,-0.326913144,1.741242898,-1.620100493,-1.09857632,-0.000203466,0.314578562,-0.000497776,0.122140351,0.310160195,-0.005701727,0.133329387
1704447582.13991,0.067395777,-0.033810644,0.011502417,0.10783056,0.12540529,0,-0.333973497,1.151178837,-2.791264057,-0.61599946,0.282041132,0.058687095,-0.358983257,-0.581530342,0.451832898,0.300698335,0.36753503,0.387952931,-0.010561615,-0.000679099,0.013193768,0.103294347,0.123024016,0.000084616,0.237091112,-0.326912611,1.741250354,-1.620086112,-1.098568863,-0.000196009,0.314578562,-0.000497776,0.122140351,0.310158238,-0.005695801,0.133327065
1704447582.15161,0.06739358,-0.033862959,0.011781422,0.10795926,0.125139318,0,-0.368707985,1.053133726,-2.762372732,-0.604275465,0.316510886,0.0801543,-0.359046603,-0.581442479,0.451312973,0.300848551,0.367298986,0.388185706,-0.010578592,-0.000698101,0.013482784,0.103418292,0.122755433,0.00007438,0.237093775,-0.326913676,1.741235441,-1.620086112,-1.098561407,-0.00019228,0.314578562,-0.000497776,0.122140351,0.310165457,-0.00569319,0.133329831
1704447582.16353,0.06731304,-0.033839171,0.011617441,0.107770376,0.125323048,0,-0.317346841,1.191357017,-2.842895508,-0.58148545,0.310756147,0.058687095,-0.359072923,-0.581546203,0.451578022,0.300664397,0.366985267,0.387802109,-0.01062272,-0.000647345,0.013336817,0.103244227,0.122936839,0.000093382,0.237093775,-0.326911546,1.741235441,-1.620074394,-1.098586973,-0.000199737,0.314578562,-0.000497776,0.122140351,0.310158235,-0.005692324,0.133329937
1704447582.17484,0.067307056,-0.033834948,0.011604691,0.10775444,0.125326217,0,-0.356840491,1.128296614,-2.739263773,-0.627372622,0.328020364,0.065614171,-0.359068324,-0.581295493,0.45193665,0.300610575,0.366958711,0.388117623,-0.010660121,-0.00065131,0.013314438,0.103214201,0.122940793,0.000072909,0.237088715,-0.326913144,1.741240767,-1.620086112,-1.098583777,-0.000214651,0.314578562,-0.000497776,0.122140351,0.310157902,-0.005696712,0.133329021
1704447582.18643,0.067430324,-0.033836215,0.011562836,0.107913867,0.12541314,0,-0.333824724,1.197332382,-2.750983953,-0.6043576,0.322317004,0.041498043,-0.359154895,-0.581500805,0.45205181,0.300457757,0.367136111,0.387896383,-0.010616565,-0.000639758,0.013265779,0.103376959,0.123027051,0.000090474,0.237093775,-0.326910481,1.741242898,-1.620100493,-1.098590701,-0.00019228,0.314578562,-0.000497776,0.122140351,0.310156923,-0.005698821,0.133330283
1704447582.19794,0.067352833,-0.033846767,0.011677081,0.107855024,0.125254038,0,-0.339724869,1.174475193,-2.750791311,-0.610111356,0.305001378,0.052111421,-0.359142385,-0.581382616,0.451961291,0.300571595,0.367425308,0.387468334,-0.010659731,-0.000696441,0.013369048,0.103327769,0.122871478,0.000108038,0.237096172,-0.326911546,1.741240767,-1.620093036,-1.098583777,-0.000199737,0.314578562,-0.000497776,0.122140351,0.310158708,-0.005695849,0.133329916
1704447582.20911,0.067168278,-0.033832799,0.011658816,0.107580997,0.125217423,0,-0.351463616,1.133742809,-2.768055439,-0.598742247,0.316563189,0.049168546,-0.358787332,-0.581353517,0.451809743,0.300433913,0.367330416,0.388107112,-0.010733506,-0.000706746,0.013355658,0.103043634,0.122836383,0.00007438,0.237098569,-0.326911013,1.741245028,-1.620078655,-1.098572059,-0.000188552,0.314578562,-0.000497776,0.122140351,0.310158949,-0.005691587,0.133328238
1704447582.22015,0.067183268,-0.03384709,0.011770588,0.107651741,0.125081082,0,-0.356840491,1.179946899,-2.773810148,-0.6043576,0.316510886,0.029343547,-0.358856379,-0.581531381,0.451901261,0.300522909,0.367185943,0.387005593,-0.010706111,-0.000743846,0.013464908,0.103140572,0.122701748,0.000123537,0.237093775,-0.326911013,1.741235441,-1.620074394,-1.098564602,-0.000203466,0.314578562,-0.000497776,0.122140351,0.310163933,-0.005690812,0.133329947
1704447582.23161,0.067349598,-0.03384904,0.011718159,0.10786751,0.125190859,0,-0.345476359,1.168340445,-2.698980808,-0.593185365,0.293548316,0.063563213,-0.358924726,-0.581416559,0.452010382,0.300771957,0.367370941,0.388031767,-0.010652029,-0.000711239,0.013404135,0.103327097,0.122809303,0.000083146,0.237091112,-0.326911546,1.741242898,-1.620104222,-1.098572059,-0.00019228,0.314578562,-0.000497776,0.122140351,0.310161814,-0.005699229,0.133330062
1704447582.24267,0.067462462,-0.033822625,0.011472126,0.107917219,0.125515089,0,-0.356840491,1.191231847,-2.762876034,-0.610002756,0.333775103,0.072792388,-0.359086866,-0.581631243,0.451968909,0.300567559,0.366748929,0.387523429,-0.010555768,-0.000597526,0.013191981,0.10339386,0.123126575,0.000107989,0.237091112,-0.326913144,1.741245028,-1.620100493,-1.098590701,-0.000199737,0.314578562,-0.000497776,0.122140351,0.310155847,-0.005699904,0.133329035
1704447582.25432,0.067389533,-0.033837434,0.011609587,0.107875462,0.125333667,0,-0.351086527,1.116553664,-2.745163441,-0.581684709,0.333775103,0.054594286,-0.358760381,-0.581637652,0.452036547,0.30018044,0.367274379,0.388206723,-0.010713277,-0.000653597,0.013297121,0.103315871,0.122948806,0.000058311,0.237093775,-0.326911546,1.741240767,-1.620096765,-1.098583777,-0.000184823,0.314578562,-0.000497776,0.122140351,0.310159013,-0.005697395,0.13333014
1704447582.26577,0.067353387,-0.033853656,0.011767338,0.107894129,0.125122823,0,-0.368483365,1.168439627,-2.768031597,-0.627293408,0.322317004,0.054594286,-0.359113194,-0.581412763,0.451659722,0.300638436,0.367256635,0.388108003,-0.010685444,-0.000715207,0.013445779,0.103328338,0.122741335,0.000041519,0.237091112,-0.326911546,1.741242898,-1.620089308,-1.098564602,-0.000177899,0.314578562,-0.000497776,0.122140351,0.310162418,-0.00569552,0.133329116
1704447582.2811,0.067266059,-0.033850446,0.011721271,0.107750419,0.125187007,0,-0.317346841,1.019174576,-2.814163685,-0.593185365,0.316563189,0.049168546,-0.359034102,-0.581555032,0.451648902,0.30062691,0.367202897,0.387968513,-0.010708984,-0.000680451,0.01342528,0.103214991,0.122802711,0.000084617,0.237096172,-0.326912611,1.74123331,-1.620081851,-1.098579516,-0.000196009,0.314578562,-0.000497776,0.122140351,0.31016143,-0.005692526,0.133330464
1704447582.29262,0.067314355,-0.033826587,0.011560947,0.107745689,0.125369175,0,-0.351793259,1.076198578,-2.751062155,-0.56974864,0.299301982,0.040283203,-0.359137478,-0.581536882,0.451817589,0.300612935,0.367152742,0.388145708,-0.010687038,-0.000637631,0.013266031,0.103192631,0.122983491,0.000053953,0.237093775,-0.326913144,1.741240767,-1.620078655,-1.098586973,-0.00019228,0.314578562,-0.000497776,0.122140351,0.310156487,-0.005693752,0.133328594
1704447582.30402,0.06721642,-0.033830731,0.011617731,0.107631666,0.125283232,0,-0.345332533,1.099171042,-2.76230073,-0.627293408,0.339578599,0.058687095,-0.358625535,-0.581495229,0.451922265,0.300489232,0.367395966,0.387744802,-0.010779769,-0.000681296,0.01331131,0.103097924,0.122900659,0.000093407,0.237108156,-0.326911013,1.741242898,-1.620081851,-1.098579516,-0.000199737,0.314578562,-0.000497776,0.122140351,0.310158173,-0.005689613,0.133328928
1704447582.31528,0.067351976,-0.033827484,0.011570687,0.107805207,0.125360011,0,-0.362959653,1.13949728,-2.791198969,-0.598493278,0.316563189,0.043826818,-0.359070869,-0.581619173,0.451955215,0.300302926,0.367525258,0.388007061,-0.010708401,-0.000681993,0.013251188,0.1032594,0.12297807,0.000081687,0.237105759,-0.326912611,1.741247691,-1.620096765,-1.098590701,-0.000188552,0.314578562,-0.000497776,0.122140351,0.310154697,-0.005694779,0.133328411
1704447582.3268,0.067306298,-0.033858492,0.011772518,0.107831133,0.125133096,0,-0.362959653,1.105285287,-2.704735518,-0.604275465,0.281982422,0.054594286,-0.359185237,-0.58147728,0.451544439,0.300468362,0.367261487,0.388090411,-0.010761226,-0.000683609,0.013459817,0.103257841,0.122748811,0.000028091,0.237100966,-0.326911013,1.741238104,-1.620089308,-1.098572059,-0.000181095,0.314578562,-0.000497776,0.122140351,0.310162399,-0.005692526,0.133330334
1704447582.33816,0.067277212,-0.033822415,0.011566799,0.107694366,0.125339723,0,-0.380901426,1.05311799,-2.733509064,-0.5869838,0.32272771,0.063563213,-0.358696809,-0.58151948,0.451891462,0.300556563,0.367465857,0.387948596,-0.010734064,-0.000674101,0.013256761,0.103154568,0.122957312,0.000084633,0.237100966,-0.326911546,1.741250354,-1.620086112,-1.09857632,-0.000196009,0.314578562,-0.000497776,0.122140351,0.310156527,-0.005693217,0.133327435
1704447582.34939,0.067260554,-0.033835948,0.011672678,0.107718439,0.125210058,0,-0.362594485,1.007145882,-2.728045702,-0.638880134,0.328070819,0.057547431,-0.359009954,-0.581521943,0.451855017,0.30056769,0.367327089,0.388111409,-0.010716639,-0.000700292,0.013361904,0.103173759,0.122828533,0.000071497,0.237096172,-0.326913144,1.741242898,-1.620081851,-1.098572059,-0.000199737,0.314578562,-0.000497776,0.122140351,0.310159758,-0.005692885,0.133328238
1704447582.36075,0.067277134,-0.033833622,0.01163114,0.107723919,0.125274298,0,-0.356840491,1.168226957,-2.716263294,-0.615865111,0.322317004,0.041895162,-0.35891253,-0.581553587,0.451870084,0.300590281,0.367294628,0.388143037,-0.010704197,-0.000669183,0.013329596,0.103175024,0.122890514,0.000061202,0.237096172,-0.326912611,1.741242898,-1.620089308,-1.09857632,-0.000173638,0.314578562,-0.000497776,0.122140351,0.310159378,-0.005694762,0.133328875
1704447582.37313,0.067345182,-0.033839851,0.011638633,0.107826168,0.125291911,0,-0.356979668,1.041624427,-2.837088346,-0.581229091,0.316563189,0.036396194,-0.35884271,-0.581573278,0.451957855,0.300738959,0.367480804,0.388047166,-0.010665601,-0.00067889,0.013332533,0.103285512,0.122908529,0.000081675,0.237086318,-0.326910481,1.741242898,-1.620093036,-1.098568863,-0.000199737,0.314578562,-0.000497776,0.122140351,0.31016175,-0.005698067,0.133329688
1704447582.3843,0.067411541,-0.033841381,0.011649954,0.107924625,0.125280208,0,-0.39774394,1.133742809,-2.710539103,-0.610029936,0.316563189,0.057547431,-0.359143507,-0.581647065,0.451954783,0.300435911,0.367340461,0.388221565,-0.01064462,-0.000667047,0.013342112,0.103377859,0.122895914,0.000075851,0.237088715,-0.326912611,1.741240767,-1.620096765,-1.098579516,-0.00019228,0.314578562,-0.000497776,0.122140351,0.310159945,-0.005698706,0.133329792
1704447582.3964,0.067344992,-0.033854677,0.011736609,0.107870475,0.125182325,0,-0.356979668,1.157619119,-2.72784543,-0.598603964,0.299246639,0.046037946,-0.35892036,-0.581642561,0.451312231,0.300788701,0.367118711,0.387667473,-0.010645568,-0.000667351,0.0134454,0.103342582,0.12279672,0.000099207,0.237088715,-0.326913676,1.741235441,-1.620096765,-1.098579516,-0.000196009,0.314578562,-0.000497776,0.122140351,0.310161773,-0.005698265,0.133330592
1704447582.40774,0.067422897,-0.033855077,0.011643151,0.107941238,0.125351316,0,-0.339968473,1.168226957,-2.739312172,-0.598493278,0.316563189,0.047454827,-0.359143727,-0.581642649,0.451186766,0.300687396,0.366247613,0.388090987,-0.010596748,-0.000582457,0.013379596,0.103407273,0.122958998,0.000083146,0.237088715,-0.326911013,1.74123331,-1.620096765,-1.098590701,-0.00019228,0.314578562,-0.000497776,0.122140351,0.310160014,-0.005698757,0.133331914
1704447582.41967,0.067394441,-0.033847108,0.011696474,0.10792187,0.125222591,0,-0.351086527,1.076890707,-2.682105541,-0.6043576,0.339578599,0.052111421,-0.359078724,-0.581600415,0.451848031,0.300816049,0.367393457,0.388202335,-0.010598423,-0.000712878,0.013382447,0.103378827,0.122841279,0.000077321,0.237093775,-0.326911013,1.741240767,-1.620093036,-1.098579516,-0.000196009,0.314578562,-0.000497776,0.122140351,0.310159826,-0.005696293,0.133330048
1704447582.43172,0.067220384,-0.03383882,0.01166275,0.107658267,0.12523866,0,-0.351463616,1.191357017,-2.721993446,-0.592989922,0.287794709,0.057547431,-0.358423866,-0.5813297,0.451960507,0.300502574,0.367349612,0.388108364,-0.010812478,-0.000682977,0.013352087,0.103112407,0.122855717,0.000075851,0.237105759,-0.326911013,1.741242898,-1.620081851,-1.09857632,-0.00019228,0.314578562,-0.000497776,0.122140351,0.310158966,-0.005690142,0.133328906
1704447582.44265,0.06722473,-0.033839557,0.011736925,0.107694762,0.12510981,0,-0.356979668,1.030163288,-2.762492657,-0.604275465,0.310809404,0.05305611,-0.35911203,-0.581414418,0.451700297,0.300481762,0.36717885,0.387995581,-0.010777105,-0.000707741,0.013418191,0.103126905,0.122728692,0.000032482,0.237100966,-0.326915274,1.741240767,-1.620078655,-1.098561407,-0.000173638,0.314578562,-0.000497776,0.122140351,0.310162747,-0.005689865,0.133327783
1704447582.45381,0.067418032,-0.033838498,0.011657562,0.107936357,0.125254561,0,-0.368707985,1.174023986,-2.785319328,-0.615757525,0.333824724,0.057547431,-0.359087409,-0.581638013,0.452048176,0.300356286,0.367420729,0.387287922,-0.010613381,-0.000699439,0.013343096,0.103410538,0.122872954,0.000114807,0.237088715,-0.326913144,1.741242898,-1.620093036,-1.09857632,-0.000199737,0.314578562,-0.000497776,0.122140351,0.310159598,-0.005697891,0.133328939
1704447582.4657,0.067328979,-0.0338034,0.011384393,0.10768566,0.12558133,0,-0.380509973,1.214305401,-2.750821352,-0.610029936,0.305055678,0.058687095,-0.358509456,-0.581520818,0.451795524,0.300480389,0.366773675,0.388005393,-0.010715622,-0.00058818,0.013094927,0.103146155,0.123193712,0.000083162,0.237105759,-0.326909415,1.741240767,-1.620093036,-1.09857632,-0.000203466,0.314578562,-0.000497776,0.122140351,0.31016087,-0.005692321,0.133330506
1704447582.4772,0.067277601,-0.033833273,0.011632496,0.107725111,0.12527031,0,-0.339578599,1.156717658,-2.693244457,-0.587011993,0.287967265,0.049168546,-0.358615813,-0.58151497,0.451963673,0.300575633,0.367276426,0.388120713,-0.010760535,-0.00066407,0.013324801,0.103171762,0.122886341,0.000061261,0.237098569,-0.326913144,1.741242898,-1.620086112,-1.09857632,-0.00019228,0.314578562,-0.000497776,0.122140351,0.310159062,-0.005693345,0.133328523
1704447582.48908,0.067329694,-0.033821666,0.011511543,0.107746457,0.12543708,0,-0.339578599,1.081952929,-2.773810148,-0.598742247,0.310809404,0.046396222,-0.35909571,-0.581671983,0.451869968,0.300695908,0.367392483,0.387332306,-0.010573456,-0.00065301,0.013227957,0.103234917,0.123052636,0.00011823,0.237086318,-0.326912611,1.741240767,-1.620081851,-1.098598158,-0.000207194,0.314578562,-0.000497776,0.122140351,0.310153954,-0.005697488,0.133329021
1704447582.5003,0.067196878,-0.033833358,0.011629207,0.107609575,0.125273439,0,-0.345476359,1.076690793,-2.728045702,-0.592850268,0.305001378,0.036396194,-0.358412777,-0.58141347,0.451841321,0.300465931,0.367277909,0.3881223,-0.010779286,-0.000669237,0.013329317,0.103063465,0.122889632,0.00006561,0.237098569,-0.326911546,1.741242898,-1.620078655,-1.098579516,-0.000184823,0.314578562,-0.000497776,0.122140351,0.310157788,-0.005691912,0.133328576
1704447582.51164,0.067415392,-0.033829215,0.011616873,0.107911922,0.125284764,0,-0.362959653,1.035869718,-2.802613258,-0.633257151,0.328474373,0.052111421,-0.359037291,-0.581456506,0.451940319,0.300482953,0.367417751,0.38795573,-0.010611813,-0.000701402,0.01329636,0.103368841,0.122904046,0.000083146,0.237091112,-0.326911013,1.741250354,-1.620093036,-1.098579516,-0.00019228,0.314578562,-0.000497776,0.122140351,0.310156315,-0.005697964,0.133328032
1704447582.52313,0.067466678,-0.033834622,0.011577125,0.107971167,0.125382903,0,-0.374456495,1.012834787,-2.73935461,-0.621512294,0.305055678,0.075691827,-0.358954199,-0.581653568,0.452042106,0.300010379,0.367098463,0.388244139,-0.010660431,-0.000626641,0.013270305,0.103415639,0.12299623,0.000067085,0.237096172,-0.326914742,1.741242898,-1.620111679,-1.098586973,-0.000188552,0.314578562,-0.000497776,0.122140351,0.310158379,-0.005700346,0.133329651
1704447582.53419,0.067399171,-0.033842405,0.011652569,0.10790872,0.125279984,0,-0.35103935,1.082274318,-2.825631618,-0.610436976,0.328020364,0.05783445,-0.359106141,-0.581590625,0.452070705,0.300536334,0.367455734,0.38729447,-0.010616618,-0.000687645,0.013346117,0.103386154,0.122897084,0.000116759,0.237096172,-0.326911546,1.741242898,-1.620100493,-1.098579516,-0.000203466,0.314578562,-0.000497776,0.122140351,0.310159644,-0.005697356,0.133329888
1704447582.54491,0.067344883,-0.03384387,0.011680935,0.107842551,0.125231965,0,-0.379987389,1.163369417,-2.756738186,-0.604494631,0.287794709,0.052111421,-0.359087057,-0.581341085,0.452001283,0.300417298,0.367108631,0.387396382,-0.010678487,-0.000675309,0.01337861,0.103312917,0.122847941,0.000103039,0.237098569,-0.326913144,1.741240767,-1.620089308,-1.098568863,-0.000188552,0.314578562,-0.000497776,0.122140351,0.310161992,-0.005693346,0.133329113
1704447582.5567,0.067315303,-0.033836622,0.011615894,0.107773404,0.125316468,0,-0.333824724,1.116657495,-2.774078846,-0.604248047,0.305001378,0.046396222,-0.359179975,-0.581608152,0.451750502,0.30064811,0.367364146,0.388164453,-0.010698296,-0.000656822,0.013313953,0.103210107,0.1229316,0.000037905,0.237093775,-0.326911546,1.741238104,-1.620081851,-1.098590701,-0.000188552,0.314578562,-0.000497776,0.122140351,0.310156962,-0.005694413,0.13332985
1704447582.56931,0.06730058,-0.033834434,0.01168317,0.107779065,0.125186494,0,-0.34571594,1.128868818,-2.768181086,-0.604248047,0.264718175,0.041895162,-0.359089773,-0.581583958,0.451980085,0.300628428,0.367313364,0.388117749,-0.010677533,-0.000748389,0.013352791,0.103229767,0.122808949,0.000068539,0.237091112,-0.326911013,1.741245028,-1.620078655,-1.098568863,-0.00019228,0.314578562,-0.000497776,0.122140351,0.310159712,-0.005693686,0.133328216
1704447582.58089,0.067295809,-0.033822654,0.011558046,0.107716132,0.125355978,0,-0.362548828,1.093401194,-2.768892765,-0.581342995,0.310756147,0.04069218,-0.358921546,-0.581544698,0.451906946,0.300585278,0.367373372,0.388152552,-0.010706866,-0.00067018,0.01325024,0.10317338,0.122973214,0.000077321,0.237098569,-0.326912611,1.741240767,-1.620086112,-1.098579516,-0.000196009,0.314578562,-0.000497776,0.122140351,0.31015909,-0.005693357,0.133329152
1704447582.59283,0.067212691,-0.033829064,0.01161305,0.107625713,0.125285888,0,-0.346051037,1.024408937,-2.773881674,-0.592850268,0.322265625,0.065614171,-0.35842799,-0.581550631,0.451953625,0.300494232,0.367420971,0.387959509,-0.01078434,-0.00068466,0.013303373,0.103085239,0.122903758,0.000081687,0.237103362,-0.326914742,1.741240767,-1.620081851,-1.098590701,-0.000188552,0.314578562,-0.000497776,0.122140351,0.310155704,-0.005691757,0.133328331
1704447582.60365,0.067295982,-0.033852443,0.011703672,0.107785838,0.125227898,0,-0.351227969,1.13369894,-2.705224991,-0.598603964,0.316510886,0.05783445,-0.358753461,-0.581539976,0.451533903,0.300553478,0.366770743,0.388146463,-0.010754849,-0.000635156,0.013411856,0.10322875,0.122840133,0.000050987,0.237098569,-0.326911546,1.741235441,-1.620089308,-1.098579516,-0.000184823,0.314578562,-0.000497776,0.122140351,0.310161419,-0.005693548,0.133330783
1704447582.61481,0.067301157,-0.033828821,0.011652735,0.107766263,0.125216473,0,-0.322471082,1.013423204,-2.750821352,-0.621751964,0.305055678,0.056677647,-0.359117958,-0.581549425,0.451940153,0.300595154,0.367337211,0.38808293,-0.010712705,-0.000725504,0.013321656,0.103200452,0.122837699,0.000041502,0.237088715,-0.326913144,1.741250354,-1.620078655,-1.098568863,-0.000177899,0.314578562,-0.000497776,0.122140351,0.310157529,-0.005694953,0.133326457
1704447582.62585,0.067370772,-0.033827065,0.011603127,0.107842987,0.125298667,0,-0.322471082,1.185826182,-2.808462143,-0.592766464,0.305001378,0.047454827,-0.359065259,-0.581573545,0.451947345,0.300708084,0.36744009,0.388146599,-0.01062713,-0.000694817,0.013287459,0.103294756,0.122917507,0.000068556,0.237088715,-0.326913144,1.741247691,-1.620086112,-1.098572059,-0.00019228,0.314578562,-0.000497776,0.122140351,0.310158332,-0.005696538,0.133327487
1704447582.63792,0.067251601,-0.03382442,0.011593523,0.107668735,0.125299043,0,-0.35103935,1.145323992,-2.779690027,-0.621751964,0.339578599,0.049168546,-0.358467962,-0.581292731,0.451892256,0.300521801,0.367412007,0.387751723,-0.010744534,-0.000685405,0.013282389,0.103130982,0.122917306,0.000086978,0.237100966,-0.326909415,1.741238104,-1.620089308,-1.098572059,-0.000181095,0.314578562,-0.000497776,0.122140351,0.31016257,-0.005692485,0.133330813
1704447582.65046,0.067362311,-0.033836806,0.011583932,0.107826807,0.125376102,0,-0.339529842,1.174023986,-2.820035696,-0.598520935,0.299301982,0.05305611,-0.358764963,-0.581522901,0.452033382,0.300345147,0.36720181,0.388235846,-0.010707729,-0.000644579,0.013280864,0.103279845,0.122990443,0.000075851,0.237098569,-0.326910481,1.741242898,-1.620096765,-1.098590701,-0.00019228,0.314578562,-0.000497776,0.122140351,0.310156631,-0.005696532,0.133330059
1704447582.66126,0.067407621,-0.033823669,0.011505887,0.107852656,0.125456132,0,-0.356840491,1.150948644,-2.76228261,-0.615784407,0.316563189,0.05783445,-0.359066472,-0.581556804,0.451957953,0.300764989,0.3670342,0.388227927,-0.010564513,-0.000633235,0.01321771,0.103315496,0.123070199,0.000078792,0.237083921,-0.326909415,1.741242898,-1.620081851,-1.098583777,-0.000199737,0.314578562,-0.000497776,0.122140351,0.310157132,-0.005697373,0.133329436
1704447582.6732,0.067409884,-0.033843603,0.011650512,0.107922637,0.125288273,0,-0.356979668,1.162586331,-2.745109081,-0.598742247,0.316720068,0.046037946,-0.359126389,-0.581571101,0.451949359,0.300526289,0.367222482,0.388209065,-0.010634763,-0.000664617,0.013345826,0.103374755,0.122903561,0.000071438,0.237091112,-0.326910481,1.741242898,-1.620096765,-1.09857632,-0.000181095,0.314578562,-0.000497776,0.122140351,0.310160215,-0.005697882,0.133329962
1704447582.68508,0.067369795,-0.033872579,0.01181943,0.107944406,0.125113594,0,-0.374765933,1.081907034,-2.796899796,-0.593185365,0.316563189,0.043826818,-0.359153452,-0.581431307,0.45141996,0.300653882,0.367049643,0.388220981,-0.01065773,-0.000681676,0.013522565,0.103402662,0.12272785,0.000078792,0.237096172,-0.326911013,1.741250354,-1.620074394,-1.09857632,-0.00019228,0.314578562,-0.000497776,0.122140351,0.310155554,-0.005692167,0.13332689
1704447582.69695,0.067250597,-0.033865206,0.011876567,0.107796062,0.124974724,0,-0.333824724,1.151466489,-2.745229483,-0.610029936,0.333824724,0.038603991,-0.359091351,-0.581419011,0.451706572,0.300633639,0.367072377,0.387897068,-0.010717245,-0.0007493,0.013560096,0.103256583,0.122594722,0.000081675,0.237098569,-0.326911546,1.741235441,-1.620089308,-1.09855395,-0.000188552,0.314578562,-0.000497776,0.122140351,0.310167866,-0.005691836,0.133330613
1704447582.70822,0.067377937,-0.033846205,0.011706371,0.107900501,0.125198501,0,-0.356840491,1.104910731,-2.721993446,-0.615784407,0.316563189,0.052111421,-0.359103437,-0.581531038,0.451800946,0.300553499,0.367089206,0.388117406,-0.010673816,-0.000666494,0.013399271,0.103340021,0.122813755,0.000048838,0.237093775,-0.326913676,1.741240767,-1.620096765,-1.098564602,-0.000177899,0.314578562,-0.000497776,0.122140351,0.310163621,-0.005696166,0.133329373
1704447582.72055,0.067379326,-0.033822653,0.011517384,0.107817566,0.125431145,0,-0.345476359,1.122543693,-2.779922247,-0.570764899,0.345332533,0.056677647,-0.359152249,-0.58134043,0.451886312,0.30037845,0.367342458,0.38813411,-0.010694454,-0.000653875,0.013201667,0.103246548,0.123047394,0.000034162,0.237093775,-0.326911546,1.741242898,-1.620086112,-1.098583777,-0.000188552,0.314578562,-0.000497776,0.122140351,0.310157325,-0.005695289,0.133329052
1704447582.73169,0.067255794,-0.033823277,0.011602166,0.107678186,0.12527911,0,-0.380509973,1.110725045,-2.681932688,-0.592850268,0.293717504,0.070009477,-0.358609299,-0.581458313,0.451849851,0.300391296,0.367373276,0.388051227,-0.01080478,-0.000692716,0.013275398,0.10311397,0.122898316,0.000048765,0.237103362,-0.326912611,1.741247691,-1.620081851,-1.098568863,-0.000177899,0.314578562,-0.000497776,0.122140351,0.310158914,-0.00569085,0.133327369
1704447582.74324,0.067410036,-0.033846774,0.011622748,0.107912625,0.125351528,0,-0.3572115,1.168723106,-2.819877148,-0.604932725,0.30548963,0.057547431,-0.359131906,-0.581593367,0.451800681,0.300560583,0.366824162,0.387519611,-0.010605941,-0.000629606,0.013340201,0.103389787,0.122963629,0.000109443,0.237093775,-0.326911546,1.741235441,-1.620096765,-1.098590701,-0.000203466,0.314578562,-0.000497776,0.122140351,0.310159209,-0.005697389,0.133331306
1704447582.75429,0.067361819,-0.033831657,0.011577479,0.107820484,0.125363593,0,-0.356979668,1.202755094,-2.77983284,-0.604248047,0.339578599,0.069296286,-0.358814221,-0.581602873,0.452000114,0.300623044,0.367052117,0.388022622,-0.010672108,-0.000643014,0.01327896,0.103279564,0.122978061,0.000081671,0.237093775,-0.326911546,1.741242898,-1.620096765,-1.098579516,-0.000188552,0.314578562,-0.000497776,0.122140351,0.310159311,-0.005697297,0.133329664
1704447582.76547,0.067366543,-0.03383783,0.011648848,0.107859233,0.12526511,0,-0.363278866,1.162472367,-2.757122517,-0.627293408,0.310756147,0.069296286,-0.359069165,-0.581535904,0.452034071,0.3005289,0.367438223,0.388160313,-0.010709487,-0.000705528,0.013317978,0.103285007,0.122884308,0.000032543,0.237093775,-0.326910481,1.741242898,-1.620096765,-1.09857632,-0.000173638,0.314578562,-0.000497776,0.122140351,0.310160231,-0.005697056,0.133329962
1704447582.77626,0.067357402,-0.033820014,0.011555473,0.107802221,0.125352601,0,-0.345476359,1.140151024,-2.773810148,-0.58194083,0.310756147,0.046396222,-0.358919582,-0.581647348,0.451936687,0.300686905,0.367522788,0.388192831,-0.01067602,-0.000703735,0.013227802,0.103251525,0.122972891,0.000071438,0.237093775,-0.326911013,1.741247691,-1.620096765,-1.09857632,-0.000181095,0.314578562,-0.000497776,0.122140351,0.310158426,-0.005697492,0.133328795
1704447582.78732,0.067416032,-0.033834195,0.011604912,0.107910127,0.125328383,0,-0.339968473,1.128296614,-2.756527901,-0.598520935,0.299301982,0.049168546,-0.359100387,-0.581560994,0.452006545,0.300504288,0.367496988,0.388191545,-0.010620583,-0.00067432,0.013294193,0.103359442,0.122945159,0.000067085,0.237086318,-0.326911546,1.741245028,-1.620086112,-1.098579516,-0.000188552,0.314578562,-0.000497776,0.122140351,0.31015758,-0.005697505,0.133328576
1704447582.79932,0.067442526,-0.033852467,0.01172912,0.108005275,0.125190131,0,-0.333775103,1.081891775,-2.710484028,-0.57018441,0.310809404,0.05305611,-0.359100682,-0.581658191,0.451866056,0.300599983,0.367375206,0.388197481,-0.010600264,-0.000716619,0.01340593,0.103443475,0.12280891,0.000050062,0.237100966,-0.326913144,1.741242898,-1.620089308,-1.098579516,-0.00019228,0.314578562,-0.000497776,0.122140351,0.310158543,-0.005693503,0.133328736
1704447582.81042,0.067279202,-0.033865059,0.011758159,0.107788063,0.125185325,0,-0.368303567,1.179778457,-2.779564857,-0.592850268,0.322265625,0.054594286,-0.359040285,-0.581427694,0.451456129,0.300715325,0.36674816,0.387113667,-0.010668815,-0.000659884,0.013482693,0.1032771,0.122798081,0.000122066,0.237096172,-0.326909415,1.741227984,-1.620086112,-1.098583777,-0.000199737,0.314578562,-0.000497776,0.122140351,0.310163003,-0.005693177,0.133332827
1704447582.822,0.067386562,-0.033851186,0.011711903,0.107918116,0.125212517,0,-0.386254311,1.071928024,-2.722729683,-0.58148545,0.310756147,0.056677647,-0.359086455,-0.581505006,0.451733989,0.300829105,0.367390458,0.387847647,-0.010594002,-0.000699522,0.013407513,0.103384998,0.122829753,0.000091912,0.237091112,-0.326912611,1.741238104,-1.620096765,-1.098579516,-0.000196009,0.314578562,-0.000497776,0.122140351,0.31016093,-0.005697728,0.133330352
1704447582.83351,0.067399106,-0.033819127,0.011560326,0.107863468,0.125341707,0,-0.323086679,1.209167361,-2.785301685,-0.592738569,0.305055678,0.056677647,-0.359099212,-0.5815847,0.451899992,0.300433142,0.3674884,0.388150536,-0.010654908,-0.000695678,0.013232332,0.103308379,0.122961484,0.000065614,0.237096172,-0.326912611,1.741247691,-1.620100493,-1.098568863,-0.000199737,0.314578562,-0.000497776,0.122140351,0.310160468,-0.005697093,0.133328489
1704447582.84466,0.067330996,-0.033861958,0.011770599,0.107866937,0.125153112,0,-0.368348539,1.106722593,-2.756906509,-0.599184573,0.333824724,0.047454827,-0.359170424,-0.581582626,0.45144038,0.300445658,0.367182112,0.38816057,-0.0107145,-0.000674233,0.013468894,0.103314815,0.122767701,0.000062707,0.237100966,-0.326912611,1.741230647,-1.620089308,-1.098583777,-0.000196009,0.314578562,-0.000497776,0.122140351,0.310161992,-0.005692695,0.1333315
1704447582.85672,0.067398882,-0.033832871,0.01159982,0.107883505,0.125331352,0,-0.398118466,1.197000504,-2.773810148,-0.592738569,0.328020364,0.046037946,-0.35908043,-0.581636827,0.452017195,0.300779604,0.367505613,0.388203563,-0.010592613,-0.000675263,0.013294755,0.103338123,0.12294816,0.000070178,0.237098569,-0.326910481,1.741250354,-1.620086112,-1.098590701,-0.00019228,0.314578562,-0.000497776,0.122140351,0.310153001,-0.005694896,0.133327851
1704447582.86796,0.067316831,-0.033864543,0.011795926,0.107857922,0.125119281,0,-0.333775103,1.179848671,-2.762276649,-0.592766464,0.310969204,0.049168546,-0.358579056,-0.581379584,0.451905712,0.30003651,0.367269414,0.38815639,-0.010801016,-0.000700443,0.01347371,0.103297514,0.122736044,0.000061227,0.237105759,-0.32690835,1.741240767,-1.620100493,-1.098572059,-0.00019228,0.314578562,-0.000497776,0.122140351,0.310162697,-0.005693613,0.133331245
1704447582.87966,0.067320247,-0.033827235,0.011570108,0.107757307,0.125355283,0,-0.339578599,1.145251751,-2.791341066,-0.633126378,0.287794709,0.054594286,-0.359142899,-0.581526909,0.451920395,0.300520651,0.367249433,0.3881391,-0.010708863,-0.000655004,0.013265661,0.103207214,0.122971025,0.000065614,0.237096172,-0.326913144,1.741238104,-1.620078655,-1.098583777,-0.000184823,0.314578562,-0.000497776,0.122140351,0.310158277,-0.00569256,0.133329132
1704447582.8911,0.067387162,-0.033837721,0.011605279,0.107869173,0.125340974,0,-0.339529842,1.150963068,-2.745615721,-0.610029936,0.299744248,0.041895162,-0.359125322,-0.581521617,0.452016399,0.300562085,0.366774921,0.388188794,-0.010653217,-0.000627198,0.01331374,0.103324343,0.122953707,0.000072909,0.237093775,-0.326912611,1.741240767,-1.620096765,-1.09857632,-0.000184823,0.314578562,-0.000497776,0.122140351,0.31016078,-0.005696923,0.133329771
1704447582.90209,0.067369638,-0.033831159,0.011586091,0.107835062,0.125346007,0,-0.362548828,1.203415751,-2.802849293,-0.592850268,0.310756147,0.06735754,-0.35910448,-0.581453605,0.451994138,0.300720265,0.367393441,0.388182712,-0.010624737,-0.000669209,0.013281862,0.103283358,0.122962459,0.000058319,0.237083921,-0.326911013,1.741242898,-1.620081851,-1.098579516,-0.000184823,0.314578562,-0.000497776,0.122140351,0.310158035,-0.005697129,0.133328928
1704447582.91335,0.067373467,-0.033831914,0.011608287,0.107851996,0.125312845,0,-0.345476359,1.030356288,-2.825865984,-0.575589418,0.310756147,0.05147199,-0.359139762,-0.581644836,0.451902966,0.300658359,0.367490447,0.388031496,-0.010647545,-0.000675938,0.013298969,0.103311754,0.122929906,0.000084616,0.237093775,-0.326910481,1.741247691,-1.620093036,-1.09857632,-0.000184823,0.314578562,-0.000497776,0.122140351,0.310158164,-0.005696676,0.13332873
1704447582.92454,0.067335291,-0.03382385,0.01155598,0.107772179,0.125366887,0,-0.333973497,1.105045557,-2.751254797,-0.6043576,0.333824724,0.069296286,-0.359093179,-0.581524049,0.451918974,0.300661297,0.367140776,0.387419604,-0.010656808,-0.000648252,0.013261301,0.103248964,0.122982201,0.00010946,0.237098569,-0.326912611,1.741240767,-1.620093036,-1.098583777,-0.00019228,0.314578562,-0.000497776,0.122140351,0.310158608,-0.005695133,0.133329597
1704447582.93619,0.067318859,-0.03384153,0.011692422,0.107810242,0.125201094,0,-0.356840491,1.024926066,-2.745163441,-0.610111356,0.316510886,0.058687095,-0.359118945,-0.581521145,0.451887752,0.30065773,0.367323292,0.388113554,-0.010705389,-0.000683382,0.013382474,0.103258324,0.122817953,0.000062878,0.237096172,-0.326913676,1.741240767,-1.620089308,-1.098568863,-0.000177899,0.314578562,-0.000497776,0.122140351,0.310161922,-0.005694103,0.133328953
1704447582.94801,0.067325651,-0.033834085,0.011646496,0.107799,0.125250934,0,-0.34571594,1.16281426,-2.762492657,-0.616187632,0.293548316,0.056677647,-0.359141843,-0.581589368,0.451983451,0.300657572,0.36739364,0.388140172,-0.010702927,-0.000709328,0.013322575,0.103243798,0.122870505,0.000061252,0.237096172,-0.326910481,1.741245028,-1.620089308,-1.098572059,-0.00019228,0.314578562,-0.000497776,0.122140351,0.310159904,-0.00569461,0.133329038
1704447582.9599,0.067273335,-0.033876173,0.011884831,0.107837579,0.125011421,0,-0.374058306,1.191245675,-2.81407547,-0.575589418,0.305055678,0.049168546,-0.359102236,-0.581618458,0.45110578,0.300605909,0.367160301,0.388151331,-0.010761135,-0.000717326,0.013573085,0.103282322,0.122628287,0.000058319,0.237103362,-0.326911013,1.741242898,-1.620089308,-1.098583777,-0.000210922,0.314578562,-0.000497776,0.122140351,0.31015771,-0.00569299,0.133329404
1704447582.97093,0.0673026,-0.033847668,0.011676187,0.107783472,0.125257086,0,-0.374765933,1.053133726,-2.75652194,-0.598603964,0.299301982,0.061980482,-0.359200289,-0.581656458,0.45206518,0.300566755,0.367425539,0.388182236,-0.010723577,-0.000713408,0.01335672,0.103228985,0.122875879,0.000061219,0.237093775,-0.326912611,1.741250354,-1.620081851,-1.098579516,-0.00019228,0.314578562,-0.000497776,0.122140351,0.310155202,-0.005694771,0.13332688
1704447582.98233,0.067373417,-0.03383216,0.011621339,0.107856172,0.125289375,0,-0.351227969,1.197000504,-2.762426615,-0.610111356,0.293548316,0.070009477,-0.359158709,-0.581584088,0.451966992,0.300316236,0.367437227,0.388130505,-0.010710682,-0.00068886,0.013294646,0.103286723,0.122907698,0.000041437,0.237091112,-0.326911546,1.741240767,-1.620096765,-1.09857632,-0.000188552,0.314578562,-0.000497776,0.122140351,0.310160878,-0.005697722,0.133330091
1704447582.99496,0.067295768,-0.033842072,0.011724962,0.107791809,0.125145686,0,-0.351086527,1.13945365,-2.750791311,-0.587237597,0.305001378,0.044945981,-0.358779827,-0.581516677,0.451854595,0.300450045,0.367255675,0.387551484,-0.01073081,-0.000713471,0.013406236,0.103257503,0.122764883,0.000099256,0.237091112,-0.326910481,1.741238104,-1.620089308,-1.098583777,-0.00019228,0.314578562,-0.000497776,0.122140351,0.310159445,-0.005696354,0.133330572
1704447583.00603,0.067357362,-0.033823334,0.011521355,0.107789512,0.125427093,0,-0.362594485,1.018995881,-2.733509064,-0.610029936,0.287737161,0.065614171,-0.359126626,-0.58157164,0.451817249,0.300676183,0.367109455,0.388183161,-0.010647762,-0.000625003,0.013229778,0.103239776,0.123040681,0.000059748,0.237091112,-0.326913144,1.741242898,-1.620081851,-1.098590701,-0.000188552,0.314578562,-0.000497776,0.122140351,0.310155028,-0.005695703,0.133328363
1704447583.01881,0.067353431,-0.033820341,0.011484567,0.107767515,0.125478909,0,-0.356840491,1.185532928,-2.745163441,-0.610002756,0.333775103,0.069296286,-0.35873305,-0.581593584,0.451934896,0.300580352,0.366942865,0.388039756,-0.010675022,-0.000610114,0.013195912,0.103229072,0.123091619,0.000083146,0.237091112,-0.326913676,1.741240767,-1.620086112,-1.09859443,-0.00019228,0.314578562,-0.000497776,0.122140351,0.310155172,-0.005696696,0.133328932
1704447583.03006,0.067327976,-0.03384378,0.011685548,0.107821889,0.125224431,0,-0.339529842,1.168567181,-2.77983284,-0.598520935,0.328070819,0.046037946,-0.359114766,-0.581571241,0.451771661,0.300613858,0.367367261,0.387437544,-0.010671444,-0.000683856,0.013383371,0.103295272,0.122841033,0.000105997,0.237103362,-0.326911546,1.74123331,-1.620081851,-1.098564602,-0.000184823,0.314578562,-0.000497776,0.122140351,0.310165346,-0.00568927,0.133330684
1704447583.04298,0.067264781,-0.033863188,0.011787628,0.107780442,0.125125615,0,-0.351463616,1.162970901,-2.756672144,-0.576509237,0.322265625,0.05783445,-0.358467174,-0.581318847,0.451577123,0.300245271,0.367263124,0.388135172,-0.010817394,-0.000687574,0.013475779,0.10322218,0.122741292,0.000058319,0.237086318,-0.326911013,1.741245028,-1.620078655,-1.098572059,-0.000199737,0.314578562,-0.000497776,0.122140351,0.310158879,-0.005695386,0.133328238
1704447583.05409,0.067325441,-0.03383083,0.011644254,0.107795916,0.125239964,0,-0.356840491,1.151006222,-2.802937984,-0.587011993,0.310809404,0.046037946,-0.359027501,-0.581278542,0.451925278,0.300440029,0.367363266,0.388109495,-0.010730561,-0.000738192,0.013304008,0.103238876,0.122862208,0.000065614,0.237100966,-0.326911013,1.741245028,-1.620093036,-1.098564602,-0.000184823,0.314578562,-0.000497776,0.122140351,0.310162074,-0.00569344,0.133329052
1704447583.06516,0.06731372,-0.033848206,0.011681301,0.107801125,0.125250538,0,-0.368303567,1.151178837,-2.762372732,-0.587237597,0.305055678,0.05305611,-0.359165976,-0.581367528,0.451917977,0.300677688,0.367410693,0.388168534,-0.010697705,-0.000684803,0.013374675,0.103247282,0.122866957,0.000056919,0.237110819,-0.326909415,1.741245028,-1.620089308,-1.098579516,-0.000188552,0.314578562,-0.000497776,0.122140351,0.310158221,-0.005690538,0.133329407
1704447583.07655,0.067325492,-0.033856207,0.011778635,0.107861015,0.125114345,0,-0.345332533,1.053133726,-2.848650217,-0.598603964,0.328020364,0.04069218,-0.359074964,-0.581622799,0.451975551,0.30043429,0.367265122,0.388157365,-0.010734079,-0.000722133,0.01345362,0.103305576,0.122733304,0.000064664,0.237091112,-0.326911546,1.741235441,-1.620086112,-1.098572059,-0.000196009,0.314578562,-0.000497776,0.122140351,0.310162983,-0.005694674,0.133330542
1704447583.0878,0.067343202,-0.033828968,0.011578107,0.107793521,0.125350017,0,-0.356979668,1.185532928,-2.756546021,-0.598493278,0.287967265,0.06735754,-0.35904039,-0.581589781,0.451976899,0.300681746,0.367519949,0.388195019,-0.01068279,-0.000681823,0.013263945,0.103244534,0.122967784,0.000070026,0.237093775,-0.326908883,1.741242898,-1.620089308,-1.098579516,-0.000196009,0.314578562,-0.000497776,0.122140351,0.310158957,-0.005695623,0.133330015
1704447583.09938,0.067404378,-0.033851315,0.011713855,0.107943325,0.125209238,0,-0.391491741,1.12794435,-2.832041264,-0.592738569,0.333824724,0.044945981,-0.359103407,-0.581598361,0.451792463,0.300434778,0.367245191,0.388180303,-0.010638926,-0.000675701,0.013408457,0.103396182,0.122824777,0.000072909,0.237100966,-0.326912611,1.741247691,-1.620093036,-1.098568863,-0.00019228,0.314578562,-0.000497776,0.122140351,0.310159858,-0.005694001,0.133328041
1704447583.11133,0.067368636,-0.033833585,0.011591219,0.107837425,0.125348724,0,-0.368707985,1.214469075,-2.785301685,-0.598493278,0.333824724,0.056677647,-0.35915646,-0.581527941,0.451977496,0.300415863,0.367387182,0.38816326,-0.010688952,-0.000661693,0.013280623,0.103277805,0.122964644,0.000052495,0.237098569,-0.326910481,1.741245028,-1.620089308,-1.098583777,-0.000188552,0.314578562,-0.000497776,0.122140351,0.310156963,-0.005694651,0.133329116
1704447583.12363,0.067276901,-0.033849462,0.011790264,0.107795006,0.125062095,0,-0.368707985,1.06476748,-2.768755198,-0.639191151,0.293999225,0.057547431,-0.359103719,-0.581526435,0.451762406,0.300539785,0.367161481,0.387530499,-0.01072976,-0.000754684,0.013461384,0.103260369,0.12268393,0.000099256,0.237098569,-0.326912611,1.741242898,-1.620086112,-1.098583777,-0.000181095,0.314578562,-0.000497776,0.122140351,0.310157238,-0.00569383,0.133328733
1704447583.135,0.067380048,-0.033822114,0.011498559,0.107812063,0.125463533,0,-0.3572115,1.133815885,-2.745229483,-0.587011993,0.299246639,0.064339988,-0.359108206,-0.581618942,0.45195039,0.300730869,0.367171756,0.387858576,-0.010605178,-0.00063202,0.0132088,0.103280771,0.123077706,0.000091945,0.237100966,-0.326911013,1.741247691,-1.620086112,-1.098579516,-0.000188552,0.314578562,-0.000497776,0.122140351,0.310156749,-0.005693182,0.133328176
1704447583.14849,0.067352521,-0.033825129,0.011563826,0.10780054,0.125359544,0,-0.374456495,1.076198578,-2.802559853,-0.587096632,0.310756147,0.058687095,-0.359067846,-0.581520346,0.451938605,0.300692639,0.367509916,0.387630066,-0.010615161,-0.000678773,0.013260395,0.103271064,0.122977118,0.000097251,0.237093775,-0.326909415,1.741252485,-1.620086112,-1.09857632,-0.00019228,0.314578562,-0.000497776,0.122140351,0.310155937,-0.00569558,0.133327626
1704447583.15958,0.067244528,-0.033829408,0.011630996,0.107674811,0.125253024,0,-0.345332533,1.13949728,-2.785295725,-0.598742247,0.305218488,0.046396222,-0.358684805,-0.581428446,0.451882714,0.300503222,0.3672174,0.387882441,-0.010767563,-0.000680404,0.013321518,0.103134308,0.122870523,0.00008315,0.237100966,-0.326911013,1.741235441,-1.620089308,-1.098564602,-0.000188552,0.314578562,-0.000497776,0.122140351,0.31016525,-0.005691793,0.133330844
1704447583.17176,0.06738669,-0.033837749,0.011614582,0.107873589,0.125326208,0,-0.374765933,1.197000504,-2.831479788,-0.56974864,0.316563189,0.046037946,-0.359141694,-0.581586787,0.452052181,0.300684765,0.36726809,0.388039576,-0.010639481,-0.00066262,0.013311618,0.103332499,0.122941746,0.000081679,0.237096172,-0.326909415,1.741240767,-1.620089308,-1.098561407,-0.000188552,0.314578562,-0.000497776,0.122140351,0.310164258,-0.005693493,0.133330182
1704447583.18313,0.067437318,-0.033826977,0.011530835,0.107907657,0.125429465,0,-0.374235332,1.151178837,-2.739644766,-0.587096632,0.299301982,0.052111421,-0.359059605,-0.581642597,0.452009725,0.300855307,0.367513122,0.387340591,-0.010528569,-0.000670419,0.013232875,0.103389341,0.12304623,0.000116759,0.237086318,-0.326910481,1.741242898,-1.620089308,-1.098590701,-0.000203466,0.314578562,-0.000497776,0.122140351,0.310155923,-0.005698726,0.13332961
1704447583.19422,0.067353637,-0.033845556,0.011735552,0.107877831,0.125142677,0,-0.340309262,1.151006222,-2.756546021,-0.615865111,0.310756147,0.046037946,-0.359035731,-0.581577817,0.451928188,0.300719959,0.367272273,0.388100065,-0.010616225,-0.000730135,0.013415633,0.103317181,0.122762759,0.000042763,0.237086318,-0.326910481,1.741240767,-1.620081851,-1.098561407,-0.000181095,0.314578562,-0.000497776,0.122140351,0.31016345,-0.005694972,0.133329414
1704447583.20616,0.067393262,-0.033834368,0.011577012,0.10786599,0.12537762,0,-0.385610729,1.156703353,-2.699029684,-0.604248047,0.299301982,0.069056921,-0.359136992,-0.581428007,0.451996422,0.300470106,0.367187126,0.388208748,-0.010649613,-0.000651663,0.013274533,0.103320807,0.122992602,0.000075851,0.237096172,-0.326910481,1.741242898,-1.620093036,-1.098583777,-0.00019228,0.314578562,-0.000497776,0.122140351,0.310158045,-0.005696009,0.133329788
1704447583.21973,0.067345753,-0.033814751,0.01151228,0.107766102,0.125405228,0,-0.339578599,1.031400323,-2.716391325,-0.610436976,0.316510886,0.060081284,-0.358893514,-0.581546299,0.451864702,0.300550516,0.367425656,0.387604869,-0.010674578,-0.000664474,0.013202478,0.103233488,0.123022696,0.000099219,0.237093775,-0.326913676,1.741242898,-1.620093036,-1.098583777,-0.000188552,0.314578562,-0.000497776,0.122140351,0.31015769,-0.005696835,0.133328829
1704447583.23155,0.067331062,-0.033842613,0.011657348,0.107814392,0.125269785,0,-0.362594485,1.081907034,-2.814281225,-0.598520935,0.299246639,0.070009477,-0.359030618,-0.581333513,0.451859992,0.300406996,0.367289381,0.387433024,-0.010700933,-0.0006769,0.01335209,0.103284549,0.122886059,0.00010451,0.237105759,-0.326910481,1.741247691,-1.620096765,-1.09857632,-0.00019228,0.314578562,-0.000497776,0.122140351,0.310158551,-0.005693761,0.133328955
1704447583.24268,0.067369294,-0.033857289,0.011758247,0.107914308,0.125156079,0,-0.374456495,1.018735886,-2.78544426,-0.563994229,0.322265625,0.060081284,-0.359153379,-0.581677063,0.451751097,0.300719181,0.367337477,0.388220508,-0.01065544,-0.000698627,0.013448879,0.103369281,0.122772922,0.000075851,0.237098569,-0.326913144,1.741242898,-1.620081851,-1.098572059,-0.000210922,0.314578562,-0.000497776,0.122140351,0.310159772,-0.005692142,0.133328238
1704447583.25444,0.067214407,-0.033852474,0.011704532,0.107670936,0.125223735,0,-0.368348539,1.202961564,-2.756576061,-0.610111356,0.305001378,0.041498043,-0.358302098,-0.581201927,0.451647002,0.30054994,0.366739679,0.387219851,-0.010795724,-0.000648945,0.013418517,0.103149971,0.122836862,0.000113357,0.237110819,-0.326911013,1.741238104,-1.620089308,-1.098579516,-0.000196009,0.314578562,-0.000497776,0.122140351,0.310160574,-0.00568997,0.133330383
1704447583.26607,0.06731497,-0.033854477,0.01171854,0.10781921,0.125210896,0,-0.345476359,1.214305401,-2.751152515,-0.598603964,0.305218488,0.035004739,-0.359136834,-0.581343318,0.452091689,0.300611399,0.367237305,0.387614834,-0.010687043,-0.000690689,0.013417121,0.103288983,0.122827194,0.000099256,0.237100966,-0.326909415,1.74123331,-1.620086112,-1.098579516,-0.000196009,0.314578562,-0.000497776,0.122140351,0.310162163,-0.005691874,0.133331679
1704447583.27832,0.067261532,-0.033847088,0.011760743,0.107759274,0.125102724,0,-0.35103935,1.087661624,-2.756618023,-0.587011993,0.299246639,0.05305611,-0.358610252,-0.581529138,0.452059343,0.300611255,0.367230924,0.388128297,-0.010759653,-0.000750103,0.013428391,0.103210947,0.122724469,0.000075851,0.237096172,-0.326911013,1.741240767,-1.620089308,-1.098564602,-0.00019228,0.314578562,-0.000497776,0.122140351,0.310163281,-0.005693749,0.133329724
1704447583.28938,0.067272701,-0.033843337,0.011651503,0.107728535,0.125279609,0,-0.345332533,1.105644822,-2.785301685,-0.6043576,0.293548316,0.052111421,-0.358928532,-0.581271054,0.451784863,0.300607845,0.36706249,0.388166219,-0.010712939,-0.000660344,0.01335828,0.103188247,0.122894317,0.000075851,0.237096172,-0.326909415,1.741240767,-1.620081851,-1.098579516,-0.00019228,0.314578562,-0.000497776,0.122140351,0.310159053,-0.005693101,0.133329855
1704447583.30139,0.067328227,-0.033841809,0.011691799,0.107824751,0.125205508,0,-0.362731457,1.168226957,-2.756816387,-0.587011993,0.281982422,0.049168546,-0.359133908,-0.581597537,0.451918756,0.300605003,0.367351236,0.387804029,-0.010689647,-0.000708586,0.013374763,0.103285554,0.122824349,0.000088457,0.237098569,-0.326912611,1.741242898,-1.620093036,-1.09857632,-0.000188552,0.314578562,-0.000497776,0.122140351,0.310159711,-0.005694821,0.133329099
1704447583.31242,0.0673571,-0.033821357,0.011553392,0.107801528,0.125361838,0,-0.333775103,1.139802456,-2.739644766,-0.581684709,0.299301982,0.056677647,-0.359125408,-0.581552493,0.451920345,0.300653983,0.367388885,0.388125071,-0.010674238,-0.000652023,0.013244041,0.103233265,0.122977875,0.000032502,0.237093775,-0.326911546,1.741250354,-1.620089308,-1.09857632,-0.000173638,0.314578562,-0.000497776,0.122140351,0.31015676,-0.005696135,0.133327627
1704447583.32386,0.067298099,-0.03386382,0.01181897,0.10783968,0.125073089,0,-0.374456495,1.087661624,-2.762570381,-0.592738569,0.322317004,0.057547431,-0.359173819,-0.581422593,0.451882266,0.300683706,0.367215713,0.388111908,-0.010733353,-0.000724225,0.013498199,0.103269053,0.12269149,0.000031261,0.237093775,-0.326909415,1.74123331,-1.620086112,-1.098568863,-0.000170442,0.314578562,-0.000497776,0.122140351,0.310164809,-0.005693391,0.133331608
1704447583.336,0.067313967,-0.033853151,0.011773009,0.107840698,0.125109458,0,-0.356794089,1.041672111,-2.81407547,-0.598493278,0.328020364,0.063563213,-0.35910592,-0.581592009,0.451795487,0.30070574,0.367245235,0.388145566,-0.010676589,-0.000727948,0.0134564,0.103297396,0.122728826,0.000077321,0.237096172,-0.326911546,1.741235441,-1.620086112,-1.098572059,-0.000196009,0.314578562,-0.000497776,0.122140351,0.310163012,-0.005693104,0.133330542
1704447583.34849,0.067330141,-0.033852621,0.011716098,0.107840774,0.12520993,0,-0.356979668,1.13949728,-2.76230073,-0.621512294,0.276227683,0.036396194,-0.35885754,-0.581420721,0.451855074,0.300641766,0.367388405,0.388215516,-0.010707796,-0.000695886,0.013403706,0.10329446,0.122826995,0.000075851,0.237098569,-0.326909415,1.741242898,-1.620100493,-1.098579516,-0.00019228,0.314578562,-0.000497776,0.122140351,0.310159885,-0.005696558,0.133330528
1704447583.35993,0.067247348,-0.03384644,0.011781052,0.107747569,0.125063372,0,-0.374235332,1.150963068,-2.785676003,-0.621538937,0.293548316,0.052111421,-0.359127488,-0.581529495,0.452029592,0.300561845,0.367164521,0.388052738,-0.010751328,-0.000754074,0.013447721,0.103183626,0.122685426,0.000043712,0.237098569,-0.326913144,1.741240767,-1.620086112,-1.098561407,-0.000184823,0.314578562,-0.000497776,0.122140351,0.310163599,-0.005692158,0.133328871
1704447583.37127,0.06728907,-0.0338356,0.01163683,0.107744113,0.125273371,0,-0.386639953,1.197871685,-2.773810148,-0.604494631,0.328070819,0.046037946,-0.358821741,-0.581564668,0.451874191,0.30061543,0.36741679,0.388157531,-0.010721376,-0.000676095,0.013330555,0.103198756,0.122890062,0.000072909,0.237093775,-0.326911546,1.741242898,-1.620081851,-1.098579516,-0.000184823,0.314578562,-0.000497776,0.122140351,0.310158035,-0.005694087,0.133328768
1704447583.38299,0.067264053,-0.033830834,0.01155595,0.107674025,0.125395346,0,-0.374235332,1.163369417,-2.727748394,-0.598935843,0.333775103,0.057547431,-0.358953649,-0.581403497,0.451968006,0.300583535,0.367203082,0.387469263,-0.010702748,-0.000653139,0.013265669,0.103151102,0.123010411,0.000105997,0.237103362,-0.326909415,1.741240767,-1.620081851,-1.09859443,-0.000196009,0.314578562,-0.000497776,0.122140351,0.310155333,-0.005691869,0.133329955
1704447583.39404,0.067374317,-0.033844981,0.011664106,0.107878419,0.125268799,0,-0.345476359,1.105450153,-2.779546976,-0.6043576,0.310756147,0.040283203,-0.359125271,-0.581526571,0.451810921,0.300769878,0.367201409,0.388195298,-0.010635548,-0.00066421,0.013364406,0.103327317,0.122883824,0.00005979,0.237088715,-0.326912611,1.741238104,-1.620093036,-1.098579516,-0.000188552,0.314578562,-0.000497776,0.122140351,0.310160597,-0.005697669,0.133330128
1704447583.40529,0.067257743,-0.033841668,0.011698907,0.10772774,0.12518945,0,-0.35103935,1.081907034,-2.733557463,-0.610436976,0.310756147,0.063563213,-0.359135729,-0.581519234,0.451903606,0.300595912,0.367322909,0.387956666,-0.010710355,-0.00072315,0.013383456,0.10318981,0.122809277,0.000084633,0.237100966,-0.326911013,1.741242898,-1.620086112,-1.09857632,-0.000196009,0.314578562,-0.000497776,0.122140351,0.310159303,-0.005692546,0.133329162
1704447583.41834,0.067250834,-0.033846772,0.0116673,0.107705837,0.125266764,0,-0.368303567,1.202741385,-2.779636383,-0.581342995,0.299301982,0.052111421,-0.358899249,-0.58108471,0.451930799,0.300564301,0.3673031,0.388134501,-0.010766491,-0.000673495,0.013361117,0.103135901,0.122882443,0.00002683,0.237100966,-0.32690835,1.741240767,-1.620086112,-1.098583777,-0.000177899,0.314578562,-0.000497776,0.122140351,0.310158484,-0.005692789,0.133330459
1704447583.42952,0.067302079,-0.033850466,0.011756739,0.107816027,0.125125459,0,-0.356840491,1.150963068,-2.733721256,-0.581257582,0.305055678,0.051792689,-0.359064072,-0.581567693,0.45154144,0.300687,0.367256984,0.387955173,-0.010638814,-0.00071042,0.013453988,0.103280963,0.122743433,0.000083158,0.237088715,-0.326914742,1.74123331,-1.620081851,-1.098572059,-0.00019228,0.314578562,-0.000497776,0.122140351,0.31016304,-0.005694395,0.133329774
1704447583.44083,0.067323974,-0.033816682,0.011503575,0.107732754,0.125428493,0,-0.328474373,1.065389395,-2.76808548,-0.569719553,0.270534128,0.046396222,-0.358903293,-0.58156352,0.451903202,0.300624692,0.367224217,0.388001186,-0.010670634,-0.000637654,0.01320772,0.103195343,0.123043574,0.00008315,0.237096172,-0.326912611,1.741242898,-1.620093036,-1.098572059,-0.00019228,0.314578562,-0.000497776,0.122140351,0.310160772,-0.005695279,0.13332907
1704447583.45192,0.067380595,-0.033845542,0.011655922,0.107885402,0.125287513,0,-0.3572115,1.185602903,-2.768127203,-0.587011993,0.310969204,0.056677647,-0.35912775,-0.581513185,0.451645624,0.300507775,0.367340781,0.387488194,-0.010638865,-0.000672695,0.013355278,0.103357791,0.122903181,0.000105997,0.237098569,-0.326910481,1.741245028,-1.620096765,-1.098583777,-0.000196009,0.314578562,-0.000497776,0.122140351,0.310157601,-0.005696256,0.133329564
1704447583.46308,0.067268709,-0.033833692,0.011626424,0.107710654,0.125283316,0,-0.362959653,1.168723106,-2.739257813,-0.6043576,0.287967265,0.052111421,-0.358817294,-0.581551004,0.451975433,0.300593184,0.367419051,0.387422819,-0.010716517,-0.000681916,0.013322827,0.103183132,0.122900526,0.000103039,0.237088715,-0.326910481,1.741240767,-1.620089308,-1.09857632,-0.000181095,0.314578562,-0.000497776,0.122140351,0.31016034,-0.005696832,0.133329962
1704447583.47412,0.067321758,-0.033837581,0.011624884,0.10778474,0.125303205,0,-0.368707985,1.122189641,-2.727772474,-0.598520935,0.333775103,0.047454827,-0.358815056,-0.581537596,0.451996067,0.30046986,0.3669625,0.38780469,-0.010714058,-0.000647653,0.013327712,0.10324743,0.122917545,0.000088457,0.237098569,-0.326913144,1.741235441,-1.620089308,-1.098579516,-0.000188552,0.314578562,-0.000497776,0.122140351,0.310161248,-0.00569359,0.133330304
1704447583.4855,0.081339049,-0.033475106,0.007590709,0.125808677,0.13133438,0,-0.356840491,1.093416333,-2.756546021,-0.563994229,0.339578599,0.051792689,0.364295457,-0.602220446,0.463809313,0.325839181,0.382317957,0.40124644,0.003370865,-0.000334817,0.009285729,0.121286595,0.128952458,0.000111825,0.237096172,-0.326914742,1.741240767,-1.620089308,-1.098586973,-0.00019228,0.314578383,0.000600311,0.122140351,0.310157241,-0.005695343,0.133328754
1704447583.49674,0.063604761,-0.033951812,0.013037315,0.103160597,0.123184249,0,0.381379277,1.156832218,-2.727772474,-0.564229012,0.339529842,0.049168546,-0.116983062,0.599253337,0.466466672,0.30190897,0.3731321,0.400423378,-0.020486512,0.000018768,0.014167967,0.098156592,0.120757763,0.000081683,0.237439453,-0.326913676,1.741247691,-1.620074394,-1.098572059,-0.000188552,0.314578383,0.000600311,0.122140351,0.310159251,-0.005585245,0.133326622
1704447583.5086,0.086275109,-0.033472138,0.006453665,0.132302487,0.133493655,0,-0.056969054,2.371296406,-2.710508585,-0.610247016,0.293548316,0.065614171,0.261664926,-0.595447476,0.46108755,0.330961356,0.382865891,0.400576795,0.010543068,-0.000600184,0.008360805,0.127921146,0.131125322,0.000053941,0.237570747,-0.326856152,1.741250354,-1.620115407,-1.098586973,-0.00019228,0.314578383,0.000600311,0.122140351,0.310164909,-0.005553097,0.133345893
1704447583.51988,0.110190038,-0.03289789,0.00045445,0.163439798,0.142418044,0,0.25921908,1.087646484,-2.756576061,-0.581342995,0.305218488,0.052111421,0.434957655,0.679448918,0.513223719,0.389203505,0.425701368,0.45347459,0.027854359,0.000769907,0.001719928,0.158552465,0.140009472,0.000057361,0.2374296,-0.326883316,1.741242898,-1.620063742,-1.098550221,-0.000181095,0.314554848,0.003894475,0.122140351,0.310168781,-0.005583336,0.133335957
1704447583.53104,0.122604513,-0.031436895,-0.010812095,0.175718125,0.156294772,0,0.433481544,2.463359594,-2.704882383,-0.506417394,0.362959653,0.041895162,0.440518571,-0.659830466,-0.395842125,0.401439861,0.439436169,0.452545608,0.044431219,-0.000243875,-0.009906437,0.171051611,0.154069775,0.00009192,0.237612026,-0.326706483,1.741036236,-1.619982249,-1.098550221,-0.000196009,0.314554848,0.003894475,0.122140351,0.310257026,-0.005486396,0.13342761
1704447583.54262,0.108059261,-0.034459776,0.011462435,0.165533022,0.129759147,0,0.431950867,1.12816453,-3.281056881,-0.489153177,0.437398344,0.05783445,0.433292602,0.57749109,0.371068214,0.390929809,0.412049113,0.452214984,0.027328966,0.001539217,0.01387854,0.160924462,0.127156994,0.000067068,0.23786769,-0.32658664,1.741138502,-1.619997163,-1.098550221,-0.000188552,0.314554848,0.003894475,0.122140351,0.310235216,-0.00541622,0.133442971
1704447583.55381,0.152562569,-0.02943967,-0.020236321,0.213661,0.165436772,0,0.397244036,2.351346254,-2.819918156,-0.518725514,0.32272771,0.071182244,0.533014105,0.535797955,-0.564296634,0.470625323,0.487287188,0.514689882,0.070949133,0.004234048,-0.018861839,0.208834845,0.16302497,0.000058286,0.238138,-0.326761344,1.741191765,-1.620019001,-1.098564602,-0.000184823,0.314496819,0.007188212,0.122140351,0.310196857,-0.005347264,0.133380728
1704447583.56504,0.145297368,-0.036218214,0.006151051,0.216261359,0.14782048,0,0.512301445,2.455738544,-3.844379663,-0.414980412,0.408627301,0.064339988,0.522136726,-0.418173248,0.584992892,0.471414971,0.46760782,0.511072074,0.063111519,-0.003395023,0.007111403,0.211346722,0.145478811,0.00007875,0.238809916,-0.326408741,1.740943558,-1.619978521,-1.098516665,-0.000181095,0.314496819,0.007188212,0.122140351,0.310337033,-0.005095725,0.13353608
1704447583.57624,0.158455296,-0.030702708,-0.014026993,0.224974572,0.16019422,0,0.506450117,1.329395533,-2.653442144,-0.448906839,0.425889909,0.063302174,0.527168053,0.509417298,-0.589473871,0.480540543,0.479747433,0.51119525,0.080678563,0.003925962,-0.011723914,0.220531489,0.157691744,0.000065602,0.2388219,-0.326560009,1.741155546,-1.620041371,-1.09857632,-0.000184823,0.314496819,0.007188212,0.122140351,0.310234093,-0.005132278,0.133450209
1704447583.58841,0.212615491,-0.03219057,-0.019722699,0.299369667,0.178388493,0,0.540945888,2.239489794,-3.792484999,-0.414980412,0.402832031,0.05783445,0.666340664,0.886747468,-0.66461857,0.596073784,0.549267397,0.59237438,0.134540664,0.000187468,-0.018334538,0.294773784,0.176067397,0.00007438,0.238834151,-0.326521659,1.740833836,-1.619904485,-1.09842452,-0.000188552,0.3143658,0.011578572,0.122140351,0.310381958,-0.005059267,0.133520225
1704447583.59971,0.190160223,-0.038145047,0.015623409,0.28431548,0.141147541,0,0.650515139,1.044719696,-3.72335887,-0.316720068,0.494941384,0.051792689,0.643805395,-0.680362672,0.261321871,0.581305812,0.511618536,0.592357369,0.112005395,-0.000697364,0.018995684,0.280005812,0.138418536,0.000057369,0.239062916,-0.326337368,1.740726777,-1.619771327,-1.098465,-0.000188552,0.3143658,0.011578572,0.122140351,0.310420099,-0.004948055,0.133590392
1704447583.61105,0.177493229,-0.028760907,-0.02551802,0.246368638,0.172618553,0,0.627689242,2.533976078,-2.957960606,-0.310969204,0.460379452,0.046037946,0.617855981,0.565390397,-0.601627403,0.539757526,0.543382513,0.592350074,0.086055981,0.005644892,-0.025261797,0.240757108,0.170182513,0.000050074,0.239693287,-0.326724059,1.740687895,-1.619782512,-1.098501752,-0.000181095,0.3143658,0.011578572,0.122140351,0.310387805,-0.004763874,0.133483326
1704447583.6226,0.215245527,-0.033884959,-0.010693541,0.307245737,0.169864934,0,0.658559918,2.256042957,-3.839034796,-0.368483365,0.483535409,0.051792689,0.655879482,0.88731696,-0.679812922,0.58214037,0.540609113,0.592361202,0.124079482,0.00075696,-0.010312922,0.301677176,0.167409113,0.000061202,0.241397443,-0.326580781,1.740337423,-1.619885843,-1.098468729,-0.000173638,0.314227314,0.014869908,0.122140351,0.310555566,-0.004219712,0.133606188
1704447583.63416,0.242297313,-0.036237363,-0.003448784,0.349272395,0.168279602,0,0.691743135,1.164180398,-3.740587711,-0.316563189,0.466134191,0.05783445,0.694192394,-0.633778165,-0.670706459,0.617757579,0.538934601,0.59237438,0.162392394,-0.000992726,-0.001206459,0.344692487,0.165734601,0.00007438,0.241633399,-0.326227646,1.740649013,-1.619967335,-1.098435705,-0.000188552,0.314227314,0.014869908,0.122140351,0.310496102,-0.004180384,0.133651336
1704447583.64526,0.22452784,-0.033210634,-0.007610101,0.321491228,0.161952631,0,0.688287497,2.365262508,-3.130665064,-0.276287615,0.466276288,0.03452846,0.674291026,0.646664441,-0.674215345,0.61818878,0.53242166,0.591807734,0.142491026,0.004432211,-0.004715345,0.31688878,0.15922166,0.000091912,0.24202302,-0.326636708,1.740103597,-1.619782512,-1.098405878,-0.000184823,0.314227314,0.014869908,0.122140351,0.310644171,-0.003979411,0.133632051
1704447583.65764,0.263522262,-0.038772326,0.006168665,0.38376387,0.162908857,0,0.754661679,2.545262337,-3.809639931,-0.236014634,0.489187032,0.060081284,0.71427554,-0.467690094,0.34404892,0.680496481,0.532061161,0.591807734,0.18247554,-0.001911633,0.008897306,0.379196481,0.160237184,0.000091912,0.242755655,-0.326260669,1.739847934,-1.619752684,-1.098509209,-0.000181095,0.314054371,0.018159614,0.122140351,0.310751379,-0.003719545,0.133797891
1704447583.66894,0.229295375,-0.034942973,0.004188889,0.333716526,0.148882899,0,0.711775899,2.532616615,-3.821773291,-0.213624254,0.523681641,0.046396222,0.669170338,0.5580285,0.18916573,0.629823814,0.51571353,0.591257017,0.137370338,0.006636101,0.00720106,0.328523814,0.14587098,0.00010451,0.243807071,-0.3265664,1.739889479,-1.619704748,-1.098494295,-0.00019228,0.314054371,0.018159614,0.122140351,0.310707112,-0.003393336,0.133694215
1704447583.68109,0.256265163,-0.030087474,-0.03934098,0.351634739,0.205122508,0,0.680253506,2.503637314,-3.176748514,-0.270472944,0.425889909,0.05305611,0.681110631,0.887489045,-0.206041447,0.645836514,0.576214628,0.592096937,0.149310631,0.000929045,-0.042649551,0.344536514,0.203014628,0.000089029,0.245372478,-0.326312867,1.739667904,-1.619641897,-1.098457543,-0.000207194,0.31377021,0.022542727,0.122140351,0.310823279,-0.002864013,0.13381321
1704447583.69298,0.314869401,-0.028623315,-0.04440984,0.431901578,0.210062294,0,0.684911191,2.583879709,-3.5219028,-0.248522311,0.546973109,0.046037946,0.768787161,0.608785461,-0.700315042,0.728698562,0.580823061,0.592350974,0.236987161,0.005212115,-0.042423026,0.427398562,0.207623061,0.000050974,0.24674294,-0.326467331,1.73954167,-1.619941236,-1.098468729,-0.000184823,0.31377021,0.022542727,0.122140351,0.31087976,-0.002495593,0.133811447
1704447583.70383,0.274942068,-0.035018774,-0.014435086,0.389819134,0.183243616,0,0.823913574,2.428528786,-3.96535635,-0.179230466,0.506450117,0.054594286,0.724316287,-0.527682003,-0.682615808,0.686256804,0.554026796,0.591253021,0.192516287,-0.001271134,-0.013115808,0.384956804,0.180826796,0.000103104,0.247621517,-0.326218591,1.739320095,-1.619471455,-1.098450619,-0.000184823,0.31377021,0.022542727,0.122140351,0.310952056,-0.002093461,0.133904734
1704447583.71622,0.325843811,-0.030903665,-0.035091976,0.451917121,0.203650086,0,0.731214762,2.578227758,-3.936395645,-0.224508747,0.477678388,0.051792689,0.766158529,0.785734694,-0.701043621,0.723163687,0.574348605,0.592342714,0.234358529,0.004284368,-0.034486571,0.446348516,0.201148605,0.000042714,0.249447114,-0.326297421,1.739303051,-1.619223781,-1.098380312,-0.000196009,0.313516943,0.025827225,0.122140351,0.310949067,-0.001468344,0.133869322
1704447583.7277,0.29828661,-0.033210097,-0.021531321,0.419309707,0.188764369,0,0.772872925,2.405730486,-3.878765106,-0.184241682,0.500695705,0.05783445,0.731037528,0.889384207,-0.691195511,0.69127153,0.55942255,0.592092366,0.199237528,0.002824207,-0.021695511,0.413177047,0.18622255,0.000084621,0.250997873,-0.326213265,1.739295594,-1.61931273,-1.098368594,-0.000196009,0.313516943,0.025827225,0.122140351,0.310973393,-0.00100138,0.133901494
1704447583.73872,0.269701725,-0.033129461,-0.017235462,0.380771426,0.179864012,0,0.751847863,2.664501905,-3.918984413,-0.195999488,0.529467642,0.052111421,0.697476642,0.890549441,-0.687192171,0.675578463,0.547901208,0.592372909,0.165676642,0.003989441,-0.017692171,0.374278463,0.177252911,0.000072909,0.252594704,-0.326216461,1.739254049,-1.619282903,-1.098420792,-0.000184823,0.313516943,0.025827225,0.122140351,0.310973571,-0.000498316,0.133907828
1704447583.74971,0.337613951,-0.03087889,-0.037982036,0.467264373,0.209000836,0,0.698247492,2.595395565,-3.895977974,-0.201744571,0.477678388,0.058687095,0.782157223,0.886150882,-0.686676227,0.763344608,0.579732229,0.59154182,0.250357223,0.003708158,-0.036994367,0.462044608,0.206532229,0.000097215,0.254203786,-0.326218059,1.739268963,-1.619146549,-1.098417063,-0.00019228,0.313229296,0.029108891,0.122140351,0.310957193,0.000030046,0.133895992
1704447583.76097,0.303988519,-0.03270992,-0.023110828,0.426618236,0.189595992,0,0.708090723,2.699029684,-3.895965338,-0.126604348,0.512301445,0.058687095,0.730241217,0.890991705,-0.693266538,0.703163557,0.560188171,0.591257855,0.198441217,0.004431705,-0.023766538,0.42001653,0.186988171,0.000105997,0.255995295,-0.326215928,1.739246592,-1.619179572,-1.098446358,-0.000196009,0.313229296,0.029108891,0.122140351,0.310960573,0.000580153,0.133903515
1704447583.77188,0.267730864,-0.033344132,-0.014359984,0.379306251,0.175661541,0,0.713796973,2.693275213,-3.947753906,-0.21875596,0.523681641,0.072792388,0.685958795,0.891369524,-0.685274661,0.673378784,0.546201048,0.592092366,0.154158795,0.004809524,-0.015774661,0.372078784,0.173001048,0.000084621,0.258054451,-0.326209537,1.739258843,-1.619139092,-1.098417063,-0.000196009,0.313229296,0.029108891,0.122140351,0.310958668,0.001230232,0.133900248
1704447583.78299,0.312957599,-0.032584548,-0.023871532,0.438933469,0.1907422,0,0.753080189,2.595395565,-3.901732683,-0.201744571,0.477678388,0.063563213,0.732742332,0.892020588,-0.693800531,0.727502615,0.561285303,0.592355424,0.200942332,0.005460588,-0.025115901,0.431814143,0.188085303,0.000055424,0.259826784,-0.326209537,1.739246592,-1.619227509,-1.098450619,-0.000196009,0.312907299,0.032387364,0.122140351,0.31096,0.00176123,0.13390834
1704447583.79401,0.325343278,-0.03217097,-0.028552668,0.454268784,0.197612517,0,0.743854821,2.652992725,-3.849961758,-0.166887552,0.471924037,0.05305611,0.762754716,0.891108096,-0.70007509,0.757269553,0.571011322,0.592358319,0.230954716,0.004548096,-0.03057509,0.455969553,0.197811322,0.000058319,0.262440943,-0.326204743,1.739215167,-1.619264793,-1.09842452,-0.000188552,0.312907299,0.032387364,0.122140351,0.310976128,0.002571277,0.133918505
1704447583.80527,0.330915472,-0.031050616,-0.035778874,0.45877995,0.205593558,0,0.725759625,2.641652822,-3.924751759,-0.132359087,0.552485347,0.049168546,0.775705041,0.890228193,-0.704196098,0.754868525,0.57631297,0.592358319,0.243905041,0.003668193,-0.034696098,0.453568525,0.20311297,0.000058319,0.264130453,-0.326208471,1.739224754,-1.618979835,-1.098368594,-0.000184823,0.312907299,0.032387364,0.122140351,0.310955514,0.003160437,0.13389793
1704447583.81631,0.310403247,-0.027950837,-0.04689831,0.424484132,0.210873568,0,0.719365895,2.659314156,-3.867226124,-0.143983632,0.494941384,0.07481166,0.78400889,0.890508092,-0.712216601,0.722842054,0.581345617,0.592089425,0.25220889,0.003948092,-0.042716601,0.421542054,0.208513908,0.000081679,0.266450066,-0.326206341,1.739205579,-1.617996063,-1.098398421,-0.000188552,0.3124246,0.036753075,0.122140351,0.310856966,0.004090845,0.133843906
1704447583.82735,0.283569787,-0.030563615,-0.028983964,0.395341201,0.189037337,0,0.819197416,2.49766469,-3.942419291,-0.166887552,0.541068256,0.063563213,0.731267939,0.891943439,-0.696201479,0.691754256,0.559634341,0.592348765,0.199467939,0.005383439,-0.026701479,0.390454256,0.186434341,0.000048765,0.270016305,-0.326203145,1.739117695,-1.614892948,-1.098372855,-0.000177899,0.3124246,0.036753075,0.122140351,0.310592958,0.00587023,0.133678788
1704447583.8389,0.207631968,-0.022145863,-0.063781359,0.271838943,0.210755369,0,0.7871387,2.704882383,-3.936282396,-0.222359583,0.523808062,0.05783445,0.782856933,0.887102366,-0.718521946,0.57814473,0.581987864,0.592347084,0.251056933,0.000542366,-0.049021946,0.27684473,0.208787864,0.000047084,0.272302096,-0.326199949,1.738872152,-1.610124825,-1.098428248,-0.000173638,0.3124246,0.036753075,0.122140351,0.31021393,0.007615824,0.133452205
1704447583.85046,0.231976411,-0.020414404,-0.075060697,0.301923877,0.222956054,0,0.732300937,2.606956005,-3.919132233,-0.322317004,0.500662684,0.046396222,0.837900638,0.886633598,-0.726854542,0.61065847,0.591727102,0.592375851,0.306100638,0.000073598,-0.057354542,0.30935847,0.221078831,0.000075851,0.274210251,-0.326204743,1.738124869,-1.605305568,-1.098468729,-0.00019228,0.312022599,0.040022703,0.122140351,0.31001354,0.009307682,0.133330684
1704447583.86172,0.156591647,-0.027489712,-0.023198523,0.218318005,0.159410567,0,0.813070059,2.515244007,-3.959865332,-0.31160751,0.56974864,0.069296286,0.787821517,-0.885488892,-0.670007078,0.52949447,0.530188648,0.591255963,0.256021517,-0.000865679,-0.000507078,0.22819447,0.156988648,0.000106045,0.276885663,-0.326195156,1.73696373,-1.59734538,-1.098405878,-0.000199737,0.312022599,0.040022703,0.122140351,0.309689512,0.01196067,0.133129335
1704447583.87323,0.112448379,-0.02498698,-0.024135164,0.155073497,0.148738844,0,0.805684626,0.725668311,-3.875613451,-0.397452414,0.500960231,0.05305611,0.774766519,0.554406589,-0.667916446,0.468772514,0.517401003,0.592353953,0.242966519,0.002387701,0.001583554,0.167472514,0.146212311,0.000053953,0.279193292,-0.326625522,1.735924032,-1.589426204,-1.098443162,-0.00019228,0.312022599,0.040022703,0.122140351,0.309253325,0.014461887,0.132785334
1704447583.88441,0.1310157,-0.022203142,-0.051664442,0.17062763,0.18432586,0,0.764514923,2.165741682,-3.946570873,-0.386639953,0.500695705,0.041498043,0.791742565,-0.701452131,-0.699714456,0.48367203,0.554397313,0.592352482,0.259942565,-0.002632443,-0.030214456,0.18237203,0.182473164,0.000052482,0.280527269,-0.326669198,1.734171672,-1.580933383,-1.098498556,-0.000188552,0.311586382,0.043287942,0.122140351,0.309071247,0.01687426,0.132691343
1704447583.89568,0.059769114,-0.024612081,-0.024168223,0.080264052,0.145495912,0,0.7831738,1.070444107,-3.875010967,-0.385567784,0.489187032,0.051792689,0.744152946,-0.88729805,-0.520073073,0.395446103,0.516493379,0.592108308,0.212352946,-0.00073805,0.000313788,0.094146103,0.143293379,0.000079687,0.281839142,-0.32657652,1.733429183,-1.572914605,-1.098438901,-0.000184823,0.311586382,0.043287942,0.122140351,0.308612514,0.019090764,0.132462897
1704447583.90676,-0.021111565,-0.013355546,-0.072992262,-0.054315217,0.183521346,0,0.75757432,0.811602414,-3.763839483,-0.496110916,0.448906839,0.046396222,0.675173303,0.515036088,-0.721990035,0.261250229,0.553391705,0.592365606,0.143373303,0.002647336,-0.052490035,-0.040049771,0.182018971,0.000065606,0.286425106,-0.326982919,1.731535143,-1.559173227,-1.098409606,-0.000184823,0.311586382,0.043287942,0.122140351,0.307920154,0.023661855,0.132063406
1704447583.91764,0.007972937,-0.029280319,0.002741833,0.01646348,0.117657517,0,0.725668311,2.233025789,-3.942604065,-0.563964844,0.512172163,0.047454827,0.686315203,-0.616569755,-0.641499812,0.33117605,0.486165279,0.590971429,0.154515203,-0.002355836,0.02493525,0.02987605,0.115335521,0.000111825,0.288547911,-0.326710744,1.730525272,-1.551113436,-1.098438901,-0.000181095,0.311115995,0.046548434,0.122140351,0.307527332,0.026175308,0.131980092
1704447583.92957,-0.024713946,-0.018640504,-0.04778289,-0.049017592,0.161941399,0,0.696419001,1.42143321,-3.780883789,-0.466169715,0.477678388,0.06735754,0.638073753,0.64725514,-0.700085563,0.26401474,0.533195063,0.591523935,0.106273753,0.002281261,-0.030585563,-0.03728526,0.160179626,0.00010069,0.290546348,-0.326392762,1.729375852,-1.541108472,-1.098394693,-0.000199737,0.311115995,0.046548434,0.122140351,0.307034773,0.029099232,0.13186699
1704447583.94054,-0.176040248,-0.026649562,0.015328505,-0.245029256,0.08999246,0,0.627372622,2.114255428,-3.962540865,-0.576882482,0.506548226,0.078272976,0.524020381,-0.785123558,-0.553037943,0.041218144,0.417940757,0.522902264,0.053711723,-0.001075337,0.039048643,-0.225242929,0.087893388,0.000104526,0.293316301,-0.3267688,1.72808848,-1.530773809,-1.09833557,-0.00019228,0.311115995,0.046548434,0.122140351,0.306466816,0.032331459,0.131580045
1704447583.9516,-0.054034988,-0.022087148,-0.032636467,-0.085449535,0.151161687,0,0.501488805,0.897813678,-3.769374371,-0.716921866,0.356979668,0.058687095,0.579826766,-0.71757145,-0.666872945,0.216368357,0.505615816,0.572706825,0.065670967,-0.004184572,-0.019585793,-0.074935032,0.149743219,0.000058311,0.295991713,-0.326629251,1.726893253,-1.521678049,-1.09855395,-0.000184823,0.310435751,0.050887754,0.122140351,0.305959028,0.035256442,0.131502303
1704447583.96335,-0.072472516,-0.033012467,0.037137926,-0.090172689,0.075965095,0,0.564317048,1.086839318,-3.876536131,-0.506940246,0.489187032,0.063563213,0.481958182,0.657041406,-0.506261893,0.173254893,0.383091461,0.49714699,0.035645541,0.003087821,0.055615342,-0.079610843,0.073108886,0.000059782,0.298489226,-0.326840173,1.726065543,-1.514265939,-1.098487371,-0.000188552,0.310435751,0.050887754,0.122140351,0.305503244,0.037730499,0.131321452
1704447583.97508,-0.093015022,-0.016242617,-0.06355363,-0.15086156,0.183243033,0,0.510358453,2.262207031,-3.700304508,-0.612197578,0.345476359,0.051792689,0.435986866,-0.588788556,-0.534494914,0.088207847,0.462300094,0.447453406,0.033157031,-0.000863518,-0.052684418,-0.140021993,0.182098017,0.000125579,0.301312709,-0.326704352,1.725062596,-1.508181149,-1.098501752,-0.000207194,0.310435751,0.050887754,0.122140351,0.305226587,0.040040529,0.131344423
1704447583.98786,-0.060458613,-0.022801187,-0.024968469,-0.092276826,0.141852463,0,0.415777683,1.170605898,-3.723479033,-0.703586519,0.425850987,0.063563213,0.41683278,0.591166048,-0.534381625,0.148715691,0.430373456,0.460972843,0.002814347,0.003097522,-0.0131606,-0.085853233,0.139828742,0.000081691,0.30465977,-0.326555748,1.724463917,-1.501378902,-1.098483642,-0.000188552,0.309885844,0.05413578,0.122140351,0.304721148,0.042626053,0.131266752
1704447583.99909,-0.083948351,-0.018747671,-0.049965607,-0.133305593,0.170357818,0,0.408627301,2.285857677,-3.769396544,-0.592850268,0.385739565,0.05305611,0.338916371,0.617442601,-0.505021608,0.081120884,0.42291963,0.410758009,-0.029994188,0.002434432,-0.040588327,-0.127891435,0.168720114,0.000081696,0.308320817,-0.326643632,1.724300932,-1.494518067,-1.098491099,-0.000188552,0.309885844,0.05413578,0.122140351,0.303998537,0.045260628,0.131031926
1704447584.01266,-0.06540647,-0.019759326,-0.050168232,-0.106383964,0.174058228,0,0.328070819,2.284640312,-3.700371504,-0.564082265,0.385610729,0.051792689,0.342708353,0.569874344,-0.471578642,0.093550868,0.412439285,0.380756473,0.000889695,0.000030889,-0.041252219,-0.100112091,0.172562032,0.000050962,0.311606892,-0.326369326,1.724259387,-1.489845817,-1.098383507,-0.000184823,0.309885844,0.05413578,0.122140351,0.303501896,0.047306068,0.130963918
1704447584.02502,-0.071180173,-0.018205191,-0.049861909,-0.114691873,0.1676384,0,0.351086527,2.365262508,-3.746377468,-0.628559172,0.420450836,0.036396194,0.260676903,0.424859127,-0.484526334,0.086422079,0.413414651,0.396320807,-0.09511709,0.007057485,-0.041028832,-0.115158835,0.165560363,0.000050062,0.315959296,-0.326597293,1.724257256,-1.486195156,-1.098546493,-0.000181095,0.309301955,0.057377869,0.122140351,0.302900323,0.049407582,0.130773887
1704447584.03842,-0.034363843,-0.02115996,-0.044905581,-0.059904767,0.168966174,0,0.369425833,2.324923515,-3.743808985,-0.690952718,0.351227969,0.041498043,0.205679266,0.562666305,-0.288685213,-0.255698007,0.401859317,0.373191309,-0.129340359,0.004157469,-0.037281161,-0.065887151,0.166753404,0.000058319,0.319827271,-0.326409274,1.72439361,-1.483251298,-1.098527851,-0.000184823,0.309301955,0.057377869,0.122140351,0.302416446,0.051215729,0.13070564
1704447584.05077,0.024930531,-0.020720417,-0.049646519,0.024654588,0.171407828,0,0.231337801,2.296171427,-3.49320507,-0.984330297,0.397077292,0.06735754,0.347863849,0.610922365,-0.502971583,0.230802981,0.424635184,0.40917131,-0.019451443,0.006155813,-0.040546634,0.022694486,0.16916076,0.000068552,0.322224915,-0.326413535,1.724415448,-1.483617216,-1.098564602,-0.00019228,0.308684147,0.060613667,0.122140351,0.302308547,0.051855091,0.130711626
