tud-amr/mobile-manipulator-compliance/recordings/2024-01-05/4/velocity.csv
__time,/record/cur_comp.0,/record/cur_comp.1,/record/cur_comp.2,/record/cur_comp.3,/record/cur_comp.4,/record/cur_comp.5,/record/cur_fb.0,/record/cur_fb.1,/record/cur_fb.2,/record/cur_fb.3,/record/cur_fb.4,/record/cur_fb.5,/record/cur_fric.0,/record/cur_fric.1,/record/cur_fric.2,/record/cur_fric.3,/record/cur_fric.4,/record/cur_fric.5,/record/cur_null.0,/record/cur_null.1,/record/cur_null.2,/record/cur_null.3,/record/cur_null.4,/record/cur_null.5,/record/pos_q.0,/record/pos_q.1,/record/pos_q.2,/record/pos_q.3,/record/pos_q.4,/record/pos_q.5,/record/pos_t.0,/record/pos_t.1,/record/pos_t.2,/record/pos_x.0,/record/pos_x.1,/record/pos_x.2
1704447350.93227,0,0,0,0,0,0,-0.498939902,2.008479595,-3.609398603,-0.610029936,-0.535222054,-0.776975572,0,0,0,0,0,0,0,0,0,0,0,0,-0.01331261,-0.348947606,1.718103224,-1.400275187,-1.054548941,-0.100397445,0.314498958,-0.000582294,0.122176464,0.312964377,-0.031826203,0.123163484
1704447350.94313,0,0,0,0,0,0,-0.799992144,1.974178791,-3.579492092,-0.189993694,-0.621618807,-0.425850987,0,0,0,0,0,0,0,0,0,0,0,0,-0.013375993,-0.348958259,1.717280839,-1.394960051,-1.05474495,-0.103375391,0.314498958,-0.000582294,0.122176464,0.313198783,-0.030604055,0.123258868
1704447350.9541,0,0,0,0,0,0,-0.696323931,1.835844278,-3.827059746,-0.374456495,-0.610002756,-0.139188677,0,0,0,0,0,0,0,0,0,0,0,0,-0.01375576,-0.348961454,1.717044351,-1.389323204,-1.055000081,-0.106459865,0.314498958,-0.000582294,0.122176464,0.31318703,-0.029400584,0.12323036
1704447350.96555,0,0,0,0,0,0,-0.478198022,1.785306573,-3.959865332,-0.680253506,-0.276287615,-0.127776042,0,0,0,0,0,0,0,0,0,0,0,0,-0.014539794,-0.348978499,1.716873908,-1.383441879,-1.055699427,-0.109452192,0.314498958,-0.000582294,0.122176464,0.3130254,-0.028253057,0.123185279
1704447350.97644,0,0,0,0,0,0,-0.60468632,1.691894531,-4.028583527,-0.443115234,-0.038603991,-0.972568631,0,0,0,0,0,0,0,0,0,0,0,0,-0.014892397,-0.348990217,1.716591613,-1.377952571,-1.056594249,-0.111715879,0.314498958,-0.000582294,0.122176464,0.312875117,-0.027055693,0.123177228
1704447350.98727,0,0,0,0,0,0,-0.512172163,1.64046514,-3.874327183,-0.19574587,-0.056677647,-0.365460187,0,0,0,0,0,0,0,0,0,0,0,0,-0.01532809,-0.349004065,1.716005185,-1.372311996,-1.057352717,-0.114756677,0.314498958,-0.000582294,0.122176464,0.31287844,-0.025853034,0.123240041
1704447350.99827,0,0,0,0,0,0,-0.386254311,1.55963099,-3.781987429,-0.662020624,-0.185584888,0.155378073,0,0,0,0,0,0,0,0,0,0,0,0,-0.01615367,-0.349011522,1.715413431,-1.366500979,-1.057463505,-0.118022777,0.314498958,-0.000582294,0.122176464,0.313047454,-0.024750682,0.123313079
1704447351.00922,0,0,0,0,0,0,-0.397452414,1.427222729,-3.873095989,-0.429721713,-0.241699219,-0.258451402,0,0,0,0,0,0,0,0,0,0,0,0,-0.01657658,-0.349029631,1.715114092,-1.361045227,-1.057496528,-0.120526149,0.314498958,-0.000582294,0.122176464,0.313138673,-0.023605845,0.12332899
1704447351.02028,0,0,0,0,0,0,-0.408951372,1.30644083,-3.786621094,-0.049504176,-0.236225024,-1.078350425,0,0,0,0,0,0,0,0,0,0,0,0,-0.01708045,-0.349041349,1.714661354,-1.356181229,-1.057518898,-0.122904884,0.314498958,-0.000582294,0.122176464,0.313294329,-0.022626223,0.123390269
1704447351.0312,0,0,0,0,0,0,-0.662020624,1.173981786,-3.769637823,-0.351227969,-0.207490206,-0.300626814,0,0,0,0,0,0,0,0,0,0,0,0,-0.017185379,-0.349047741,1.714376929,-1.351043992,-1.05757802,-0.125423702,0.314498958,-0.000582294,0.122176464,0.313389269,-0.021455241,0.123419904
1704447351.04207,0,0,0,0,0,0,-0.679059684,1.145714402,-3.671891451,0.049168546,-0.230261639,-0.249320567,0,0,0,0,0,0,0,0,0,0,0,0,-0.017430922,-0.34908609,1.71402113,-1.345824728,-1.057533812,-0.127979804,0.314498958,-0.000582294,0.122176464,0.313534932,-0.020312781,0.12346047
1704447351.05292,0,0,0,0,0,0,-0.457565457,1.07163465,-3.637038708,0.070009477,-0.178767934,-1.012982011,0,0,0,0,0,0,0,0,0,0,0,0,-0.01790603,-0.349228303,1.713629113,-1.341064062,-1.057541269,-0.13047998,0.314498958,-0.000582294,0.122176464,0.313666698,-0.01934814,0.123483333
1704447351.06393,0,0,0,0,0,0,-0.043826818,1.116657495,-3.435586691,-0.213003263,-0.184241682,-0.141079262,0,0,0,0,0,0,0,0,0,0,0,0,-0.019133215,-0.349467455,1.713113525,-1.335811775,-1.057500789,-0.13312077,0.314498958,-0.000582294,0.122176464,0.313837745,-0.018506707,0.123506426
1704447351.07491,0,0,0,0,0,0,-0.069296286,0.995637119,-3.620104074,-0.138233677,-0.155378073,-0.897739947,0,0,0,0,0,0,0,0,0,0,0,0,-0.019736154,-0.349523381,1.713091154,-1.331128873,-1.057489071,-0.134330911,0.314498958,-0.000582294,0.122176464,0.313848782,-0.017598872,0.123485723
1704447351.08587,0,0,0,0,0,0,-0.299744248,0.943795443,-3.706072569,-0.15236491,-0.121396437,-0.500794947,0,0,0,0,0,0,0,0,0,0,0,0,-0.019783026,-0.349741228,1.713089024,-1.327005234,-1.057456048,-0.136213233,0.314498958,-0.000582294,0.122176464,0.313848553,-0.016647855,0.123414497
1704447351.09682,0,0,0,0,0,0,-0.356840491,1.173981786,-3.493133783,-0.881997705,-0.103745103,-0.737415969,0,0,0,0,0,0,0,0,0,0,0,0,-0.0199801,-0.350085841,1.712874906,-1.322130052,-1.057334075,-0.137788759,0.314498958,-0.000582294,0.122176464,0.313940602,-0.015572511,0.123353789
1704447351.10785,0,0,0,0,0,0,-0.178489834,1.266370416,-3.401875973,-0.213624254,-0.038603991,0.386254311,0,0,0,0,0,0,0,0,0,0,0,0,-0.020464262,-0.350470934,1.712553196,-1.317861537,-1.057389469,-0.140127014,0.314498958,-0.000582294,0.122176464,0.314018613,-0.014723829,0.123307384
1704447351.11883,0,0,0,0,0,0,-0.356794089,1.168340445,-3.493171692,-0.391703188,0.030990241,-0.621751964,0,0,0,0,0,0,0,0,0,0,0,0,-0.020614997,-0.350548698,1.712470638,-1.313644688,-1.057374555,-0.141158723,0.314498958,-0.000582294,0.122176464,0.314067282,-0.013784156,0.123309156
1704447351.12956,0,0,0,0,0,0,-0.414381474,1.087783456,-3.452889204,-0.621538937,0.106112219,-0.690593183,0,0,0,0,0,0,0,0,0,0,0,0,-0.02072685,-0.350559884,1.712514314,-1.309539159,-1.057348456,-0.141817056,0.314498958,-0.000582294,0.122176464,0.314080518,-0.012858062,0.123307646
1704447351.14038,0,0,0,0,0,0,-0.461277753,1.076690793,-3.383867264,-0.202727109,0.132484138,-0.025735995,0,0,0,0,0,0,0,0,0,0,0,0,-0.020790766,-0.350620071,1.712463181,-1.305244545,-1.057315433,-0.14327061,0.314498958,-0.000582294,0.122176464,0.31412994,-0.011873653,0.123315674
1704447351.15136,0,0,0,0,0,0,-0.454661161,0.983185709,-3.343505859,-0.023018973,0.236575231,-0.592766464,0,0,0,0,0,0,0,0,0,0,0,0,-0.020975589,-0.350852299,1.712433886,-1.301501738,-1.057219559,-0.144383811,0.314498958,-0.000582294,0.122176464,0.314163256,-0.011058511,0.123266027
1704447351.1622,0,0,0,0,0,0,-0.391703188,1.139962196,-3.321329594,-0.455534399,0.26478073,-0.454770386,0,0,0,0,0,0,0,0,0,0,0,0,-0.021126324,-0.351161226,1.712407255,-1.298316598,-1.057178546,-0.144609647,0.314498958,-0.000582294,0.122176464,0.314169954,-0.01036104,0.123191363
1704447351.17306,0,0,0,0,0,0,-0.39774394,1.025959492,-3.28600359,-0.398575693,0.32272771,-0.650922239,0,0,0,0,0,0,0,0,0,0,0,0,-0.021264809,-0.35120863,1.712414711,-1.294814008,-1.057141795,-0.144712978,0.314498958,-0.000582294,0.122176464,0.314197979,-0.009585737,0.123195523
1704447351.18397,0,0,0,0,0,0,-0.335556328,0.967892408,-3.240334511,-0.213236347,0.437398344,-0.702173054,0,0,0,0,0,0,0,0,0,0,0,0,-0.021440577,-0.351220348,1.712458387,-1.290775058,-1.057075216,-0.144739077,0.314498958,-0.000582294,0.122176464,0.314230074,-0.008697771,0.123209328
1704447351.19471,0,0,0,0,0,0,-0.193019956,0.891985178,-3.142516613,-0.535222054,0.495041728,-0.64453125,0,0,0,0,0,0,0,0,0,0,0,0,-0.021739917,-0.351250708,1.712587284,-1.287457292,-1.057004908,-0.144739077,0.314498958,-0.000582294,0.122176464,0.314222707,-0.008017058,0.123196391
1704447351.20548,0,0,0,0,0,0,-0.288656443,0.863901734,-3.13091898,0.306949615,0.60468632,-0.565020859,0,0,0,0,0,0,0,0,0,0,0,0,-0.021785723,-0.351282666,1.712609655,-1.285189344,-1.056927144,-0.144709782,0.314498958,-0.000582294,0.122176464,0.314251292,-0.007503697,0.123199679
1704447351.21638,0,0,0,0,0,0,-0.271999151,0.939152241,-3.055790424,0.184241682,0.66242069,-0.546973109,0,0,0,0,0,0,0,0,0,0,0,0,-0.021808094,-0.351324744,1.712560653,-1.281590881,-1.056772148,-0.144672498,0.314498958,-0.000582294,0.122176464,0.314339761,-0.006675639,0.123228207
1704447351.22726,0,0,0,0,0,0,-0.259027362,0.840271354,-2.906834602,-0.21875596,0.713680983,-0.420135677,0,0,0,0,0,0,0,0,0,0,0,0,-0.021878401,-0.351416889,1.71257024,-1.278335433,-1.056601706,-0.144632018,0.314498958,-0.000582294,0.122176464,0.314401399,-0.005943215,0.123227547
1704447351.23799,0,0,0,0,0,0,-0.288254619,1.042180657,-2.848650217,-0.397452414,0.713588178,-0.328222215,0,0,0,0,0,0,0,0,0,0,0,0,-0.021890652,-0.351545786,1.712602198,-1.275432055,-1.056176132,-0.14460219,0.314498958,-0.000582294,0.122176464,0.314513553,-0.005285832,0.123209139
1704447351.24891,0,0,0,0,0,0,-0.236014634,1.035997629,-2.802583694,-0.420096248,0.615784407,-0.253274113,0,0,0,0,0,0,0,0,0,0,0,0,-0.021910359,-0.35154259,1.712723638,-1.272972359,-1.055702622,-0.144569167,0.314498958,-0.000582294,0.122176464,0.314615665,-0.004736587,0.123209694
1704447351.25972,0,0,0,0,0,0,-0.259538263,1.030099034,-2.894687414,0.358460933,-0.111142553,-0.149733961,0,0,0,0,0,0,0,0,0,0,0,0,-0.021910359,-0.351544721,1.712855198,-1.270627179,-1.054438154,-0.144494599,0.314498958,-0.000582294,0.122176464,0.314916236,-0.004242766,0.123206885
1704447351.27055,0,0,0,0,0,0,-0.230189726,0.926585138,-2.825602293,-0.189993694,0.356794089,-0.035004739,0,0,0,0,0,0,0,0,0,0,0,0,-0.021907696,-0.35155271,1.71307411,-1.267583186,-1.053546527,-0.144402453,0.314498958,-0.000582294,0.122176464,0.315095193,-0.00356877,0.123192153
1704447351.28138,0,0,0,0,0,0,-0.190254986,1.007080078,-2.91226387,-0.030990241,0.454661161,0.138113841,0,0,0,0,0,0,0,0,0,0,0,0,-0.021910359,-0.351559634,1.713414995,-1.265959191,-1.053383542,-0.144317765,0.314498958,-0.000582294,0.122176464,0.315024479,-0.003195055,0.123134919
1704447351.29216,0,0,0,0,0,0,-0.207490206,0.874796689,-2.728136778,0.040283203,0.483535409,0.287967265,0,0,0,0,0,0,0,0,0,0,0,0,-0.021912489,-0.351561765,1.713481041,-1.263533051,-1.053280211,-0.144195259,0.314498958,-0.000582294,0.122176464,0.31505401,-0.002633847,0.12314977
1704447351.30306,0,0,0,0,0,0,-0.166986749,0.892653286,-2.751254797,-0.565020859,0.535314858,0.472450048,0,0,0,0,0,0,0,0,0,0,0,0,-0.021917816,-0.351568689,1.713614732,-1.260777212,-1.053120954,-0.144029078,0.314498958,-0.000582294,0.122176464,0.315076094,-0.001998866,0.123153867
1704447351.31386,0,0,0,0,0,0,-0.144328222,0.89215219,-2.584110498,0.085550413,0.684838653,0.708978772,0,0,0,0,0,0,0,0,0,0,0,0,-0.021915153,-0.351575081,1.71370954,-1.259223523,-1.05300271,-0.143847983,0.314498958,-0.000582294,0.122176464,0.315088495,-0.001640315,0.123151835
1704447351.32475,0,0,0,0,0,0,-0.094909653,0.984885275,-2.481255531,-0.345284581,0.759626091,0.811439157,0,0,0,0,0,0,0,0,0,0,0,0,-0.021900772,-0.351573483,1.713743629,-1.256804841,-1.052969154,-0.143566753,0.314498958,-0.000582294,0.122176464,0.315114486,-0.001073224,0.123178004
1704447351.33573,0,0,0,0,0,0,-0.063563213,1.02448976,-2.48032093,0.10949146,0.799909294,0.961059332,0,0,0,0,0,0,0,0,0,0,0,0,-0.021900772,-0.351571352,1.713890103,-1.255739576,-1.052932402,-0.143082058,0.314498958,-0.000582294,0.122176464,0.315081615,-0.0008254,0.123161628
1704447351.34674,0,0,0,0,0,0,-0.016276872,1.02448976,-2.336453915,-0.23594448,0.840212166,0.437398344,0,0,0,0,0,0,0,0,0,0,0,0,-0.021870944,-0.351572418,1.713962541,-1.25388282,-1.052847181,-0.141964596,0.314498958,-0.000582294,0.122176464,0.315099506,-0.00038661,0.123172115
1704447351.35753,0,0,0,0,0,0,-0.005754743,0.972568631,-2.324923515,0.103745103,0.886305213,0.426821977,0,0,0,0,0,0,0,0,0,0,0,0,-0.021866683,-0.351570287,1.714025924,-1.252425538,-1.052710295,-0.140052446,0.314498958,-0.000582294,0.122176464,0.315129631,-0.00005151,0.123180364
1704447351.36837,0,0,0,0,0,0,0.030990241,1.076521635,-2.250222206,0.064339988,0.938093722,0.834616363,0,0,0,0,0,0,0,0,0,0,0,0,-0.021868814,-0.351568689,1.714220867,-1.251356546,-1.052547842,-0.13946442,0.314498958,-0.000582294,0.122176464,0.315110979,0.000190964,0.12315426
1704447351.38028,0,0,0,0,0,0,0.076777853,0.967635691,-2.368284702,-0.333775103,0.812723756,0.903659582,0,0,0,0,0,0,0,0,0,0,0,0,-0.021836856,-0.351571352,1.714542045,-1.249802857,-1.052089245,-0.138898765,0.314498958,-0.000582294,0.122176464,0.315126111,0.000544304,0.123106935
1704447351.39109,0,0,0,0,0,0,0.126604348,1.151078105,-2.625071287,-0.098505341,0.133480266,0.144900739,0,0,0,0,0,0,0,0,0,0,0,0,-0.021849639,-0.351572418,1.715058165,-1.248275268,-1.050853539,-0.136994072,0.314498958,-0.000582294,0.122176464,0.315266216,0.000842573,0.123017789
1704447351.40188,0,0,0,0,0,0,0.166986749,1.013423204,-2.838582039,-0.443152606,0.27071771,0.473150462,0,0,0,0,0,0,0,0,0,0,0,0,-0.021798506,-0.351568689,1.71590292,-1.246503201,-1.049644464,-0.135347706,0.314498958,-0.000582294,0.122176464,0.315277546,0.001221198,0.122862598
1704447351.41274,0,0,0,0,0,0,0.190254986,1.139569879,-2.809470177,-0.264968276,0.397452414,-0.105014205,0,0,0,0,0,0,0,0,0,0,0,0,-0.021774005,-0.351564961,1.716433422,-1.245416098,-1.049381343,-0.133302398,0.314498958,-0.000582294,0.122176464,0.31515716,0.001473643,0.122765263
1704447351.42359,0,0,0,0,0,0,0.26478073,1.10011971,-2.848807335,-0.10949146,0.448906839,0.788924754,0,0,0,0,0,0,0,0,0,0,0,0,-0.021771875,-0.351567091,1.716710923,-1.245009167,-1.049185335,-0.132403847,0.314498958,-0.000582294,0.122176464,0.315106479,0.001561957,0.122710563
1704447351.43448,0,0,0,0,0,0,0.270534128,1.156760693,-2.682210445,0.178767934,0.569981098,0.863518357,0,0,0,0,0,0,0,0,0,0,0,0,-0.021686653,-0.351561232,1.716901073,-1.245012896,-1.049118756,-0.131937261,0.314498958,-0.000582294,0.122176464,0.315051198,0.001586367,0.122670809
1704447351.44538,0,0,0,0,0,0,0.299744248,1.214305401,-2.820199966,0.276287615,0.56974864,0.684911191,0,0,0,0,0,0,0,0,0,0,0,0,-0.021625401,-0.351554308,1.717209999,-1.245012896,-1.049034067,-0.131086648,0.314498958,-0.000582294,0.122176464,0.314955233,0.001604211,0.122605516
1704447351.45617,0,0,0,0,0,0,0.310809404,1.169360399,-2.642053843,0.293548316,0.517958879,0.054594286,0,0,0,0,0,0,0,0,0,0,0,0,-0.021598769,-0.351553243,1.717407073,-1.244887195,-1.048889724,-0.129366778,0.314498958,-0.000582294,0.122176464,0.314918541,0.001636622,0.122564871
1704447351.46702,0,0,0,0,0,0,0.333775103,1.323640943,-2.590152264,0.305218488,0.587096632,0.874891341,0,0,0,0,0,0,0,0,0,0,0,0,-0.021506091,-0.351551112,1.71759456,-1.244824344,-1.04887481,-0.128619495,0.314498958,-0.000582294,0.122176464,0.314851442,0.001681248,0.122525624
1704447351.47782,0,0,0,0,0,0,0.317346841,1.312132001,-2.566622019,0.345476359,0.61599946,1.05311799,0,0,0,0,0,0,0,0,0,0,0,0,-0.02135003,-0.351549514,1.717631311,-1.244727938,-1.048833797,-0.128227478,0.314498958,-0.000582294,0.122176464,0.314849131,0.001751146,0.122519672
1704447351.48866,0,0,0,0,0,0,0.267765671,1.370221138,-2.42850852,0.271999151,0.581229091,1.185826182,0,0,0,0,0,0,0,0,0,0,0,0,-0.021148695,-0.351543123,1.717687238,-1.244569213,-1.048678801,-0.127653833,0.314498958,-0.000582294,0.122176464,0.314870067,0.001844544,0.122512072
1704447351.49954,0,0,0,0,0,0,0.207170755,1.496244311,-2.40559268,0.300130665,0.558328748,0.129832923,0,0,0,0,0,0,0,0,0,0,0,0,-0.020863204,-0.351534068,1.717777253,-1.244569213,-1.048426866,-0.125845547,0.314498958,-0.000582294,0.122176464,0.314900772,0.00192327,0.12249531
1704447351.5103,0,0,0,0,0,0,0.21875596,1.496332765,-2.353689909,0.247520864,0.402996421,0.834437788,0,0,0,0,0,0,0,0,0,0,0,0,-0.020743894,-0.351523948,1.717864604,-1.24461715,-1.048046567,-0.124454844,0.314498958,-0.000582294,0.122176464,0.314965233,0.001932472,0.122478728
1704447351.52111,0,0,0,0,0,0,0.28292042,1.576841593,-2.342293501,0.213236347,-0.151383653,0.506940246,0,0,0,0,0,0,0,0,0,0,0,0,-0.020675717,-0.351515959,1.718000958,-1.244709296,-1.047080905,-0.12345243,0.314498958,-0.000582294,0.122176464,0.315160407,0.001888127,0.122450316
1704447351.53206,0,0,0,0,0,0,0.334567934,1.542657733,-2.370961189,0.132359087,0.092255555,-0.036396194,0,0,0,0,0,0,0,0,0,0,0,0,-0.020593692,-0.351509567,1.718276329,-1.244835529,-1.046344807,-0.121562118,0.314498958,-0.000582294,0.122176464,0.315242633,0.001852148,0.122390472
1704447351.54281,0,0,0,0,0,0,0.368483365,1.69764924,-2.549455166,0,0.01726423,0.673304975,0,0,0,0,0,0,0,0,0,0,0,0,-0.020527646,-0.351504241,1.718631595,-1.244972416,-1.046011912,-0.121066238,0.314498958,-0.000582294,0.122176464,0.315190443,0.001828301,0.122312451
1704447351.55365,0,0,0,0,0,0,0.391322553,1.611338496,-2.486475229,-0.149733961,0.155378073,0.828762949,0,0,0,0,0,0,0,0,0,0,0,0,-0.020466926,-0.351496784,1.718789786,-1.245038462,-1.045989541,-0.120804183,0.314498958,-0.000582294,0.122176464,0.315135377,0.001832286,0.122279164
1704447351.56474,0,0,0,0,0,0,0.437360495,1.864616752,-2.451547623,-0.247453958,0.190689638,0.892059505,0,0,0,0,0,0,0,0,0,0,0,0,-0.020410467,-0.35149199,1.71897461,-1.245201448,-1.046044935,-0.120504311,0.314498958,-0.000582294,0.122176464,0.3150485,0.001816307,0.122237631
1704447351.57577,0,0,0,0,0,0,0.494941384,1.778299451,-2.595701694,-0.431950867,0.173025519,0.772872925,0,0,0,0,0,0,0,0,0,0,0,0,-0.020359334,-0.35148187,1.719254774,-1.245334606,-1.046052392,-0.119879533,0.314498958,-0.000582294,0.122176464,0.314938385,0.001804036,0.12217747
1704447351.58657,0,0,0,0,0,0,0.512463033,1.859352112,-2.704753637,-0.535685956,0.161543339,0.174170136,0,0,0,0,0,0,0,0,0,0,0,0,-0.020306071,-0.351466956,1.719760775,-1.245493863,-1.045996998,-0.118584704,0.314498958,-0.000582294,0.122176464,0.314757906,0.001785162,0.122069159
1704447351.59731,0,0,0,0,0,0,0.627504528,1.904959083,-2.710978746,-0.708043933,0.138233677,0.709725738,0,0,0,0,0,0,0,0,0,0,0,0,-0.020284233,-0.351463761,1.719985013,-1.245615836,-1.046019369,-0.117545539,0.314498958,-0.000582294,0.122176464,0.314664764,0.001766526,0.122019282
1704447351.60815,0,0,0,0,0,0,0.621538937,2.019988537,-2.681710243,-0.811439157,0.138233677,0.788735807,0,0,0,0,0,0,0,0,0,0,0,0,-0.020235763,-0.351449912,1.720182087,-1.245841672,-1.046078491,-0.117301061,0.314498958,-0.000582294,0.122176464,0.314572464,0.00173365,0.121977045
1704447351.61901,0,0,0,0,0,0,0.598520935,2.10055232,-2.583905458,-0.897758365,0.155378073,0.863230646,0,0,0,0,0,0,0,0,0,0,0,0,-0.020188892,-0.351442988,1.720226296,-1.246148468,-1.046074762,-0.117134347,0.314498958,-0.000582294,0.122176464,0.3145531,0.001677355,0.121964722
1704447351.62993,0,0,0,0,0,0,0.627293408,2.15803647,-2.480300903,-0.972551584,0.155803755,0.949550092,0,0,0,0,0,0,0,0,0,0,0,0,-0.02011379,-0.351421683,1.72023322,-1.246470178,-1.046085948,-0.116983079,0.314498958,-0.000582294,0.122176464,0.314545743,0.001626851,0.121964832
1704447351.64078,0,0,0,0,0,0,0.592989922,2.186832666,-2.49766469,-0.910414219,0.139188677,1.018654585,0,0,0,0,0,0,0,0,0,0,0,0,-0.019936424,-0.351403573,1.720257721,-1.247040094,-1.046078491,-0.116734873,0.314498958,-0.000582294,0.122176464,0.314532616,0.00155018,0.121956243
1704447351.65168,0,0,0,0,0,0,0.535191119,2.21000886,-2.417053699,-0.656267822,0.144328222,1.018605828,0,0,0,0,0,0,0,0,0,0,0,0,-0.019709523,-0.351384931,1.720287016,-1.247794301,-1.046074762,-0.116424881,0.314498958,-0.000582294,0.122176464,0.314514347,0.001446516,0.121943986
1704447351.66248,0,0,0,0,0,0,0.644634008,2.215643406,-2.382637501,-0.743788004,0.143983632,0.829661608,0,0,0,0,0,0,0,0,0,0,0,0,-0.019648803,-0.35137055,1.720347736,-1.249125882,-1.046078491,-0.115658956,0.314498958,-0.000582294,0.122176464,0.314474459,0.001157152,0.121914837
1704447351.67328,0,0,0,0,0,0,0.558328748,2.307651997,-2.457335949,-0.98407793,0.138233677,-0.041895162,0,0,0,0,0,0,0,0,0,0,0,0,-0.019534819,-0.351345516,1.720428163,-1.249558912,-1.046071034,-0.113916716,0.314498958,-0.000582294,0.122176464,0.314442821,0.001092681,0.12189861
1704447351.684,0,0,0,0,0,0,0.639191151,2.428528786,-2.46911335,-1.088027,0.144328222,0.684814453,0,0,0,0,0,0,0,0,0,0,0,0,-0.019519906,-0.351273078,1.720578898,-1.249795401,-1.046052392,-0.113425096,0.314498958,-0.000582294,0.122176464,0.314395445,0.001042572,0.12188496
1704447351.69491,0,0,0,0,0,0,0.696323931,2.239194155,-2.59554863,-1.133742809,0.138592571,0.753959179,0,0,0,0,0,0,0,0,0,0,0,0,-0.019449598,-0.351003566,1.720795679,-1.250128296,-1.045949061,-0.113206717,0.314498958,-0.000582294,0.122176464,0.314367083,0.000983609,0.121917443
1704447351.70581,0,0,0,0,0,0,0.702290893,2.313521385,-2.503313303,-0.829002678,0.134345844,0.690665066,0,0,0,0,0,0,0,0,0,0,0,0,-0.019388345,-0.350866147,1.720873444,-1.250957071,-1.046004455,-0.112906845,0.314498958,-0.000582294,0.122176464,0.314329085,0.000813293,0.121931294
1704447351.71676,0,0,0,0,0,0,0.742384195,2.434317589,-2.566641331,-0.421512872,0.144328222,0.627293408,0,0,0,0,0,0,0,0,0,0,0,0,-0.019351594,-0.350729793,1.721031635,-1.252532598,-1.046026826,-0.112459434,0.314498958,-0.000582294,0.122176464,0.314259332,0.000460958,0.12191653
1704447351.72753,0,0,0,0,0,0,0.748116612,2.296402216,-2.520636797,-0.834755182,0.144328222,0.219888434,0,0,0,0,0,0,0,0,0,0,0,0,-0.019276493,-0.350661617,1.721155739,-1.253091329,-1.046041739,-0.111667942,0.314498958,-0.000582294,0.122176464,0.314209127,0.000356275,0.121902816
1704447351.73835,0,0,0,0,0,0,0.748116612,2.520682573,-2.566622019,-0.972551584,0.168467596,0.044945981,0,0,0,0,0,0,0,0,0,0,0,0,-0.019256785,-0.350645638,1.721197284,-1.253361373,-1.046041739,-0.110217585,0.314498958,-0.000582294,0.122176464,0.314191762,0.000300035,0.1218949
1704447351.74926,0,0,0,0,0,0,0.823250175,2.509602547,-2.520741701,-0.869137704,0.138592571,0.369425833,0,0,0,0,0,0,0,0,0,0,0,0,-0.019242404,-0.350621136,1.72125108,-1.253668169,-1.046030021,-0.110006663,0.314498958,-0.000582294,0.122176464,0.314173294,0.000233121,0.121886487
1704447351.76026,0,0,0,0,0,0,0.834457636,2.578227758,-2.561507225,-0.644762397,0.138233677,0.408951372,0,0,0,0,0,0,0,0,0,0,0,0,-0.01916677,-0.3505732,1.721321387,-1.254307861,-1.046037478,-0.109951269,0.314498958,-0.000582294,0.122176464,0.314142331,0.00010909,0.121877127
1704447351.77126,0,0,0,0,0,0,0.828703046,2.398292303,-2.549513817,-0.449791282,0.18451111,0.409234673,0,0,0,0,0,0,0,0,0,0,0,0,-0.019130019,-0.350376658,1.721399152,-1.25519203,-1.046030021,-0.109929431,0.314498958,-0.000582294,0.122176464,0.314127471,-0.000084911,0.121909482
1704447351.78204,0,0,0,0,0,0,0.851779819,2.251987696,-2.514849186,-0.178489834,0.184151784,0.374102563,0,0,0,0,0,0,0,0,0,0,0,0,-0.019076756,-0.350097026,1.72143111,-1.25626848,-1.046030021,-0.109910789,0.314498958,-0.000582294,0.122176464,0.314136172,-0.000318584,0.121975422
1704447351.79277,0,0,0,0,0,0,0.777934074,2.509602547,-2.520603895,-0.34571594,0.197765663,0.333973497,0,0,0,0,0,0,0,0,0,0,0,0,-0.018935608,-0.350075721,1.72143324,-1.256768089,-1.046019369,-0.109918246,0.314498958,-0.000582294,0.122176464,0.314134773,-0.000390796,0.121974812
1704447351.80362,0,0,0,0,0,0,0.811439157,2.428610802,-2.445792913,-0.460415423,0.184241682,0.374102563,0,0,0,0,0,0,0,0,0,0,0,0,-0.018811505,-0.350043763,1.72143111,-1.256878876,-1.045978889,-0.109921974,0.314498958,-0.000582294,0.122176464,0.314148607,-0.000379462,0.121983831
1704447351.81452,0,0,0,0,0,0,0.782666266,2.480461121,-2.480401039,-0.431759179,0.184151784,0.293717504,0,0,0,0,0,0,0,0,0,0,0,0,-0.018724153,-0.350028849,1.72143324,-1.256949184,-1.045971432,-0.109914517,0.314498958,-0.000582294,0.122176464,0.314150716,-0.000368705,0.121987099
1704447351.82528,0,0,0,0,0,0,0.696537912,2.595701694,-2.428610802,-0.437360495,0.213624254,0.310969204,0,0,0,0,0,0,0,0,0,0,0,0,-0.018499915,-0.350018197,1.721442828,-1.257019491,-1.04599327,-0.109925702,0.314498958,-0.000582294,0.122176464,0.314141959,-0.00031356,0.121987382
1704447351.83616,0,0,0,0,0,0,0.535314858,2.457949162,-2.394415855,-0.477678388,0.213624254,0.265280545,0,0,0,0,0,0,0,0,0,0,0,0,-0.018237327,-0.350020327,1.721516331,-1.256949184,-1.046019369,-0.109921974,0.314498958,-0.000582294,0.122176464,0.314107642,-0.000213045,0.121971624
1704447351.84713,0,0,0,0,0,0,0.59410578,2.468892097,-2.446009636,-0.523681641,0.21898292,0.27071771,0,0,0,0,0,0,0,0,0,0,0,0,-0.018051971,-0.350018729,1.7215648,-1.256930542,-1.046008183,-0.109943812,0.314498958,-0.000582294,0.122176464,0.314092338,-0.000150664,0.121961819
1704447351.85792,0,0,0,0,0,0,0.598520935,2.630320549,-2.376736879,-0.518054724,0.236225024,0.242315009,0,0,0,0,0,0,0,0,0,0,0,0,-0.017852767,-0.350021393,1.721557343,-1.25689379,-1.04601564,-0.109925702,0.314498958,-0.000582294,0.122176464,0.314093414,-0.000079269,0.121963104
1704447351.86881,0,0,0,0,0,0,0.51843816,2.682105541,-2.388280869,-0.523808062,0.224729896,0.21898292,0,0,0,0,0,0,0,0,0,0,0,0,-0.017711087,-0.350015001,1.721562137,-1.256889529,-1.046000727,-0.109940616,0.314498958,-0.000582294,0.122176464,0.314096238,-0.00003443,0.121964134
1704447351.87953,0,0,0,0,0,0,0.328474373,2.635728836,-2.348047972,-0.483398438,0.230477288,0.20149821,0,0,0,0,0,0,0,0,0,0,0,0,-0.017400029,-0.350015534,1.721567463,-1.256930542,-1.045978889,-0.109969911,0.314498958,-0.000582294,0.122176464,0.314099266,0.000052803,0.121962261
1704447351.89043,0,0,0,0,0,0,0.140018955,2.560918808,-2.388225317,-0.460954577,0.224508747,0.178767934,0,0,0,0,0,0,0,0,0,0,0,0,-0.016868995,-0.350013403,1.721574388,-1.257004578,-1.045934148,-0.10995553,0.314498958,-0.000582294,0.122176464,0.314107455,0.000200444,0.121960443
1704447351.90125,0,0,0,0,0,0,0.26478073,2.62416935,-2.428501606,-0.455207109,0.214166149,0.150065333,0,0,0,0,0,0,0,0,0,0,0,0,-0.016842363,-0.350005414,1.721572257,-1.256923085,-1.045941604,-0.109966182,0.314498958,-0.000582294,0.122176464,0.314108245,0.000228041,0.121964521
1704447351.91219,0,0,0,0,0,0,0.328020364,2.682105541,-2.331125736,-0.489153177,0.236225024,0.133480266,0,0,0,0,0,0,0,0,0,0,0,0,-0.016854614,-0.350001153,1.721591432,-1.256901247,-1.045967171,-0.10999601,0.314498958,-0.000582294,0.122176464,0.314095071,0.000230524,0.121961958
1704447351.92291,0,0,0,0,0,0,0.345284581,2.607127428,-2.422808409,-0.443152606,0.230477288,0.092255555,0,0,0,0,0,0,0,0,0,0,0,0,-0.01683757,-0.349978782,1.72162552,-1.256896986,-1.045986346,-0.110006663,0.314498958,-0.000582294,0.122176464,0.314079799,0.0002379,0.121961596
1704447351.93396,0,0,0,0,0,0,0.374102563,2.658747435,-2.38249135,-0.466702253,0.241973102,0.058687095,0,0,0,0,0,0,0,0,0,0,0,0,-0.016791231,-0.349948422,1.721620727,-1.256849049,-1.045982084,-0.110006663,0.314498958,-0.000582294,0.122176464,0.314086951,0.000263305,0.121972832
1704447351.94488,0,0,0,0,0,0,0.334221303,2.670256615,-2.324923515,-0.460415423,0.265717119,0.058687095,0,0,0,0,0,0,0,0,0,0,0,0,-0.016783774,-0.349908475,1.721630314,-1.256845321,-1.045986346,-0.110010924,0.314498958,-0.000582294,0.122176464,0.314087056,0.000266684,0.121983334
1704447351.9558,0,0,0,0,0,0,0.368348539,2.651088476,-2.336539268,-0.414381474,0.253274113,-0.005754743,0,0,0,0,0,0,0,0,0,0,0,0,-0.01676673,-0.349823253,1.72168411,-1.256882605,-1.045978889,-0.110051404,0.314498958,-0.000582294,0.122176464,0.314078207,0.000263217,0.121997863
1704447351.96694,0,0,0,0,0,0,0.3572115,2.659444809,-2.42883563,-0.397452414,0.247520864,-0.01726423,0,0,0,0,0,0,0,0,0,0,0,0,-0.01676673,-0.349609135,1.721810344,-1.25689379,-1.045960247,-0.110055132,0.314498958,-0.000582294,0.122176464,0.314060325,0.000260163,0.122037431
1704447351.97789,0,0,0,0,0,0,0.362594485,2.440560818,-2.550812244,-0.386254311,0.236225024,-0.071182244,0,0,0,0,0,0,0,0,0,0,0,0,-0.016788568,-0.349371581,1.7219957,-1.256896986,-1.045882482,-0.110066317,0.314498958,-0.000582294,0.122176464,0.314037861,0.000249798,0.122071606
1704447351.98875,0,0,0,0,0,0,0.374456495,2.319161415,-2.57239604,-0.368303567,0.21898292,-0.097830638,0,0,0,0,0,0,0,0,0,0,0,0,-0.016793894,-0.349180899,1.722239113,-1.256875148,-1.045878754,-0.11007697,0.314498958,-0.000582294,0.122176464,0.313968649,0.000254213,0.122078675
1704447351.99969,0,0,0,0,0,0,0.362594485,2.486109018,-2.57239604,-0.362548828,0.276467353,-0.132858559,0,0,0,0,0,0,0,0,0,0,0,0,-0.016800818,-0.349171844,1.722329128,-1.256837864,-1.045945333,-0.110106797,0.314498958,-0.000582294,0.122176464,0.313918465,0.000264238,0.122062346
1704447352.0106,0,0,0,0,0,0,0.385954112,2.411244154,-2.62416935,-0.362731457,0.247520864,-0.161132813,0,0,0,0,0,0,0,0,0,0,0,0,-0.016813069,-0.349165985,1.72244098,-1.256808569,-1.045930419,-0.110110526,0.314498958,-0.000582294,0.122176464,0.313880367,0.000267241,0.122040204
1704447352.02143,0,0,0,0,0,0,0.414381474,2.331019163,-2.601150274,-0.328474373,0.247453958,-0.179230466,0,0,0,0,0,0,0,0,0,0,0,0,-0.016825319,-0.349144147,1.722460688,-1.256837864,-1.045941604,-0.110121711,0.314498958,-0.000582294,0.122176464,0.313872235,0.000257174,0.122042353
1704447352.03243,0,0,0,0,0,0,0.385739565,2.359620094,-2.618509293,-0.299301982,0.271023363,-0.230261639,0,0,0,0,0,0,0,0,0,0,0,0,-0.016827982,-0.349135093,1.722467612,-1.256875148,-1.045945333,-0.110136625,0.314498958,-0.000582294,0.122176464,0.31386929,0.000247871,0.122043175
1704447352.0433,0,0,0,0,0,0,0.368303567,2.445826769,-2.543655157,-0.25921908,0.276467353,-0.21898292,0,0,0,0,0,0,0,0,0,0,0,0,-0.0168397,-0.349132429,1.722482526,-1.256849049,-1.045934148,-0.110154734,0.314498958,-0.000582294,0.122176464,0.313867057,0.000249846,0.122041122
1704447352.05453,0,0,0,0,0,0,0.357535869,2.468791485,-2.647181988,-0.293548316,0.30548963,-0.259027362,0,0,0,0,0,0,0,0,0,0,0,0,-0.016825319,-0.349132429,1.7225017,-1.25687142,-1.045930419,-0.110180833,0.314498958,-0.000582294,0.122176464,0.31386039,0.000249121,0.122036639
1704447352.06561,0,0,0,0,0,0,0.356840491,2.422808409,-2.652942896,-0.316510886,0.305055678,-0.2934919,0,0,0,0,0,0,0,0,0,0,0,0,-0.016825319,-0.349137223,1.722504364,-1.25683094,-1.045922962,-0.11018829,0.314498958,-0.000582294,0.122176464,0.313861163,0.000258217,0.12203511
1704447352.07646,0,0,0,0,0,0,0.346051037,2.336602926,-2.583886147,-0.368483365,0.293548316,-0.282217205,0,0,0,0,0,0,0,0,0,0,0,0,-0.016817862,-0.349138288,1.72251182,-1.256816026,-1.045827088,-0.110180833,0.314498958,-0.000582294,0.122176464,0.313882989,0.000259784,0.122033418
1704447352.08741,0,0,0,0,0,0,0.322471082,2.411244154,-2.560886621,-0.351227969,0.305055678,-0.287967265,0,0,0,0,0,0,0,0,0,0,0,0,-0.016805612,-0.349136158,1.722507027,-1.256823483,-1.045797261,-0.11018829,0.314498958,-0.000582294,0.122176464,0.313892671,0.000260527,0.122035051
1704447352.09849,0,0,0,0,0,0,0.317816079,2.30190444,-2.595414639,-0.391322553,0.351227969,-0.316981375,0,0,0,0,0,0,0,0,0,0,0,0,-0.016803481,-0.349131897,1.72249957,-1.256841592,-1.045830817,-0.110195747,0.314498958,-0.000582294,0.122176464,0.313887218,0.000258434,0.122037744
1704447352.10936,0,0,0,0,0,0,0.316563189,2.41140914,-2.647688627,-0.362731457,0.328070819,-0.293548316,0,0,0,0,0,0,0,0,0,0,0,0,-0.016813069,-0.349129766,1.72251182,-1.256867691,-1.045845731,-0.110203204,0.314498958,-0.000582294,0.122176464,0.31387864,0.000250105,0.122035376
1704447352.12043,0,0,0,0,0,0,0.345476359,2.405489445,-2.676011324,-0.431759179,0.339578599,-0.305001378,0,0,0,0,0,0,0,0,0,0,0,0,-0.016805612,-0.349130832,1.722504364,-1.256896986,-1.045838274,-0.110210128,0.314498958,-0.000582294,0.122176464,0.313882959,0.000245262,0.122036274
1704447352.13188,0,0,0,0,0,0,0.305001378,2.284749031,-2.647338152,-0.425889909,0.374235332,-0.374235332,0,0,0,0,0,0,0,0,0,0,0,0,-0.016808275,-0.349128701,1.722504364,-1.256875148,-1.045845731,-0.110217585,0.314498958,-0.000582294,0.122176464,0.313881549,0.000249827,0.122037235
1704447352.14291,0,0,0,0,0,0,0.288254619,2.370961189,-2.641433477,-0.466276288,0.397452414,-0.362959653,0,0,0,0,0,0,0,0,0,0,0,0,-0.016808275,-0.349130299,1.722509157,-1.256856506,-1.04584147,-0.110217585,0.314498958,-0.000582294,0.122176464,0.31388082,0.000254001,0.122035945
1704447352.15383,0,0,0,0,0,0,0.293548316,2.296149731,-2.676011324,-0.500695705,0.420135677,-0.362548828,0,0,0,0,0,0,0,0,0,0,0,0,-0.016820525,-0.349135093,1.7225017,-1.256886333,-1.045808446,-0.110236227,0.314498958,-0.000582294,0.122176464,0.313891261,0.000241712,0.122035683
1704447352.16482,0,0,0,0,0,0,0.300130665,2.38249135,-2.72209096,-0.523966134,0.431644112,-0.356979668,0,0,0,0,0,0,0,0,0,0,0,0,-0.016820525,-0.349136158,1.72251182,-1.256923085,-1.045778619,-0.110236227,0.314498958,-0.000582294,0.122176464,0.313894495,0.00023191,0.122032662
1704447352.17586,0,0,0,0,0,0,0.265280545,2.30190444,-2.733503103,-0.529936552,0.391491741,-0.34571594,0,0,0,0,0,0,0,0,0,0,0,0,-0.016834907,-0.349137223,1.7225017,-1.256971022,-1.045715768,-0.110225042,0.314498958,-0.000582294,0.122176464,0.313913875,0.000213388,0.122033927
1704447352.18676,0,0,0,0,0,0,0.271999151,2.2558887,-2.728045702,-0.581342995,0.471888959,-0.402832031,0,0,0,0,0,0,0,0,0,0,0,0,-0.016845027,-0.349132962,1.722516614,-1.257008306,-1.045697659,-0.110232499,0.314498958,-0.000582294,0.122176464,0.313912896,0.00020083,0.122031519
1704447352.19793,0,0,0,0,0,0,0.281982422,2.267397881,-2.681735039,-0.581229091,0.420253873,-0.402996421,0,0,0,0,0,0,0,0,0,0,0,0,-0.016856744,-0.349134027,1.7225017,-1.257019491,-1.045700855,-0.110247412,0.314498958,-0.000582294,0.122176464,0.313917551,0.000194603,0.122034283
1704447352.2089,0,0,0,0,0,0,0.253470123,2.204074144,-2.728136778,-0.587688625,0.477678388,-0.391364872,0,0,0,0,0,0,0,0,0,0,0,0,-0.016866332,-0.349131897,1.722507027,-1.257004578,-1.045715768,-0.110247412,0.314498958,-0.000582294,0.122176464,0.313912099,0.000195754,0.122033981
1704447352.21995,0,0,0,0,0,0,0.241767704,2.284640312,-2.687471151,-0.633440137,0.500794947,-0.397452414,0,0,0,0,0,0,0,0,0,0,0,0,-0.016854614,-0.349130299,1.722497439,-1.257004578,-1.045708312,-0.110258598,0.314498958,-0.000582294,0.122176464,0.313917892,0.000199034,0.122036579
1704447352.2313,0,0,0,0,0,0,0.247721478,2.319168806,-2.733503103,-0.627504528,0.506711602,-0.443451405,0,0,0,0,0,0,0,0,0,0,0,0,-0.016856744,-0.349130832,1.722507027,-1.257000849,-1.045720029,-0.110269783,0.314498958,-0.000582294,0.122176464,0.313911173,0.000199818,0.122034363
1704447352.24239,0,0,0,0,0,0,0.207170755,2.308003664,-2.773810148,-0.639009774,0.477782339,-0.477782339,0,0,0,0,0,0,0,0,0,0,0,0,-0.016845027,-0.349135093,1.72249957,-1.257012035,-1.045697659,-0.110292153,0.314498958,-0.000582294,0.122176464,0.313919145,0.000199859,0.122034516
1704447352.25334,0,0,0,0,0,0,0.195999488,2.307659149,-2.739263773,-0.633047938,0.448906839,-0.478198022,0,0,0,0,0,0,0,0,0,0,0,0,-0.016849288,-0.349137223,1.7225017,-1.257022687,-1.045675288,-0.110302806,0.314498958,-0.000582294,0.122176464,0.3139237,0.000195065,0.122033255
1704447352.26454,0,0,0,0,0,0,0.20725067,2.296207428,-2.71633625,-0.615784407,0.494941384,-0.529467642,0,0,0,0,0,0,0,0,0,0,0,0,-0.016854614,-0.349138288,1.7225017,-1.257019491,-1.045660375,-0.11031772,0.314498958,-0.000582294,0.122176464,0.313927443,0.00019347,0.122032975
1704447352.27558,0,0,0,0,0,0,0.18451111,2.175323248,-2.739989042,-0.650387824,0.466276288,-0.540945888,0,0,0,0,0,0,0,0,0,0,0,0,-0.016862071,-0.349140419,1.7225017,-1.257015763,-1.045667831,-0.110332633,0.314498958,-0.000582294,0.122176464,0.313925311,0.000192333,0.122032351
1704447352.28659,0,0,0,0,0,0,0.161235541,2.279139757,-2.751254797,-0.645173192,0.483398438,-0.575733244,0,0,0,0,0,0,0,0,0,0,0,0,-0.016864201,-0.349137756,1.7225017,-1.257012035,-1.045667831,-0.110365657,0.314498958,-0.000582294,0.122176464,0.313925677,0.000192524,0.122033238
1704447352.29812,0,0,0,0,0,0,0.139188677,2.1352036,-2.750773191,-0.627504528,0.454624712,-0.558328748,0,0,0,0,0,0,0,0,0,0,0,0,-0.016856744,-0.349139354,1.722494776,-1.257008306,-1.04569393,-0.1103582,0.314498958,-0.000582294,0.122176464,0.313921474,0.000196857,0.122034278
1704447352.30935,0,0,0,0,0,0,0.126735061,2.267397881,-2.865885258,-0.627504528,0.495208919,-0.552575231,0,0,0,0,0,0,0,0,0,0,0,0,-0.016859408,-0.349137223,1.722484656,-1.257022687,-1.04567156,-0.110384299,0.314498958,-0.000582294,0.122176464,0.31393121,0.00019161,0.122036975
1704447352.32048,0,0,0,0,0,0,0.127126426,2.255976915,-2.82558465,-0.627504528,0.471888959,-0.552485347,0,0,0,0,0,0,0,0,0,0,0,0,-0.016879115,-0.349137756,1.722487319,-1.257019491,-1.04567156,-0.110402941,0.314498958,-0.000582294,0.122176464,0.313930162,0.000186184,0.12203627
1704447352.33238,0,0,0,0,0,0,0.127126426,2.152343273,-2.802654505,-0.633047938,0.449017495,-0.661820471,0,0,0,0,0,0,0,0,0,0,0,0,-0.016890833,-0.349139886,1.722489982,-1.257034405,-1.04567156,-0.11042105,0.314498958,-0.000582294,0.122176464,0.313928714,0.000179064,0.122034818
1704447352.34365,0,0,0,0,0,0,0.125685498,2.186810017,-2.814122438,-0.610111356,0.483398438,-0.702102244,0,0,0,0,0,0,0,0,0,0,0,0,-0.01690042,-0.349141484,1.722484656,-1.257034405,-1.045675288,-0.110454606,0.314498958,-0.000582294,0.122176464,0.31392961,0.000176189,0.122035475
1704447352.35514,0,0,0,0,0,0,0.103745103,2.175414562,-2.871824503,-0.593436539,0.454661161,-0.638802409,0,0,0,0,0,0,0,0,0,0,0,0,-0.01689829,-0.349145745,1.722484656,-1.257019491,-1.045667831,-0.110473248,0.314498958,-0.000582294,0.122176464,0.31393118,0.000179997,0.122034346
1704447352.36631,0,0,0,0,0,0,0.092792444,2.060399055,-2.848603725,-0.592850268,0.426006526,-0.679279149,0,0,0,0,0,0,0,0,0,0,0,0,-0.016905747,-0.349152137,1.722482526,-1.257012035,-1.045667831,-0.11051,0.314498958,-0.000582294,0.122176464,0.31393131,0.000179387,0.122032906
1704447352.37741,0,0,0,0,0,0,0.075032666,2.13504076,-2.842988729,-0.581342995,0.437511921,-0.702102244,0,0,0,0,0,0,0,0,0,0,0,0,-0.01689829,-0.349150006,1.722475069,-1.257008306,-1.045679017,-0.110521185,0.314498958,-0.000582294,0.122176464,0.313931598,0.000183042,0.122035243
1704447352.38847,0,0,0,0,0,0,0.043826818,2.025677919,-2.90623641,-0.592766464,0.448869973,-0.806403577,0,0,0,0,0,0,0,0,0,0,0,0,-0.016910008,-0.349150006,1.722482526,-1.257022687,-1.04567156,-0.110539295,0.314498958,-0.000582294,0.122176464,0.313930489,0.000175738,0.122033427
1704447352.39958,0,0,0,0,0,0,0.036848336,2.077462196,-2.877423525,-0.569835842,0.408748835,-0.776975572,0,0,0,0,0,0,0,0,0,0,0,0,-0.016907877,-0.34914681,1.722467612,-1.257015763,-1.045667831,-0.110569122,0.314498958,-0.000582294,0.122176464,0.313937644,0.000177745,0.12203778
1704447352.41058,0,0,0,0,0,0,0.018198097,1.974011064,-2.911905766,-0.558684468,0.397244036,-0.874796689,0,0,0,0,0,0,0,0,0,0,0,0,-0.016910008,-0.349148941,1.722472938,-1.257004578,-1.045686474,-0.11059895,0.314498958,-0.000582294,0.122176464,0.313930673,0.000180546,0.122036087
1704447352.42163,0,0,0,0,0,0,0.03452846,2.048817873,-2.934941769,-0.56974864,0.431759179,-0.886529386,0,0,0,0,0,0,0,0,0,0,0,0,-0.016915334,-0.349151604,1.722477732,-1.256985936,-1.04569393,-0.110617059,0.314498958,-0.000582294,0.122176464,0.313926804,0.000183574,0.122034454
1704447352.43249,0,0,0,0,0,0,-0.012867997,2.019947767,-2.952183247,-0.569719553,0.414381474,-0.915076554,0,0,0,0,0,0,0,0,0,0,0,0,-0.016917465,-0.349152137,1.722460688,-1.256985936,-1.045700855,-0.110658072,0.314498958,-0.000582294,0.122176464,0.313931509,0.000183105,0.122037999
1704447352.44356,0,0,0,0,0,0,-0.012867997,1.893310547,-2.906145334,-0.581229091,0.437701106,-0.903568029,0,0,0,0,0,0,0,0,0,0,0,0,-0.016920128,-0.349155333,1.722458025,-1.256982207,-1.045686474,-0.110684171,0.314498958,-0.000582294,0.122176464,0.313935886,0.000182481,0.122037638
1704447352.45502,0,0,0,0,0,0,-0.041895162,2.008537292,-3.004064083,-0.56974864,0.397452414,-0.840271354,0,0,0,0,0,0,0,0,0,0,0,0,-0.016930248,-0.349160659,1.722453231,-1.256971022,-1.04569393,-0.11070228,0.314498958,-0.000582294,0.122176464,0.313935294,0.000182215,0.122037158
1704447352.46594,0,0,0,0,0,0,-0.035004739,1.876081586,-2.963742971,-0.547185004,0.397077292,-0.857630491,0,0,0,0,0,0,0,0,0,0,0,0,-0.016934509,-0.349160659,1.722455894,-1.256978479,-1.04569393,-0.110747021,0.314498958,-0.000582294,0.122176464,0.313934186,0.000179163,0.122036476
1704447352.4771,0,0,0,0,0,0,-0.049168546,1.973910451,-2.934941769,-0.518214583,0.391491741,-0.875194073,0,0,0,0,0,0,0,0,0,0,0,0,-0.016947292,-0.34916492,1.722453231,-1.256985936,-1.045682745,-0.110776316,0.314498958,-0.000582294,0.122176464,0.313937487,0.000172909,0.122035626
1704447352.48797,0,0,0,0,0,0,-0.058687095,1.956748128,-3.027044058,-0.483398438,0.374102563,-0.903568029,0,0,0,0,0,0,0,0,0,0,0,0,-0.01695901,-0.349165985,1.72244098,-1.256989664,-1.045686474,-0.110813068,0.314498958,-0.000582294,0.122176464,0.313941066,0.000168454,0.12203791
1704447352.49894,0,0,0,0,0,0,-0.065614171,1.985394716,-2.992488623,-0.517958879,0.398118466,-0.909540772,0,0,0,0,0,0,0,0,0,0,0,0,-0.016966467,-0.349162789,1.72243885,-1.25697475,-1.045708312,-0.110839167,0.314498958,-0.000582294,0.122176464,0.313936828,0.000170533,0.122039564
1704447352.50982,0,0,0,0,0,0,-0.092255555,1.933627963,-2.986717463,-0.494941384,0.391998976,-0.903513014,0,0,0,0,0,0,0,0,0,0,0,0,-0.016978185,-0.349162789,1.722429262,-1.256959837,-1.045715768,-0.110890832,0.314498958,-0.000582294,0.122176464,0.313938766,0.000170589,0.122041853
1704447352.52087,0,0,0,0,0,0,-0.103745103,1.847308397,-3.004769802,-0.483535409,0.351086527,-0.949550092,0,0,0,0,0,0,0,0,0,0,0,0,-0.016976054,-0.349167051,1.722421806,-1.256949184,-1.04573441,-0.110946226,0.314498958,-0.000582294,0.122176464,0.313936443,0.000174527,0.122042273
1704447352.53173,0,0,0,0,0,0,-0.103745103,1.795562983,-3.067299604,-0.471924037,0.368483365,-1.047505498,0,0,0,0,0,0,0,0,0,0,0,0,-0.01698138,-0.349167583,1.722421806,-1.256956641,-1.045715768,-0.110994695,0.314498958,-0.000582294,0.122176464,0.313941087,0.000170289,0.122042018
1704447352.54264,0,0,0,0,0,0,-0.103745103,1.8760463,-3.027082443,-0.460379452,0.34571594,-1.007490993,0,0,0,0,0,0,0,0,0,0,0,0,-0.016988305,-0.349173442,1.722416479,-1.256959837,-1.04573441,-0.111068731,0.314498958,-0.000582294,0.122176464,0.313937595,0.000168185,0.122041283
1704447352.55349,0,0,0,0,0,0,-0.141079262,1.847281575,-3.096100092,-0.437398344,0.322471082,-1.024360418,0,0,0,0,0,0,0,0,0,0,0,0,-0.016995229,-0.349179834,1.722419142,-1.256952912,-1.045730682,-0.111149691,0.314498958,-0.000582294,0.122176464,0.313936836,0.000167483,0.122038793
1704447352.56486,0,0,0,0,0,0,-0.17273818,1.847272635,-3.102068186,-0.449017495,0.299744248,-1.007145882,0,0,0,0,0,0,0,0,0,0,0,0,-0.016993098,-0.349184095,1.722419142,-1.256949184,-1.045712573,-0.11128711,0.314498958,-0.000582294,0.122176464,0.313941018,0.000168216,0.12203752
1704447352.5758,0,0,0,0,0,0,-0.179876015,1.824398875,-3.107646704,-0.431644112,0.305001378,-0.857476056,0,0,0,0,0,0,0,0,0,0,0,0,-0.017005349,-0.349187291,1.722414349,-1.256923085,-1.045738139,-0.111512414,0.314498958,-0.000582294,0.122176464,0.313936199,0.000171551,0.122037898
1704447352.58684,0,0,0,0,0,0,-0.179230466,1.801317334,-3.084547758,-0.431644112,0.310969204,-0.52821517,0,0,0,0,0,0,0,0,0,0,0,0,-0.017005349,-0.349188888,1.722412218,-1.256904443,-1.045745596,-0.112107897,0.314498958,-0.000582294,0.122176464,0.313935119,0.000176204,0.12203811
1704447352.59814,0,0,0,0,0,0,-0.189993694,1.772460938,-3.170910597,-0.431644112,0.287967265,0.033555631,0,0,0,0,0,0,0,0,0,0,0,0,-0.01701973,-0.349188356,1.722402098,-1.25689379,-1.045745596,-0.113458119,0.314498958,-0.000582294,0.122176464,0.313939196,0.000174096,0.122040629
1704447352.6092,0,0,0,0,0,0,-0.219360664,1.737932444,-3.0734694,-0.402873129,0.276766658,-0.346481442,0,0,0,0,0,0,0,0,0,0,0,0,-0.017034644,-0.349190486,1.722392511,-1.256904443,-1.045771162,-0.113920444,0.314498958,-0.000582294,0.122176464,0.313935929,0.000168027,0.122041888
1704447352.62027,0,0,0,0,0,0,-0.241699219,1.594074249,-3.130601406,-0.362731457,0.253274113,-0.339724869,0,0,0,0,0,0,0,0,0,0,0,0,-0.017039437,-0.349194747,1.722389848,-1.256908171,-1.045771162,-0.113972109,0.314498958,-0.000582294,0.122176464,0.313936394,0.000165647,0.12204108
1704447352.63169,0,0,0,0,0,0,-0.207888842,1.651771665,-3.130580425,-0.368483365,0.230261639,-0.305055678,0,0,0,0,0,0,0,0,0,0,0,0,-0.017044231,-0.349193682,1.722395174,-1.256901247,-1.045775423,-0.113957728,0.314498958,-0.000582294,0.122176464,0.313933461,0.000165974,0.122040344
1704447352.64256,0,0,0,0,0,0,-0.25921908,1.66888535,-3.194136381,-0.351086527,0.224729896,-0.287794709,0,0,0,0,0,0,0,0,0,0,0,0,-0.017046362,-0.349204335,1.722387717,-1.256875148,-1.045778619,-0.11394601,0.314498958,-0.000582294,0.122176464,0.313934512,0.000171483,0.12203898
1704447352.65343,0,0,0,0,0,0,-0.271023363,1.686149597,-3.245721102,-0.3572115,0.21875596,-0.247721478,0,0,0,0,0,0,0,0,0,0,0,0,-0.017051688,-0.349208596,1.722387717,-1.256878876,-1.045786076,-0.113938554,0.314498958,-0.000582294,0.122176464,0.313932036,0.000169288,0.122037586
1704447352.66449,0,0,0,0,0,0,-0.276467353,1.674640059,-3.182705879,-0.339529842,0.230261639,-0.213003263,0,0,0,0,0,0,0,0,0,0,0,0,-0.017073526,-0.349213922,1.72236801,-1.256867691,-1.045789804,-0.113935358,0.314498958,-0.000582294,0.122176464,0.313938136,0.000165079,0.122040362
1704447352.67594,0,0,0,0,0,0,-0.305218488,1.576841593,-3.211275578,-0.316563189,0.20725067,-0.18451111,0,0,0,0,0,0,0,0,0,0,0,0,-0.017085776,-0.349218183,1.722375467,-1.25687142,-1.04578288,-0.113912987,0.314498958,-0.000582294,0.122176464,0.313936494,0.000160115,0.122037352
1704447352.687,0,0,0,0,0,0,-0.293717504,1.674640059,-3.211152077,-0.316720068,0.213003263,-0.133480266,0,0,0,0,0,0,0,0,0,0,0,0,-0.01708045,-0.349216053,1.722358422,-1.256867691,-1.045797261,-0.11388316,0.314498958,-0.000582294,0.122176464,0.313939646,0.000163181,0.122041779
1704447352.69843,0,0,0,0,0,0,-0.345476359,1.565300703,-3.188148499,-0.310969204,0.184151784,-0.109340124,0,0,0,0,0,0,0,0,0,0,0,0,-0.017095364,-0.349217118,1.722358422,-1.256863963,-1.045808446,-0.113872507,0.314498958,-0.000582294,0.122176464,0.313936686,0.000159868,0.122041487
1704447352.70938,0,0,0,0,0,0,-0.328070819,1.473259211,-3.240048409,-0.299301982,0.178489834,-0.054290138,0,0,0,0,0,0,0,0,0,0,0,0,-0.017097494,-0.349220846,1.722348302,-1.256841592,-1.045827088,-0.11386505,0.314498958,-0.000582294,0.122176464,0.313935585,0.000165171,0.122042816
1704447352.7206,0,0,0,0,0,0,-0.363688856,1.594323635,-3.309382677,-0.282041132,0.166887552,-0.030990241,0,0,0,0,0,0,0,0,0,0,0,0,-0.017110277,-0.349224575,1.722346172,-1.256823483,-1.045827088,-0.113850137,0.314498958,-0.000582294,0.122176464,0.313936161,0.000165358,0.122042357
1704447352.73174,0,0,0,0,0,0,-0.356979668,1.525017858,-3.217030048,-0.26478073,0.173025519,-0.023018973,0,0,0,0,0,0,0,0,0,0,0,0,-0.017112408,-0.349226173,1.722344041,-1.256808569,-1.045834013,-0.113831494,0.314498958,-0.000582294,0.122176464,0.313935177,0.000168452,0.122042518
1704447352.74296,0,0,0,0,0,0,-0.397118986,1.450298071,-3.280223608,-0.253470123,0.156334251,0.04069218,0,0,0,0,0,0,0,0,0,0,0,0,-0.017119865,-0.349237358,1.722338715,-1.256801112,-1.04584147,-0.113820309,0.314498958,-0.000582294,0.122176464,0.313934037,0.000168165,0.122040265
1704447352.75392,0,0,0,0,0,0,-0.391364872,1.455961466,-3.245802641,-0.21898292,0.144328222,0.088030644,0,0,0,0,0,0,0,0,0,0,0,0,-0.017119865,-0.349241619,1.722331791,-1.256808569,-1.045827088,-0.113798471,0.314498958,-0.000582294,0.122176464,0.313939793,0.000165752,0.122040346
1704447352.76489,0,0,0,0,0,0,-0.420450836,1.467470884,-3.332120657,-0.224508747,0.120986551,0.132858559,0,0,0,0,0,0,0,0,0,0,0,0,-0.017129452,-0.349249076,1.722324334,-1.256812297,-1.045845731,-0.113772372,0.314498958,-0.000582294,0.122176464,0.313936921,0.000162678,0.122039568
1704447352.77582,0,0,0,0,0,0,-0.426200807,1.444623947,-3.349339485,-0.213003263,0.109944217,0.155484602,0,0,0,0,0,0,0,0,0,0,0,0,-0.017146496,-0.349251739,1.722321671,-1.256793655,-1.045845731,-0.113757459,0.314498958,-0.000582294,0.122176464,0.313937837,0.000161645,0.122039567
1704447352.78695,0,0,0,0,0,0,-0.426200807,1.479069829,-3.3262465,-0.201416016,0.120986551,0.195999488,0,0,0,0,0,0,0,0,0,0,0,0,-0.01716141,-0.349255467,1.722321671,-1.256778742,-1.045871297,-0.113746806,0.314498958,-0.000582294,0.122176464,0.313930985,0.000161581,0.122038582
1704447352.79785,0,0,0,0,0,0,-0.437398344,1.409923911,-3.303543329,-0.195661277,0.063563213,0.213236347,0,0,0,0,0,0,0,0,0,0,0,0,-0.017178454,-0.349255467,1.72230729,-1.256768089,-1.045871297,-0.113728164,0.314498958,-0.000582294,0.122176464,0.313936636,0.000158609,0.122041864
1704447352.80901,0,0,0,0,0,0,-0.466134191,1.335100412,-3.350095749,-0.167283967,0.063563213,0.282217205,0,0,0,0,0,0,0,0,0,0,0,0,-0.017192835,-0.349256533,1.722287582,-1.256763828,-1.045871297,-0.113694608,0.314498958,-0.000582294,0.122176464,0.31394413,0.000154956,0.122045885
1704447352.82004,0,0,0,0,0,0,-0.506548226,1.254586816,-3.343510628,-0.14962332,0.069296286,0.305218488,0,0,0,0,0,0,0,0,0,0,0,0,-0.017202423,-0.349260794,1.722292909,-1.256753175,-1.045893668,-0.113687151,0.314498958,-0.000582294,0.122176464,0.313935939,0.000155468,0.122043516
1704447352.83158,0,0,0,0,0,0,-0.478890061,1.329395533,-3.337755919,-0.139188677,0.065614171,0.305218488,0,0,0,0,0,0,0,0,0,0,0,0,-0.017202423,-0.349269849,1.722282789,-1.256756371,-1.045893668,-0.113657856,0.314498958,-0.000582294,0.122176464,0.313938693,0.000154677,0.122042837
1704447352.84251,0,0,0,0,0,0,-0.546700597,1.294830084,-3.355020285,-0.138233677,0.041895162,0.328020364,0,0,0,0,0,0,0,0,0,0,0,0,-0.017216804,-0.349276773,1.722285452,-1.256745718,-1.045886211,-0.113621105,0.314498958,-0.000582294,0.122176464,0.313938873,0.000152335,0.122040233
1704447352.85333,0,0,0,0,0,0,-0.517958879,1.346917272,-3.407294035,-0.120986551,0.046396222,0.402873129,0,0,0,0,0,0,0,0,0,0,0,0,-0.017233848,-0.34928423,1.722275864,-1.256727076,-1.045911777,-0.11360193,0.314498958,-0.000582294,0.122176464,0.313935296,0.000152412,0.12204022
1704447352.8644,0,0,0,0,0,0,-0.506417394,1.237269759,-3.406812906,-0.10949146,0.023018973,0.379987389,0,0,0,0,0,0,0,0,0,0,0,0,-0.017231718,-0.349291686,1.722280658,-1.256700977,-1.045922962,-0.113591277,0.314498958,-0.000582294,0.122176464,0.313929973,0.000159692,0.122037183
1704447352.87553,0,0,0,0,0,0,-0.524187267,1.156717658,-3.401097059,-0.097999744,0.012867997,0.52956146,0,0,0,0,0,0,0,0,0,0,0,0,-0.017241305,-0.349295948,1.722268407,-1.256690325,-1.045919234,-0.113539079,0.314498958,-0.000582294,0.122176464,0.313935247,0.000158917,0.122038665
1704447352.88636,0,0,0,0,0,0,-0.541221261,1.28377223,-3.458605528,-0.086512759,0.008138436,0.51843816,0,0,0,0,0,0,0,0,0,0,0,0,-0.017261012,-0.349294882,1.722253494,-1.256686596,-1.045937876,-0.11352097,0.314498958,-0.000582294,0.122176464,0.313936359,0.000154331,0.12204229
1704447352.89772,0,0,0,0,0,0,-0.576509237,1.202755094,-3.441379547,-0.08239539,0.018198097,0.506417394,0,0,0,0,0,0,0,0,0,0,0,0,-0.017278057,-0.349302339,1.72224657,-1.256682868,-1.045937876,-0.113495404,0.314498958,-0.000582294,0.122176464,0.313938161,0.000149816,0.12204151
1704447352.90874,0,0,0,0,0,0,-0.58194083,1.232173681,-3.475869894,-0.06735754,-0.023727413,0.587011993,0,0,0,0,0,0,0,0,0,0,0,0,-0.017290307,-0.3493066,1.722239113,-1.256667954,-1.045937876,-0.113465576,0.314498958,-0.000582294,0.122176464,0.313940683,0.000149393,0.122042002
1704447352.91962,0,0,0,0,0,0,-0.581229091,1.174023986,-3.475864887,-0.043826818,-0.054594286,0.558328748,0,0,0,0,0,0,0,0,0,0,0,0,-0.017297764,-0.349307133,1.72223645,-1.256664226,-1.045963975,-0.113425096,0.314498958,-0.000582294,0.122176464,0.313934976,0.000149072,0.122042449
1704447352.93111,0,0,0,0,0,0,-0.564082265,1.145208359,-3.441336393,-0.035004739,-0.054290138,0.662020624,0,0,0,0,0,0,0,0,0,0,0,0,-0.017319069,-0.349314057,1.722224732,-1.25665304,-1.045941604,-0.113395269,0.314498958,-0.000582294,0.122176464,0.313944523,0.000143915,0.122042999
1704447352.94208,0,0,0,0,0,0,-0.627504528,1.19711113,-3.49320507,-0.018198097,-0.064339988,0.615865111,0,0,0,0,0,0,0,0,0,0,0,0,-0.017326526,-0.34932684,1.722224732,-1.256623213,-1.045963975,-0.113347332,0.314498958,-0.000582294,0.122176464,0.313937566,0.000149532,0.122039379
1704447352.953,0,0,0,0,0,0,-0.621938407,1.179778457,-3.527699709,-0.025735995,-0.061980482,0.696537912,0,0,0,0,0,0,0,0,0,0,0,0,-0.017348897,-0.34933483,1.722214612,-1.256627474,-1.045982084,-0.113298862,0.314498958,-0.000582294,0.122176464,0.313935784,0.000142282,0.122039008
1704447352.96383,0,0,0,0,0,0,-0.61599946,1.156832218,-3.539185762,0,-0.069534823,0.736697078,0,0,0,0,0,0,0,0,0,0,0,0,-0.017375528,-0.349341754,1.722217275,-1.256616289,-1.045989541,-0.113236012,0.314487811,0.002711103,0.122176464,0.313932137,0.000136886,0.122036402
1704447352.9747,0,0,0,0,0,0,-0.604248047,1.012834787,-3.550905228,0.020749021,-0.076777853,0.673403323,0,0,0,0,0,0,0,0,0,0,0,0,-0.01740216,-0.349350276,1.722202361,-1.256608832,-1.045986346,-0.113136409,0.314487811,0.002711103,0.122176464,0.313937746,0.000130032,0.122037083
1704447352.98558,0,0,0,0,0,0,-0.593185365,1.16281426,-3.504714251,0.018198097,-0.1156689,0.730875075,0,0,0,0,0,0,0,0,0,0,0,0,-0.017458086,-0.349350809,1.722192774,-1.256601375,-1.046008183,-0.113036275,0.314487811,0.002711103,0.122176464,0.313935844,0.000115125,0.122039094
1704447352.99714,0,0,0,0,0,0,-0.610436976,1.076383114,-3.562204599,0.018198097,-0.1156689,0.644634008,0,0,0,0,0,0,0,0,0,0,0,0,-0.017540644,-0.349354004,1.722185317,-1.256597647,-1.046023097,-0.112847723,0.314419303,0.007101774,0.122176464,0.313934539,0.000090699,0.122039758
1704447353.00806,0,0,0,0,0,0,-0.399115413,1.162586331,-3.48163867,0.036396194,-0.115094863,0.535314858,0,0,0,0,0,0,0,0,0,0,0,0,-0.017852767,-0.349360929,1.722173599,-1.256579005,-1.04601564,-0.112529741,0.314419303,0.007101774,0.122176464,0.313940349,-0.000003358,0.122040399
1704447353.01889,0,0,0,0,0,0,-0.385954112,1.082029462,-3.60859561,0.049168546,-0.115094863,0.207888842,0,0,0,0,0,0,0,0,0,0,0,0,-0.018183531,-0.349366255,1.722166142,-1.256527339,-1.046023097,-0.111952901,0.314419303,0.007101774,0.122176464,0.313941239,-0.000094902,0.122041056
1704447353.03087,0,0,0,0,0,0,-0.414381474,0.989815831,-3.550676584,0.087085068,-0.122076541,-0.32272771,0,0,0,0,0,0,0,0,0,0,0,0,-0.018214957,-0.349381701,1.722166142,-1.256483131,-1.046030021,-0.110820525,0.314327695,0.010393916,0.122176464,0.313938102,-0.000094154,0.122036809
1704447353.04178,0,0,0,0,0,0,-0.3572115,0.995720267,-3.625492811,0.173025519,-0.132359087,-0.103585377,0,0,0,0,0,0,0,0,0,0,0,0,-0.018263959,-0.349398213,1.722146435,-1.25646076,-1.046026826,-0.110391756,0.314327695,0.010393916,0.122176464,0.313944753,-0.000104587,0.122036232
1704447353.0526,0,0,0,0,0,0,-0.385610729,1.053133726,-3.63700223,0.264968276,-0.150065333,-0.224729896,0,0,0,0,0,0,0,0,0,0,0,0,-0.018414694,-0.349421649,1.722136847,-1.256338787,-1.046041739,-0.110432768,0.314327695,0.010393916,0.122176464,0.313943181,-0.000122922,0.12203263
1704447353.06385,0,0,0,0,0,0,-0.306355625,1.001391411,-3.579524517,0.328827053,-0.138233677,-0.404309124,0,0,0,0,0,0,0,0,0,0,0,0,-0.018675151,-0.349464792,1.722122466,-1.256213086,-1.046030021,-0.110517457,0.314201618,0.013684918,0.122176464,0.313947939,-0.000176032,0.122023959
1704447353.07487,0,0,0,0,0,0,0.04069218,0.978577137,-3.660382986,0.374102563,-0.155803755,-0.558476985,0,0,0,0,0,0,0,0,0,0,0,0,-0.019279156,-0.34960807,1.722095302,-1.255869006,-1.046052392,-0.110654343,0.314201618,0.013684918,0.122176464,0.313939235,-0.000284598,0.12198964
1704447353.0857,0,0,0,0,0,0,-0.016276872,1.061512232,-3.683076143,0.225098014,-0.156334251,-0.840212166,0,0,0,0,0,0,0,0,0,0,0,0,-0.019571038,-0.349855211,1.722031919,-1.255210672,-1.046049196,-0.110827981,0.314201618,0.013684918,0.122176464,0.313942351,-0.000223382,0.121935031
1704447353.09726,0,0,0,0,0,0,-0.143983632,1.191454291,-3.671544075,-0.247520864,-0.17273818,-0.880550981,0,0,0,0,0,0,0,0,0,0,0,0,-0.01959767,-0.350074123,1.721986112,-1.253716106,-1.046063577,-0.111179519,0.313979919,0.018070524,0.122176464,0.313948059,0.000116146,0.121897389
1704447353.10816,0,0,0,0,0,0,-0.155378073,1.20855093,-3.614052057,0.044945981,-0.190689638,-0.4647111,0,0,0,0,0,0,0,0,0,0,0,0,-0.019685022,-0.35029197,1.721915272,-1.252362155,-1.046074762,-0.112403507,0.313979919,0.018070524,0.122176464,0.313962865,0.000403589,0.121863941
1704447353.11892,0,0,0,0,0,0,-0.173025519,1.163155913,-3.72335887,0.156334251,-0.207490206,-0.659087718,0,0,0,0,0,0,0,0,0,0,0,0,-0.019824039,-0.350324993,1.721920066,-1.251548826,-1.046148798,-0.114486099,0.313979919,0.018070524,0.122176464,0.313948316,0.0005523,0.121864407
1704447353.13073,0,0,0,0,0,0,-0.241699219,1.197000504,-3.683040142,-0.086512759,-0.224729896,-0.552934706,0,0,0,0,0,0,0,0,0,0,0,0,-0.019834159,-0.35045602,1.721908348,-1.250390883,-1.046156255,-0.115477861,0.313773473,0.021357463,0.122176464,0.313949755,0.000818516,0.121843002
1704447353.14173,0,0,0,0,0,0,-0.189993694,1.145323992,-3.700944185,-0.035004739,-0.293548316,-0.657654107,0,0,0,0,0,0,0,0,0,0,0,0,-0.020006731,-0.350548166,1.721800756,-1.248241712,-1.046156255,-0.118244352,0.313773473,0.021357463,0.122176464,0.314007914,0.001262601,0.121870099
1704447353.15264,0,0,0,0,0,0,-0.023727413,0.984128356,-3.717635393,-0.402873129,-0.316981375,-0.604494631,0,0,0,0,0,0,0,0,0,0,0,0,-0.020432837,-0.350548166,1.72169636,-1.246536757,-1.046159984,-0.119228124,0.313773473,0.021357463,0.122176464,0.314070214,0.001523838,0.121919362
1704447353.16391,0,0,0,0,0,0,-0.21875596,1.019174576,-3.637548447,0.054594286,-0.346481442,-0.138592571,0,0,0,0,0,0,0,0,0,0,0,0,-0.020447218,-0.350562014,1.721448154,-1.245138597,-1.046285685,-0.121676634,0.313532618,0.02464206,0.122176464,0.314150447,0.001847762,0.121991279
1704447353.17489,0,0,0,0,0,0,-0.287737161,0.961197197,-3.424091578,0.25921908,-0.374235332,-0.874720991,0,0,0,0,0,0,0,0,0,0,0,0,-0.020498351,-0.350584917,1.721231373,-1.244158554,-1.046318708,-0.123034314,0.313532618,0.02464206,0.122176464,0.314235879,0.002059014,0.122047129
1704447353.18571,0,0,0,0,0,0,-0.339578599,0.869137704,-3.406929493,-0.196421444,-0.420253873,-0.253274113,0,0,0,0,0,0,0,0,0,0,0,0,-0.020532439,-0.350624865,1.721075311,-1.242431228,-1.046322436,-0.125131287,0.313532618,0.02464206,0.122176464,0.314313839,0.002448109,0.122096933
1704447353.19715,0,0,0,0,0,0,-0.40858677,0.930009902,-3.418322325,0.47795558,-0.437511921,-1.013243437,0,0,0,0,0,0,0,0,0,0,0,0,-0.020549484,-0.350794242,1.720963459,-1.240774209,-1.046329893,-0.126507609,0.31325738,0.027923955,0.122176464,0.314357505,0.002827036,0.12209585
1704447353.20802,0,0,0,0,0,0,-0.466276288,0.842161059,-3.464398384,-0.491314888,-0.547457278,0.162055045,0,0,0,0,0,0,0,0,0,0,0,0,-0.020634705,-0.350996642,1.720900608,-1.238144071,-1.046396472,-0.129522307,0.31325738,0.027923955,0.122176464,0.31437763,0.003413457,0.122091158
1704447353.21895,0,0,0,0,0,0,-0.518054724,0.989815831,-3.429831982,0.163681731,-0.564082265,-0.794488072,0,0,0,0,0,0,0,0,0,0,0,0,-0.020668793,-0.351215021,1.720873444,-1.236409288,-1.046504064,-0.130831517,0.31325738,0.027923955,0.122176464,0.314359199,0.003810536,0.122059074
1704447353.23154,0,0,0,0,0,0,-0.501488805,0.96147275,-3.470415354,-0.379856646,-0.56974864,-0.109944217,0,0,0,0,0,0,0,0,0,0,0,0,-0.020754014,-0.351309297,1.720887825,-1.233576217,-1.046596209,-0.133246471,0.312836966,0.032294989,0.122176464,0.314360689,0.004445418,0.122077633
1704447353.24245,0,0,0,0,0,0,-0.552485347,0.92092073,-3.498902798,-0.277185142,-0.627926588,-0.762259126,0,0,0,0,0,0,0,0,0,0,0,0,-0.020875987,-0.351649649,1.720883564,-1.230321301,-1.046777837,-0.134877924,0.312836966,0.032294989,0.122176464,0.314324233,0.005171248,0.122032681
1704447353.25337,0,0,0,0,0,0,-0.51843816,0.984128356,-3.56794548,0.167778164,-0.719365895,-0.299301982,0,0,0,0,0,0,0,0,0,0,0,0,-0.021016602,-0.352007046,1.720883564,-1.228586518,-1.046843883,-0.137112316,0.312836966,0.032294989,0.122176464,0.314291463,0.005533244,0.121953829
1704447353.26426,0,0,0,0,0,0,-0.449459791,1.001920462,-3.447134495,0.17273818,-0.730852365,-0.187360853,0,0,0,0,0,0,0,0,0,0,0,0,-0.02131168,-0.352193467,1.720822311,-1.225871159,-1.046991955,-0.139438854,0.312481627,0.035569179,0.122176464,0.314298821,0.006076972,0.121962199
1704447353.27528,0,0,0,0,0,0,-0.281982422,1.132676125,-3.458643913,-0.276227683,-0.656141639,-1.030677557,0,0,0,0,0,0,0,0,0,0,0,0,-0.0218539,-0.352473631,1.720822311,-1.223071644,-1.047365863,-0.141687627,0.312481627,0.035569179,0.122176464,0.314217638,0.006574491,0.121931376
1704447353.28612,0,0,0,0,0,0,-0.311235338,0.966796875,-3.441379547,0.120986551,-0.563964844,-0.0801543,0,0,0,0,0,0,0,0,0,0,0,0,-0.022065888,-0.352720773,1.720827105,-1.220500629,-1.047817002,-0.14449886,0.312481627,0.035569179,0.122176464,0.314114229,0.0071268,0.121906939
1704447353.29728,0,0,0,0,0,0,-0.403201789,0.932428241,-3.395303488,0.138353407,-0.215706944,-1.019174576,0,0,0,0,0,0,0,0,0,0,0,0,-0.022148978,-0.352793211,1.720824974,-1.217426808,-1.048797046,-0.145689825,0.31209202,0.038839469,0.122176464,0.313907893,0.007862482,0.121952299
1704447353.30821,0,0,0,0,0,0,-0.425889909,0.805684626,-3.40704608,0.284845263,-0.241767704,-0.4569498,0,0,0,0,0,0,0,0,0,0,0,0,-0.022309833,-0.352805994,1.720827105,-1.213791061,-1.049858582,-0.14838601,0.31209202,0.038839469,0.122176464,0.31369813,0.008708436,0.122030684
1704447353.31908,0,0,0,0,0,0,-0.397118986,0.667550206,-3.389856339,0.166986749,-0.454624712,-0.57206893,0,0,0,0,0,0,0,0,0,0,0,0,-0.022577214,-0.352866714,1.720851606,-1.21037316,-1.050073233,-0.150057942,0.31209202,0.038839469,0.122176464,0.313689658,0.009427726,0.122085078
1704447353.33091,0,0,0,0,0,0,-0.150065333,0.73983705,-3.320531845,-0.347626507,-0.52956146,-0.554877818,0,0,0,0,0,0,0,0,0,0,0,0,-0.023151392,-0.353167118,1.720878237,-1.207255131,-1.050198934,-0.152584217,0.31166819,0.0421055,0.122176464,0.313673385,0.009977245,0.122058929
1704447353.342,0,0,0,0,0,0,-0.339968473,0.961317778,-3.285978317,-0.531434238,-0.587435007,-0.071182244,0,0,0,0,0,0,0,0,0,0,0,0,-0.023181219,-0.35367525,1.720863856,-1.202946136,-1.050324635,-0.154970409,0.31166819,0.0421055,0.122176464,0.313666302,0.010973171,0.122007904
1704447353.35285,0,0,0,0,0,0,-0.466702253,0.892653286,-3.246185303,0.124227829,-0.627293408,-0.938464403,0,0,0,0,0,0,0,0,0,0,0,0,-0.023222232,-0.353848355,1.720912326,-1.199236353,-1.050358191,-0.156553392,0.31166819,0.0421055,0.122176464,0.313689901,0.011821274,0.122036442
1704447353.36387,0,0,0,0,0,0,-0.448906839,0.765467346,-3.366529703,-0.213236347,-0.691743135,-0.448168546,0,0,0,0,0,0,0,0,0,0,0,0,-0.023361249,-0.35390002,1.721034299,-1.195818452,-1.050421041,-0.15803624,0.311049925,0.046452963,0.122176464,0.313689602,0.012572627,0.122082387
1704447353.37506,0,0,0,0,0,0,-0.518725514,0.852013052,-3.205397367,-0.15236491,-0.696704328,-0.836419821,0,0,0,0,0,0,0,0,0,0,0,0,-0.023477896,-0.354169,1.721029505,-1.191894017,-1.050572309,-0.160459184,0.311049925,0.046452963,0.122176464,0.313700575,0.013451968,0.122104026
1704447353.38609,0,0,0,0,0,0,-0.34571594,0.863901734,-3.067413092,-0.190689638,-0.748138726,0.277185142,0,0,0,0,0,0,0,0,0,0,0,0,-0.023704264,-0.354463545,1.720973046,-1.187751204,-1.050631964,-0.162882128,0.311049925,0.046452963,0.122176464,0.313759757,0.014341552,0.122137681
1704447353.39719,0,0,0,0,0,0,-0.207888842,0.974252641,-3.009818792,0.08933764,-0.805664063,-0.667575002,0,0,0,0,0,0,0,0,0,0,0,0,-0.024183633,-0.354924272,1.720966122,-1.184248615,-1.050639421,-0.164195066,0.310546424,0.049707663,0.122176464,0.313785654,0.015001483,0.122093503
1704447353.40808,0,0,0,0,0,0,-0.288656443,0.943935752,-2.934941769,0.070009477,-0.863901734,-0.093680426,0,0,0,0,0,0,0,0,0,0,0,0,-0.024446754,-0.355220948,1.72099009,-1.179561984,-1.050860996,-0.16629204,0.310546424,0.049707663,0.122176464,0.313789596,0.016013667,0.122132276
1704447353.41895,0,0,0,0,0,0,-0.295516014,1.116790891,-2.84862113,0.265717119,-0.477643698,-1.018849611,0,0,0,0,0,0,0,0,0,0,0,0,-0.024577781,-0.355754113,1.721065724,-1.175178953,-1.051571527,-0.167853185,0.310546424,0.049707663,0.122176464,0.313614515,0.017025432,0.122083706
1704447353.43059,0,0,0,0,0,0,-0.357535869,1.168340445,-2.773881674,-0.08077167,0.070009477,-0.512463033,0,0,0,0,0,0,0,0,0,0,0,0,-0.024624653,-0.356125358,1.721158402,-1.170314956,-1.053076746,-0.169291824,0.310008869,0.052956913,0.122176464,0.313262307,0.018219177,0.122106378
1704447353.44151,0,0,0,0,0,0,-0.379987389,1.047426462,-2.773935556,-0.26478073,-0.270534128,-0.841787338,0,0,0,0,0,0,0,0,0,0,0,0,-0.024721592,-0.356351727,1.721294756,-1.165528723,-1.053672228,-0.171266824,0.310008869,0.052956913,0.122176464,0.313144825,0.019327967,0.122162733
1704447353.45238,0,0,0,0,0,0,-0.472765386,1.007096529,-2.727772474,-0.048830613,-0.328070819,-0.897758365,0,0,0,0,0,0,0,0,0,0,0,0,-0.024731179,-0.356553594,1.721448154,-1.161130778,-1.053805386,-0.172380558,0.310008869,0.052956913,0.122176464,0.313133218,0.020347838,0.122212025
1704447353.46333,0,0,0,0,0,0,-0.552485347,1.070768952,-2.560964108,-0.04069218,-0.431759179,0.058687095,0,0,0,0,0,0,0,0,0,0,0,0,-0.024736505,-0.356675034,1.721511004,-1.156681169,-1.053842671,-0.175091656,0.309437318,0.056200355,0.122176464,0.31319388,0.021373597,0.122310952
1704447353.47442,0,0,0,0,0,0,-0.593436539,1.104026198,-2.370961189,-0.05305611,-0.454952389,-0.501191556,0,0,0,0,0,0,0,0,0,0,0,0,-0.024795095,-0.357015919,1.721560007,-1.151092259,-1.053898064,-0.176597408,0.309437318,0.056200355,0.122176464,0.313261002,0.022645397,0.122388473
1704447353.48532,0,0,0,0,0,0,-0.6043576,1.070521474,-2.198379755,-0.018198097,-0.512204468,-0.661820471,0,0,0,0,0,0,0,0,0,0,0,0,-0.024831314,-0.357272648,1.721591432,-1.145747295,-1.05390126,-0.178871747,0.309437318,0.056200355,0.122176464,0.313355146,0.023863372,0.122493066
1704447353.49626,0,0,0,0,0,0,-0.644762397,0.87593168,-2.135133982,-0.138113841,-0.6043576,-0.857939363,0,0,0,0,0,0,0,0,0,0,0,0,-0.024848358,-0.357326976,1.721674523,-1.140775706,-1.053864509,-0.179689338,0.308622475,0.060515297,0.122176464,0.313457013,0.024997912,0.122641274
1704447353.50714,0,0,0,0,0,0,-0.616724849,0.782729745,-2.084011793,-0.224729896,-0.610029936,-0.351793259,0,0,0,0,0,0,0,0,0,0,0,0,-0.024928786,-0.357458536,1.721932317,-1.134887456,-1.053960915,-0.181579649,0.308622475,0.060515297,0.122176464,0.313478309,0.026331459,0.122769083
1704447353.51805,0,0,0,0,0,0,-0.575934529,1.126945615,-2.181320906,0.673698366,-0.661895514,-0.754661679,0,0,0,0,0,0,0,0,0,0,0,0,-0.024982582,-0.35790648,1.722541115,-1.130008545,-1.053916174,-0.182959167,0.308622475,0.060515297,0.122176464,0.313338377,0.027436455,0.122688414
1704447353.53027,0,0,0,0,0,0,-0.500794947,1.056195378,-2.429483414,0.025735995,-0.638776481,-0.329832643,0,0,0,0,0,0,0,0,0,0,0,0,-0.025203624,-0.358251626,1.723395457,-1.123624416,-1.054016309,-0.184619914,0.30797185,0.063743807,0.122176464,0.313130767,0.02884308,0.122654633
1704447353.54113,0,0,0,0,0,0,-0.339968473,1.002135277,-2.36520648,0.168467596,-0.627267003,-0.817679942,0,0,0,0,0,0,0,0,0,0,0,0,-0.025592978,-0.358505159,1.724077226,-1.118527658,-1.05410153,-0.186413819,0.30797185,0.063743807,0.122176464,0.312976772,0.02989841,0.122640715
1704447353.55216,0,0,0,0,0,0,-0.437398344,1.051922441,-2.590273619,0.21002841,-0.702102244,-0.742384195,0,0,0,0,0,0,0,0,0,0,0,0,-0.025566346,-0.358831129,1.72507751,-1.112786948,-1.054067974,-0.187264966,0.30797185,0.063743807,0.122176464,0.31273256,0.031225436,0.122567867
1704447353.56323,0,0,0,0,0,0,-0.448906839,1.027507782,-2.785676003,0.628216624,-0.730852365,-0.028773716,0,0,0,0,0,0,0,0,0,0,0,0,-0.025615349,-0.359164557,1.726036248,-1.106880056,-1.054230427,-0.18935821,0.307287453,0.066965326,0.122176464,0.312465218,0.032577089,0.122517876
1704447353.57409,0,0,0,0,0,0,-0.397118986,1.035917759,-2.509305716,0.049504176,-0.736629605,-0.834457636,0,0,0,0,0,0,0,0,0,0,0,0,-0.025651568,-0.359538465,1.726559825,-1.100983818,-1.054467448,-0.190334525,0.307287453,0.066965326,0.122176464,0.312344307,0.033929369,0.122555669
1704447353.58497,0,0,0,0,0,0,-0.466134191,0.945898414,-2.465771437,0.036396194,-0.610002756,-0.903494716,0,0,0,0,0,0,0,0,0,0,0,0,-0.025687787,-0.35973767,1.7272123,-1.095043903,-1.054692752,-0.191063166,0.307287453,0.066965326,0.122176464,0.312203858,0.035289936,0.12262947
1704447353.59628,0,0,0,0,0,0,-0.3572115,0.991169989,-2.39574337,-0.018198097,-0.777231276,-0.408951372,0,0,0,0,0,0,0,0,0,0,0,0,-0.025787921,-0.360077489,1.727691669,-1.089820912,-1.054748678,-0.192172639,0.306569357,0.070179502,0.122176464,0.312138599,0.036453774,0.122667331
1704447353.60713,0,0,0,0,0,0,-0.316563189,0.962763548,-2.394083738,0.324110091,-0.776911676,-0.673403323,0,0,0,0,0,0,0,0,0,0,0,0,-0.025892317,-0.360436483,1.728563055,-1.083625334,-1.054770516,-0.193837647,0.306569357,0.070179502,0.122176464,0.311965974,0.037836769,0.122668178
1704447353.61804,0,0,0,0,0,0,-0.310809404,0.921046555,-2.193168879,0.199765027,-0.811439157,-0.897758365,0,0,0,0,0,0,0,0,0,0,0,0,-0.025902437,-0.360698538,1.72891619,-1.077663049,-1.054840824,-0.194347909,0.306569357,0.070179502,0.122176464,0.311984259,0.039192039,0.1228058
1704447353.62936,0,0,0,0,0,0,-0.276467353,0.875194073,-2.083264828,0.429721713,-0.730852365,-0.656040728,0,0,0,0,0,0,0,0,0,0,0,0,-0.025892317,-0.360862589,1.729383309,-1.072695188,-1.055011266,-0.195028613,0.305817643,0.073385983,0.122176464,0.311914337,0.040334646,0.122907668
1704447353.64029,0,0,0,0,0,0,-0.264718175,0.938040793,-2.163814068,-0.047454827,-0.857456744,-0.03452846,0,0,0,0,0,0,0,0,0,0,0,0,-0.025843848,-0.361119317,1.730203562,-1.066688695,-1.054988895,-0.197162338,0.305817643,0.073385983,0.122176464,0.311785093,0.041712666,0.1229618
1704447353.65119,0,0,0,0,0,0,-0.214166149,0.975882947,-2.366046429,0.702290893,-0.822948396,-0.725188971,0,0,0,0,0,0,0,0,0,0,0,0,-0.025809759,-0.361516661,1.731367364,-1.061591404,-1.055177447,-0.197732254,0.305817643,0.073385983,0.122176464,0.311426653,0.042897629,0.122862032
1704447353.66304,0,0,0,0,0,0,-0.161132813,0.881152451,-2.138109684,0.167283967,-0.500794947,-0.817193806,0,0,0,0,0,0,0,0,0,0,0,0,-0.025797509,-0.361736638,1.73198788,-1.056113282,-1.055606749,-0.198080063,0.304763205,0.07764871,0.122176464,0.311254938,0.044170856,0.122961993
1704447353.67396,0,0,0,0,0,0,-0.126735061,0.788924754,-2.395529032,0.171100825,-0.061173759,-0.696347713,0,0,0,0,0,0,0,0,0,0,0,0,-0.025734658,-0.361781912,1.733343962,-1.050187748,-1.05667947,-0.198719754,0.304763205,0.07764871,0.122176464,0.310680255,0.045610785,0.123003234
1704447353.68496,0,0,0,0,0,0,-0.046396222,0.569835842,-2.490427732,0.155484602,-0.195661277,-0.057547431,0,0,0,0,0,0,0,0,0,0,0,0,-0.025714951,-0.361814935,1.734427336,-1.045361035,-1.057396926,-0.200265986,0.304763205,0.07764871,0.122176464,0.310264838,0.046761803,0.123046151
1704447353.69588,0,0,0,0,0,0,-0.01726423,0.420726418,-2.641527414,0.134345844,-0.293548316,-0.684911191,0,0,0,0,0,0,0,0,0,0,0,0,-0.025644111,-0.361936375,1.735602855,-1.040315943,-1.057467233,-0.201035639,0.303933374,0.080835867,0.122176464,0.309974834,0.047931769,0.123048344
1704447353.70676,0,0,0,0,0,0,0.064339988,0.761802852,-2.457275391,-0.024415307,-0.259027362,-0.707926989,0,0,0,0,0,0,0,0,0,0,0,0,-0.025624936,-0.362506292,1.736588757,-1.035004002,-1.057500789,-0.20121993,0.303933374,0.080835867,0.122176464,0.309728713,0.049140585,0.122971881
1704447353.71774,0,0,0,0,0,0,0.127126426,0.939786732,-2.462182999,0.016276872,-0.21875596,-0.799992144,0,0,0,0,0,0,0,0,0,0,0,0,-0.025549302,-0.363063958,1.737309409,-1.029618557,-1.057503985,-0.201349892,0.303933374,0.080835867,0.122176464,0.30959661,0.050376506,0.122964074
1704447353.72922,0,0,0,0,0,0,0.190689638,0.743788004,-2.326119661,0.060081284,-0.247453958,-0.857630491,0,0,0,0,0,0,0,0,0,0,0,0,-0.025490713,-0.36340644,1.738146707,-1.024599031,-1.057370827,-0.20148305,0.303070214,0.08401416,0.122176464,0.309469313,0.051514021,0.122979195
1704447353.74021,0,0,0,0,0,0,0.253470123,0.962144256,-2.123500347,-0.592766464,-0.184959263,-0.995637119,0,0,0,0,0,0,0,0,0,0,0,0,-0.025395904,-0.363935877,1.739052181,-1.018807189,-1.05734526,-0.201667874,0.303070214,0.08401416,0.122176464,0.309299816,0.052841741,0.122976623
1704447353.75104,0,0,0,0,0,0,0.379987389,0.811928809,-2.270587206,-0.046396222,-0.18451111,-1.007096529,0,0,0,0,0,0,0,0,0,0,0,0,-0.025364479,-0.36421178,1.740047671,-1.014246259,-1.057326618,-0.201900634,0.303070214,0.08401416,0.122176464,0.309080261,0.053874548,0.122963897
1704447353.76273,0,0,0,0,0,0,0.39774394,0.886902809,-2.348506451,0.054290138,-0.15061605,-1.035917759,0,0,0,0,0,0,0,0,0,0,0,0,-0.025276595,-0.364764652,1.741067662,-1.00934551,-1.057252582,-0.202274542,0.301867651,0.088237491,0.122176464,0.308845867,0.054995517,0.122885128
1704447353.7737,0,0,0,0,0,0,0.454661161,1.173318624,-2.454011917,0.138353407,-0.104222842,-0.502379537,0,0,0,0,0,0,0,0,0,0,0,0,-0.02513811,-0.36534895,1.742233594,-1.004292961,-1.057326618,-0.203151254,0.301867651,0.088237491,0.122176464,0.308521727,0.056176378,0.122784374
1704447353.78458,0,0,0,0,0,0,0.340746909,1.109755635,-2.49420166,0.099342272,-0.058687095,-0.150065333,0,0,0,0,0,0,0,0,0,0,0,0,-0.024780181,-0.365851222,1.7436211,-0.999354927,-1.05728241,-0.204919061,0.301867651,0.088237491,0.122176464,0.308137648,0.0573905,0.122658209
1704447353.79577,0,0,0,0,0,0,0.540945888,1.02460289,-2.493776798,0.157179296,-0.018198097,-0.742384195,0,0,0,0,0,0,0,0,0,0,0,0,-0.024531975,-0.366259218,1.744560664,-0.994409437,-1.057293062,-0.205359547,0.300927095,0.091393746,0.122176464,0.307931488,0.058569971,0.122660217
1704447353.80657,0,0,0,0,0,0,0.575589418,0.989815831,-2.666688681,0.167283967,0.011509486,-0.805664063,0,0,0,0,0,0,0,0,0,0,0,0,-0.024298149,-0.366392376,1.746103699,-0.989530526,-1.057234473,-0.205514543,0.300927095,0.091393746,0.122176464,0.307545704,0.059727824,0.12262082
1704447353.81775,0,0,0,0,0,0,0.668170094,0.990417838,-2.432425976,0.109944217,0.092255555,-0.846123397,0,0,0,0,0,0,0,0,0,0,0,0,-0.023996147,-0.36676735,1.746985206,-0.98395653,-1.057248854,-0.205744108,0.300927095,0.091393746,0.122176464,0.307395582,0.061057533,0.122696703
1704447353.82896,0,0,0,0,0,0,0.406921804,0.972568631,-2.384027004,0.275387168,0.092075892,-0.742384195,0,0,0,0,0,0,0,0,0,0,0,0,-0.023458188,-0.367010762,1.747910388,-0.980113589,-1.057130609,-0.20603599,0.29995354,0.094539978,0.122176464,0.307185964,0.062067,0.122688531
1704447353.83988,0,0,0,0,0,0,0.420450836,0.905325532,-2.215583801,-0.167778164,0.103585377,-0.351227969,0,0,0,0,0,0,0,0,0,0,0,0,-0.022844596,-0.367205173,1.749042231,-0.974317485,-1.057138066,-0.207053318,0.29995354,0.094539978,0.122176464,0.306959565,0.063537616,0.122793304
1704447353.85086,0,0,0,0,0,0,0.667773426,0.950386763,-2.193833113,0.3012321,0.139188677,-0.052111421,0,0,0,0,0,0,0,0,0,0,0,0,-0.022703981,-0.367598256,1.749782057,-0.970200238,-1.057016094,-0.208747088,0.29995354,0.094539978,0.122176464,0.306844781,0.064480026,0.122803352
1704447353.86238,0,0,0,0,0,0,0.598742247,0.944409311,-2.505700111,0.116524674,0.195999488,-0.541068256,0,0,0,0,0,0,0,0,0,0,0,0,-0.02237801,-0.367951924,1.751220697,-0.964730105,-1.056930872,-0.209054417,0.298947091,0.097675843,0.122176464,0.306513578,0.065781827,0.122782013
1704447353.87331,0,0,0,0,0,0,0.438305974,1.001325369,-2.338388205,0.374058306,0.242315009,-0.615757525,0,0,0,0,0,0,0,0,0,0,0,0,-0.021469339,-0.368529297,1.752262526,-0.959658914,-1.057012365,-0.209254154,0.298947091,0.097675843,0.122176464,0.306210403,0.067182742,0.122755601
1704447353.88423,0,0,0,0,0,0,0.581342995,0.892282188,-2.429183483,0.247721478,0.224729896,-0.765380859,0,0,0,0,0,0,0,0,0,0,0,0,-0.021165739,-0.3688558,1.75361115,-0.954942988,-1.056890392,-0.2094981,0.298947091,0.097675843,0.122176464,0.305895867,0.068304343,0.122716502
1704447353.89559,0,0,0,0,0,0,0.380205214,1.013243437,-2.303105354,0.374456495,0.213236347,-0.753959179,0,0,0,0,0,0,0,0,0,0,0,0,-0.020403542,-0.369223317,1.754592259,-0.950478465,-1.056905306,-0.209834723,0.297554183,0.101840276,0.122176464,0.305640907,0.069517385,0.122729712
1704447353.90667,0,0,0,0,0,0,0.789428234,0.800240457,-2.348111629,0.123022355,0.247453958,-0.433481544,0,0,0,0,0,0,0,0,0,0,0,0,-0.020218719,-0.369508808,1.755833825,-0.945118587,-1.056886131,-0.210474947,0.297554183,0.101840276,0.122176464,0.305391581,0.070745083,0.122783885
1704447353.91774,0,0,0,0,0,0,0.657276332,1.035853744,-2.477575779,0.213003263,0.328222215,-0.048830613,0,0,0,0,0,0,0,0,0,0,0,0,-0.019673304,-0.369969002,1.757198961,-0.939851919,-1.056886131,-0.21199508,0.297554183,0.101840276,0.122176464,0.305042175,0.072062856,0.122759059
1704447353.92913,0,0,0,0,0,0,0.782983482,0.999305844,-2.38497138,0.411856294,0.167283967,-0.477643698,0,0,0,0,0,0,0,0,0,0,0,0,-0.019108713,-0.370352497,1.758265291,-0.935897658,-1.056516484,-0.212412663,0.296471418,0.104950615,0.122176464,0.304840744,0.073068137,0.122712058
1704447353.9401,0,0,0,0,0,0,0.769609511,0.967892408,-1.951401114,0.184959263,0.380205214,-0.483535409,0,0,0,0,0,0,0,0,0,0,0,0,-0.018728414,-0.370784994,1.759093001,-0.930944711,-1.056538855,-0.212557539,0.296471418,0.104950615,0.122176464,0.304694337,0.074260713,0.122790078
1704447353.95119,0,0,0,0,0,0,0.489694476,1.152386427,-2.154496193,0.760954678,0.333824724,-0.610029936,0,0,0,0,0,0,0,0,0,0,0,0,-0.017686585,-0.371260635,1.760254139,-0.926365671,-1.056505832,-0.212738634,0.296471418,0.104950615,0.122176464,0.304362248,0.075569828,0.122761644
1704447353.9625,0,0,0,0,0,0,0.27071771,0.955564678,-2.198680878,0.328827053,0.178489834,-0.788399816,0,0,0,0,0,0,0,0,0,0,0,0,-0.016712934,-0.371554115,1.761422202,-0.922212205,-1.056187318,-0.212860607,0.295356143,0.108049445,0.122176464,0.304102965,0.076740617,0.122748049
1704447353.97374,0,0,0,0,0,0,0.811439157,0.857476056,-2.283415079,0.651532471,0.322317004,-0.834933698,0,0,0,0,0,0,0,0,0,0,0,0,-0.01645727,-0.371859314,1.762814502,-0.917329566,-1.056154295,-0.213153022,0.295356143,0.108049445,0.122176464,0.303781659,0.077871968,0.122756056
1704447353.98472,0,0,0,0,0,0,0.455534399,0.811418772,-2.297987938,0.080566406,0.437701106,-0.74458909,0,0,0,0,0,0,0,0,0,0,0,0,-0.015642343,-0.371959448,1.764180171,-0.912735613,-1.056279996,-0.213489646,0.295356143,0.108049445,0.122176464,0.303399434,0.079121381,0.122818711
1704447353.99576,0,0,0,0,0,0,0.731056273,0.824215055,-2.533760548,0.17273818,0.362731457,-0.753893316,0,0,0,0,0,0,0,0,0,0,0,0,-0.015126222,-0.372250266,1.76579671,-0.908071353,-1.056039246,-0.214007364,0.294208478,0.111136426,0.122176464,0.303017399,0.080264237,0.122769996
1704447354.00664,0,0,0,0,0,0,0.297303647,0.82455653,-2.401493788,0.456042975,0.231337801,-0.230261639,0,0,0,0,0,0,0,0,0,0,0,0,-0.013974672,-0.372676904,1.766801787,-0.903595644,-1.055569464,-0.215113109,0.294208478,0.111136426,0.122176464,0.302847993,0.081534475,0.122782654
1704447354.0178,0,0,0,0,0,0,0.247520864,0.776975572,-2.296495914,0.390729696,-0.173025519,-0.415777683,0,0,0,0,0,0,0,0,0,0,0,0,-0.012903548,-0.373117391,1.768211132,-0.898750289,-1.05493723,-0.216252409,0.294208478,0.111136426,0.122176464,0.302589627,0.082844702,0.122737561
1704447354.0287,0,0,0,0,0,0,0.576193213,0.887742579,-2.091538429,0.282041132,-0.379813045,-0.638880134,0,0,0,0,0,0,0,0,0,0,0,0,-0.012587165,-0.373751223,1.769126727,-0.894496688,-1.054193675,-0.216474517,0.292628092,0.115233385,0.122176464,0.302554517,0.083786449,0.122683317
1704447354.03969,0,0,0,0,0,0,0.378459156,0.929083586,-2.095232248,0.306355625,-0.362731457,-0.79434222,0,0,0,0,0,0,0,0,0,0,0,0,-0.011691277,-0.374301432,1.770173349,-0.890087558,-1.053679685,-0.216555477,0.292628092,0.115233385,0.122176464,0.302384753,0.084953638,0.122652461
1704447354.05104,0,0,0,0,0,0,0.558239758,0.850339949,-2.255925417,0.087085068,-0.149733961,-0.93802315,0,0,0,0,0,0,0,0,0,0,0,0,-0.011168232,-0.374737658,1.771461254,-0.885053651,-1.053720165,-0.216766399,0.292628092,0.115233385,0.122176464,0.30206971,0.086185037,0.122685038
1704447354.06256,0,0,0,0,0,0,0.524818718,0.955304682,-2.177005053,0.558299065,-0.178489834,-1.064689636,0,0,0,0,0,0,0,0,0,0,0,0,-0.010245713,-0.375161633,1.772565933,-0.881158512,-1.053679685,-0.216992235,0.291405348,0.118291405,0.122176464,0.301748395,0.087286658,0.122663141
1704447354.07349,0,0,0,0,0,0,0.140018955,0.713959336,-1.973952413,0.875194073,-0.282041132,-0.713588178,0,0,0,0,0,0,0,0,0,0,0,0,-0.009006811,-0.375489735,1.773819749,-0.876642323,-1.053631748,-0.217654297,0.291405348,0.118291405,0.122176464,0.301391669,0.088611965,0.122695726
1704447354.08452,0,0,0,0,0,0,0.266960531,1.181755781,-1.749612331,0.910723329,-0.258963436,0.195999488,0,0,0,0,0,0,0,0,0,0,0,0,-0.008162056,-0.376295075,1.774552651,-0.872592188,-1.053634944,-0.219796011,0.291405348,0.118291405,0.122176464,0.301172136,0.089721084,0.122653814
1704447354.09602,0,0,0,0,0,0,0.605233729,1.06238544,-2.07190752,0.092792444,-0.408627301,-0.64453125,0,0,0,0,0,0,0,0,0,0,0,0,-0.007808921,-0.376869252,1.776144689,-0.867731919,-1.053564637,-0.220321186,0.290150648,0.121336453,0.122176464,0.300763651,0.090846038,0.122581556
1704447354.10697,0,0,0,0,0,0,0.92140609,1.048374534,-2.333801985,0.115238644,-0.368348539,-0.656066,0,0,0,0,0,0,0,0,0,0,0,0,-0.007577759,-0.377320924,1.777699975,-0.863189631,-1.053672228,-0.22056886,0.290150648,0.121336453,0.122176464,0.300335987,0.091880128,0.122537836
1704447354.11807,0,0,0,0,0,0,0.565401673,0.984212458,-2.345592737,0.116382487,-0.397244036,-0.719434977,0,0,0,0,0,0,0,0,0,0,0,0,-0.006579606,-0.377517998,1.779304263,-0.858458792,-1.053783016,-0.220816534,0.290150648,0.121336453,0.122176464,0.299862226,0.093181474,0.122581566
1704447354.12978,0,0,0,0,0,0,0.339529842,0.887966394,-2.550448656,0.15061605,-0.379987389,-0.753893316,0,0,0,0,0,0,0,0,0,0,0,0,-0.005367335,-0.377771531,1.781008154,-0.85519642,-1.053809115,-0.221182985,0.28886413,0.124368195,0.122176464,0.299257216,0.09423096,0.122459938
1704447354.14077,0,0,0,0,0,0,0.753959179,0.992221832,-2.167407751,0.788042724,-0.454770386,-0.253470123,0,0,0,0,0,0,0,0,0,0,0,0,-0.004863465,-0.378399505,1.782006307,-0.850372902,-1.053849595,-0.222292458,0.28886413,0.124368195,0.122176464,0.299033527,0.095391146,0.122505849
1704447354.15167,0,0,0,0,0,0,0.702455938,1.122706056,-2.167155504,0.78048408,-0.546730876,-0.253796577,0,0,0,0,0,0,0,0,0,0,0,0,-0.004103931,-0.379010434,1.783157325,-0.84659654,-1.053742536,-0.223627767,0.28886413,0.124368195,0.122176464,0.29870333,0.096395335,0.122430641
1704447354.16264,0,0,0,0,0,0,0.564229012,1.049637437,-1.92797637,0.670544922,-0.633047938,-0.58148545,0,0,0,0,0,0,0,0,0,0,0,0,-0.003332147,-0.379384874,1.783970654,-0.842491011,-1.053705252,-0.223931368,0.287099522,0.128389245,0.122176464,0.298533218,0.097474796,0.122527054
1704447354.17369,0,0,0,0,0,0,0.547789872,0.903659582,-2.074590921,0.099342272,-0.661795497,-0.794154584,0,0,0,0,0,0,0,0,0,0,0,0,-0.002234925,-0.379711378,1.78538213,-0.837412363,-1.053805386,-0.224152943,0.287099522,0.128389245,0.122176464,0.298136988,0.098862782,0.122619116
1704447354.18466,0,0,0,0,0,0,0.742562592,0.742384195,-2.115782022,0.580316722,-0.638802409,-0.74316448,0,0,0,0,0,0,0,0,0,0,0,0,-0.001363538,-0.379906321,1.78671158,-0.833835737,-1.053812843,-0.224386236,0.287099522,0.128389245,0.122176464,0.297740677,0.099862245,0.122629085
1704447354.19589,0,0,0,0,0,0,0.573225558,0.961111069,-2.142743826,0.83016032,-0.760170877,-0.880776525,0,0,0,0,0,0,0,0,0,0,0,0,-0.000657268,-0.380511924,1.788064465,-0.830399194,-1.05386078,-0.224655747,0.285739315,0.131388649,0.122176464,0.29728452,0.100785313,0.122503973
1704447354.2069,0,0,0,0,0,0,0.737707853,1.174094558,-2.062680244,0.329279959,-0.633047938,-0.955304682,0,0,0,0,0,0,0,0,0,0,0,0,0.000170442,-0.381209672,1.789252768,-0.825583666,-1.054071703,-0.224911411,0.285739315,0.131388649,0.122176464,0.296915973,0.102040195,0.122521257
1704447354.21797,0,0,0,0,0,0,0.460379452,1.080068827,-2.177005053,0.263023853,-0.828862846,-0.852654099,0,0,0,0,0,0,0,0,0,0,0,0,0.001596831,-0.381744968,1.790915113,-0.820689842,-1.053997667,-0.225566016,0.285739315,0.131388649,0.122176464,0.296400189,0.103460504,0.122492786
1704447354.22931,0,0,0,0,0,0,0.587011993,0.880494535,-2.027760983,0.328222215,-0.834517121,-0.20725067,0,0,0,0,0,0,0,0,0,0,0,0,0.002263687,-0.382013414,1.79186959,-0.817201633,-1.054056789,-0.2267426,0.284347774,0.134373646,0.122176464,0.296143713,0.10437688,0.122558602
1704447354.2404,0,0,0,0,0,0,0.195407212,0.926960349,-2.200006247,0.347626507,-0.84068507,-0.478198022,0,0,0,0,0,0,0,0,0,0,0,0,0.003731621,-0.38235856,1.793373743,-0.812870801,-1.054152663,-0.227929305,0.284347774,0.134373646,0.122176464,0.295630665,0.10570316,0.12257977
1704447354.25143,0,0,0,0,0,0,0.363278866,0.906129956,-2.07058835,0.536303759,-0.926531553,-0.656141639,0,0,0,0,0,0,0,0,0,0,0,0,0.004637096,-0.382782535,1.79456897,-0.808950095,-1.054134553,-0.228258472,0.284347774,0.134373646,0.122176464,0.295286355,0.106766977,0.122595287
1704447354.26274,0,0,0,0,0,0,0.144900739,0.822948396,-2.21072793,0.648858428,-0.972823977,-0.864763916,0,0,0,0,0,0,0,0,0,0,0,0,0.005956426,-0.383087201,1.796082711,-0.804655481,-1.054134553,-0.228624923,0.282443908,0.138330662,0.122176464,0.294811471,0.10802757,0.122624576
1704447354.27368,0,0,0,0,0,0,0.461277753,0.725188971,-2.103325129,1.296657443,-0.98407793,-0.558684468,0,0,0,0,0,0,0,0,0,0,0,0,0.006737798,-0.383504784,1.797463293,-0.800838106,-1.054345476,-0.229479265,0.282443908,0.138330662,0.122176464,0.294350635,0.109048561,0.122614791
1704447354.28467,0,0,0,0,0,0,0.806978285,0.819197416,-2.187173367,0.882260561,-1.013243437,0.138233677,0,0,0,0,0,0,0,0,0,0,0,0,0.007200389,-0.384017177,1.798797005,-0.797069201,-1.054356128,-0.231421242,0.282443908,0.138330662,0.122176464,0.29397708,0.109946194,0.122573272
1704447354.29611,0,0,0,0,0,0,0.6523453,0.731214762,-2.187718391,0.507103622,-1.007096529,-0.512204468,0,0,0,0,0,0,0,0,0,0,0,0,0.008001201,-0.384411857,1.800114204,-0.79257485,-1.05459315,-0.231816988,0.280979853,0.141280769,0.122176464,0.293582349,0.111108069,0.122655178
1704447354.30723,0,0,0,0,0,0,0.466453791,0.817355931,-2.131501198,0.243405923,-1.001474142,-0.667649448,0,0,0,0,0,0,0,0,0,0,0,0,0.009617474,-0.385087767,1.801666827,-0.788077303,-1.05476732,-0.232039095,0.280979853,0.141280769,0.122176464,0.292989589,0.112500142,0.122610353
1704447354.31823,0,0,0,0,0,0,0.828862846,0.863288224,-2.29776454,0.662495673,-1.035997629,-0.690665066,0,0,0,0,0,0,0,0,0,0,0,0,0.010041183,-0.385538907,1.803178437,-0.784411729,-1.054981438,-0.232312868,0.280979853,0.141280769,0.122176464,0.292508944,0.113376002,0.122563845
1704447354.32918,0,0,0,0,0,0,0.479857266,0.68503201,-2.11481905,0.521781027,-0.506548226,-0.788483858,0,0,0,0,0,0,0,0,0,0,0,0,0.011326424,-0.385876063,1.8040674,-0.780735501,-1.055825128,-0.232741637,0.279484985,0.144215383,0.122176464,0.292032394,0.114562373,0.12270834
1704447354.34034,0,0,0,0,0,0,0.690593183,0.880550981,-1.847595215,0.044945981,-0.450196028,0.155803755,0,0,0,0,0,0,0,0,0,0,0,0,0.012358399,-0.386524276,1.805330271,-0.775948735,-1.056989995,-0.234402917,0.279484985,0.144215383,0.122176464,0.291405404,0.115921936,0.122824213
1704447354.35138,0,0,0,0,0,0,0.368707985,0.969687045,-1.830044508,0.498939902,-0.661820471,-0.517958879,0,0,0,0,0,0,0,0,0,0,0,0,0.013736319,-0.387294995,1.806532955,-0.772553205,-1.057300519,-0.235375503,0.279484985,0.144215383,0.122176464,0.290855245,0.117024589,0.122730814
1704447354.36239,0,0,0,0,0,0,0.714423001,0.955443323,-1.895277262,0.727241099,-0.679084063,-0.656671405,0,0,0,0,0,0,0,0,0,0,0,0,0.014510233,-0.387905392,1.807726051,-0.769527854,-1.057326618,-0.235619449,0.277959468,0.147134182,0.122176464,0.29044091,0.117850398,0.122634331
1704447354.37338,0,0,0,0,0,0,0.893487632,0.906129956,-1.85586679,0.459010661,-0.61599946,-0.840901673,0,0,0,0,0,0,0,0,0,0,0,0,0.015111575,-0.388344813,1.809249379,-0.764963196,-1.057511441,-0.235918788,0.277959468,0.147134182,0.122176464,0.290012665,0.11894447,0.122693088
1704447354.38435,0,0,0,0,0,0,0.313356191,0.857939363,-2.12988472,0.232764974,-0.696419001,-0.897758365,0,0,0,0,0,0,0,0,0,0,0,0,0.017054085,-0.388745885,1.811031567,-0.760602536,-1.057404382,-0.236281511,0.277959468,0.147134182,0.122176464,0.289386924,0.120355784,0.122679937
1704447354.39551,0,0,0,0,0,0,0.759822249,1.116553664,-2.280047894,0.37622118,-0.621538937,-0.777231276,0,0,0,0,0,0,0,0,0,0,0,0,0.017584586,-0.389476124,1.812270469,-0.757106871,-1.057522627,-0.236840242,0.27587806,0.15100076,0.122176464,0.288983386,0.121205881,0.122600685
1704447354.40661,0,0,0,0,0,0,0.564082265,0.926960349,-1.979932666,0.449017495,-0.633021772,-0.162768722,0,0,0,0,0,0,0,0,0,0,0,0,0.01904027,-0.390075335,1.813796993,-0.753193622,-1.057485875,-0.23828261,0.27587806,0.15100076,0.122176464,0.288441249,0.122388419,0.122541782
1704447354.41769,0,0,0,0,0,0,0.552485347,0.927156806,-2.361976862,0.542107821,-0.575589418,-0.575589418,0,0,0,0,0,0,0,0,0,0,0,0,0.020172114,-0.390418351,1.81549822,-0.749705413,-1.057559378,-0.23927011,0.27587806,0.15100076,0.122176464,0.287846948,0.123399379,0.122491373
1704447354.42885,0,0,0,0,0,0,0.132858559,0.972977161,-2.125027895,0.385567784,-0.65031147,-0.75442028,0,0,0,0,0,0,0,0,0,0,0,0,0.02198333,-0.390905176,1.816593312,-0.745770326,-1.05753754,-0.239473576,0.274281686,0.153881416,0.122176464,0.287435736,0.124687407,0.12255275
1704447354.43985,0,0,0,0,0,0,0.915004194,0.857533991,-2.124622822,0.231981099,-0.713680983,-0.933138371,0,0,0,0,0,0,0,0,0,0,0,0,0.022253374,-0.391370697,1.818183219,-0.74171593,-1.057470961,-0.239762262,0.274281686,0.153881416,0.122176464,0.28705131,0.12554533,0.122541497
1704447354.45098,0,0,0,0,0,0,0.212224439,1.066507816,-1.786345005,0.303695619,-0.690569162,-0.840192497,0,0,0,0,0,0,0,0,0,0,0,0,0.02412531,-0.392002399,1.819006136,-0.738091368,-1.05751517,-0.24025761,0.274281686,0.153881416,0.122176464,0.286679869,0.126791764,0.122587555
1704447354.46248,0,0,0,0,0,0,0.684838653,0.909540772,-1.904080987,0.28292042,-0.719434977,-0.166091904,0,0,0,0,0,0,0,0,0,0,0,0,0.025079521,-0.392500943,1.820339847,-0.73421487,-1.057530084,-0.241478403,0.272655234,0.156745198,0.122176464,0.286272145,0.127815272,0.122605385
1704447354.4734,0,0,0,0,0,0,0.471924037,0.737415969,-1.868085742,0.519968987,-0.736629605,-0.517926872,0,0,0,0,0,0,0,0,0,0,0,0,0.026464631,-0.392816261,1.821705516,-0.730090699,-1.057478418,-0.243091214,0.272655234,0.156745198,0.122176464,0.285853757,0.129002299,0.122694332
1704447354.48474,0,0,0,0,0,0,0.713611364,0.772872925,-1.99742651,0.248522311,-0.759713292,-0.569835842,0,0,0,0,0,0,0,0,0,0,0,0,0.027440679,-0.393197625,1.82327039,-0.726299423,-1.057551922,-0.243531168,0.272655234,0.156745198,0.122176464,0.285351195,0.130013203,0.122704012
1704447354.49598,0,0,0,0,0,0,0.266277403,0.74672085,-2.1582973,0.611331463,-0.753959179,-0.753871381,0,0,0,0,0,0,0,0,0,0,0,0,0.029224997,-0.393589643,1.824747911,-0.722763278,-1.057640871,-0.243997221,0.270998882,0.15959179,0.122176464,0.284752759,0.131204119,0.122703039
1704447354.50688,0,0,0,0,0,0,0.842573822,0.738044441,-1.928053737,0.538921773,-0.788735807,-0.20149821,0,0,0,0,0,0,0,0,0,0,0,0,0.029894516,-0.394207496,1.826116244,-0.719323539,-1.057566835,-0.245125336,0.270998882,0.15959179,0.122176464,0.284345935,0.132041968,0.122637289
1704447354.51786,0,0,0,0,0,0,0.253274113,0.667773426,-2.238646984,0.536427259,-0.760170877,-0.542443693,0,0,0,0,0,0,0,0,0,0,0,0,0.03179548,-0.394882341,1.827747164,-0.715102961,-1.057689341,-0.246505386,0.270998882,0.15959179,0.122176464,0.283682606,0.133393501,0.122607141
1704447354.52896,0,0,0,0,0,0,0.759713292,0.82455653,-1.946771026,0.302767307,-0.765380859,-0.662195683,0,0,0,0,0,0,0,0,0,0,0,0,0.032494027,-0.395372895,1.828891258,-0.711493313,-1.057533812,-0.246745603,0.268744217,0.163359969,0.122176464,0.283405761,0.134263592,0.122635188
1704447354.53983,0,0,0,0,0,0,0.587096632,0.711775899,-2.212247849,0.43796584,-0.782835424,-0.857533991,0,0,0,0,0,0,0,0,0,0,0,0,0.034032536,-0.395761184,1.830641487,-0.70783839,-1.057585477,-0.246967711,0.268744217,0.163359969,0.122176464,0.282754141,0.135389261,0.122605551
1704447354.55084,0,0,0,0,0,0,0.62990129,0.676837087,-1.825351596,0.710168898,-0.868985295,-1.018735886,0,0,0,0,0,0,0,0,0,0,0,0,0.034979556,-0.396247478,1.831500623,-0.705145934,-1.057722364,-0.247141349,0.268744217,0.163359969,0.122176464,0.282414962,0.136177434,0.122612051
1704447354.56194,0,0,0,0,0,0,0.437511921,0.967224956,-2.25621891,0.366003484,-0.892003715,-1.030356288,0,0,0,0,0,0,0,0,0,0,0,0,0.036875726,-0.397003815,1.833365368,-0.701206587,-1.057674427,-0.247544552,0.267018811,0.166165243,0.122176464,0.281671311,0.137441151,0.122484217
1704447354.57324,0,0,0,0,0,0,1.081907034,0.750326693,-1.812707543,0.476915121,-0.915004194,-0.448168546,0,0,0,0,0,0,0,0,0,0,0,0,0.037408891,-0.397738848,1.834246342,-0.697407854,-1.057714907,-0.248594902,0.267018811,0.166165243,0.122176464,0.281459045,0.138312306,0.12253171
1704447354.58429,0,0,0,0,0,0,0.306949615,0.967635691,-1.974891663,0.798500419,-0.915167034,-0.463283658,0,0,0,0,0,0,0,0,0,0,0,0,0.039674975,-0.398400377,1.835819205,-0.694067717,-1.057744734,-0.250507585,0.267018811,0.166165243,0.122176464,0.280720786,0.139569318,0.122428611
1704447354.59539,0,0,0,0,0,0,0.538276136,0.938464403,-1.780597925,0.915167034,-1.070382237,-0.886230469,0,0,0,0,0,0,0,0,0,0,0,0,0.040911747,-0.398878148,1.836794987,-0.690446883,-1.057674427,-0.251014118,0.265264124,0.168952295,0.122176464,0.280418589,0.140589139,0.122509003
1704447354.6064,0,0,0,0,0,0,0.656141639,0.800654233,-2.078609705,0.678108037,-0.98983258,-0.834437788,0,0,0,0,0,0,0,0,0,0,0,0,0.04204359,-0.399446467,1.838408863,-0.686492622,-1.057762844,-0.251620786,0.265264124,0.168952295,0.122176464,0.279868315,0.141644752,0.122501195
1704447354.61745,0,0,0,0,0,0,0.111736909,0.934361875,-2.220242262,0.886697412,-1.036109447,0.201744571,0,0,0,0,0,0,0,0,0,0,0,0,0.044127248,-0.400211327,1.840166549,-0.682808405,-1.057788943,-0.253577677,0.265264124,0.168952295,0.122176464,0.279098151,0.142902409,0.122380103
1704447354.62852,0,0,0,0,0,0,0.789742887,0.95247519,-1.933670878,1.237751484,-1.105150461,-0.541068256,0,0,0,0,0,0,0,0,0,0,0,0,0.04486734,-0.400767927,1.841208378,-0.67980862,-1.057888545,-0.254424562,0.262879324,0.172639492,0.122176464,0.278744592,0.143670749,0.122376844
1704447354.63964,0,0,0,0,0,0,0.273456305,1.059263587,-2.412583113,1.125063419,-1.104910731,-0.673329532,0,0,0,0,0,0,0,0,0,0,0,0,0.046872967,-0.401468339,1.843126386,-0.676180329,-1.058033421,-0.254860788,0.262879324,0.172639492,0.122176464,0.277899417,0.144897266,0.122253888
1704447354.65066,0,0,0,0,0,0,0.337769598,1.130803347,-1.866782308,0.536303759,-1.254863977,-0.656066,0,0,0,0,0,0,0,0,0,0,0,0,0.048377386,-0.401962621,1.844121876,-0.672651641,-1.058007322,-0.255238424,0.262879324,0.172639492,0.122176464,0.277531785,0.145964344,0.122328678
1704447354.66187,0,0,0,0,0,0,0.584070981,0.800426662,-2.001277685,0.643399835,-1.271850348,-0.503334463,0,0,0,0,0,0,0,0,0,0,0,0,0.049645584,-0.402398847,1.845706989,-0.669185803,-1.057996137,-0.255899953,0.261057067,0.175382842,0.122176464,0.276974166,0.146942149,0.122312959
1704447354.67283,0,0,0,0,0,0,0.299467921,0.938093722,-2.116814852,0.564082265,-1.231730223,0.033555631,0,0,0,0,0,0,0,0,0,0,0,0,0.051325239,-0.402981014,1.847014069,-0.665808382,-1.058225169,-0.257579343,0.261057067,0.175382842,0.122176464,0.276380669,0.148039969,0.122315803
1704447354.68374,0,0,0,0,0,0,0.846260369,0.864150882,-1.945316076,0.391364872,-1.375491977,-0.564434409,0,0,0,0,0,0,0,0,0,0,0,0,0.052420598,-0.403436947,1.848508635,-0.662453864,-1.058258724,-0.258334083,0.261057067,0.175382842,0.122176464,0.275861437,0.148949002,0.122305376
1704447354.69513,0,0,0,0,0,0,0.402873129,0.772508621,-2.026625872,0.924276948,-1.2890625,-0.765402436,0,0,0,0,0,0,0,0,0,0,0,0,0.05422196,-0.403767712,1.849586682,-0.659705482,-1.058480832,-0.258578028,0.259206182,0.178106959,0.122176464,0.275316533,0.149961417,0.122351757
1704447354.70601,0,0,0,0,0,0,0.569835842,0.934042871,-2.002857447,0.258643538,-1.467470884,-0.961042106,0,0,0,0,0,0,0,0,0,0,0,0,0.055460862,-0.404272115,1.851173926,-0.65575122,-1.058546878,-0.258970045,0.259206182,0.178106959,0.122176464,0.274776485,0.151018855,0.122385377
1704447354.71714,0,0,0,0,0,0,0.692102075,0.926960349,-2.100914955,0.712403715,-1.513595939,-0.713959336,0,0,0,0,0,0,0,0,0,0,0,0,0.057067547,-0.404917665,1.852687667,-0.652119201,-1.058532497,-0.259746623,0.259206182,0.178106959,0.122176464,0.274184175,0.152106759,0.122350965
1704447354.72872,0,0,0,0,0,0,0.189993694,0.892653286,-1.922092795,1.335546851,-1.553951144,-0.180702597,0,0,0,0,0,0,0,0,0,0,0,0,0.058949071,-0.405527529,1.853646938,-0.649434202,-1.058739691,-0.261167686,0.257326872,0.180811544,0.122176464,0.273634123,0.153120638,0.12233533
1704447354.73967,0,0,0,0,0,0,0.881678522,0.891613841,-1.945520282,1.187835336,-1.507786632,-0.788483858,0,0,0,0,0,0,0,0,0,0,0,0,0.059922722,-0.406193852,1.855061076,-0.64593108,-1.058880306,-0.262125359,0.257326872,0.180811544,0.122176464,0.273127026,0.154021181,0.122314425
1704447354.75057,0,0,0,0,0,0,0.610979259,0.663394868,-1.91664052,0.83570683,-1.548293352,-0.880644917,0,0,0,0,0,0,0,0,0,0,0,0,0.06214513,-0.406693461,1.856434202,-0.641928882,-1.059190831,-0.262506191,0.257326872,0.180811544,0.122176464,0.272465248,0.155370378,0.122421122
1704447354.7621,0,0,0,0,0,0,0.396409482,0.980352223,-1.992770433,0.871629894,-1.439249635,-0.840192497,0,0,0,0,0,0,0,0,0,0,0,0,0.063627712,-0.407377893,1.85783609,-0.638907259,-1.059460875,-0.263002071,0.254777265,0.184386764,0.122176464,0.271812327,0.156325122,0.122357825
1704447354.77302,0,0,0,0,0,0,0.628954232,1.033244848,-1.677485466,0.63396275,-1.168269634,0.097999744,0,0,0,0,0,0,0,0,0,0,0,0,0.065195249,-0.408361665,1.858856081,-0.635441421,-1.060345045,-0.264914221,0.254777265,0.184386764,0.122176464,0.271150011,0.157444243,0.122382173
1704447354.78405,0,0,0,0,0,0,0.68636024,1.013096452,-1.937016249,0.439211696,-1.122706056,-0.63396275,0,0,0,0,0,0,0,0,0,0,0,0,0.067067185,-0.408913472,1.860392192,-0.632411809,-1.061343198,-0.26613821,0.254777265,0.184386764,0.122176464,0.27023427,0.158561693,0.12240342
1704447354.79543,0,0,0,0,0,0,0.80586952,0.950648069,-1.839016438,1.416415215,-1.214591742,-0.736629605,0,0,0,0,0,0,0,0,0,0,0,0,0.067960409,-0.409300163,1.861521905,-0.629841326,-1.061765042,-0.266497204,0.252832437,0.187044626,0.122176464,0.269740179,0.159287465,0.122437922
1704447354.80633,0,0,0,0,0,0,0.627926588,1.076136947,-1.980041623,0.835409582,-1.300686598,-0.725188971,0,0,0,0,0,0,0,0,0,0,0,0,0.069956448,-0.410043185,1.863257221,-0.626364303,-1.061924299,-0.267126243,0.252832437,0.187044626,0.122176464,0.268935839,0.160435513,0.122353493
1704447354.81742,0,0,0,0,0,0,0.692962885,1.178528666,-2.217257023,1.128296614,-1.329457879,-0.075032666,0,0,0,0,0,0,0,0,0,0,0,0,0.071584971,-0.410901255,1.864737406,-0.622672629,-1.062008988,-0.268813089,0.252832437,0.187044626,0.122176464,0.268307509,0.161520148,0.122300086
1704447354.82874,0,0,0,0,0,0,0.341911167,1.03714776,-2.158519745,0.930009902,-1.294830084,-0.696347713,0,0,0,0,0,0,0,0,0,0,0,0,0.073264627,-0.411185681,1.866049279,-0.619576971,-1.06209847,-0.269567296,0.250859883,0.189681977,0.122176464,0.267751239,0.162514608,0.122368238
1704447354.83961,0,0,0,0,0,0,0.648858428,0.968867064,-2.067755461,0.903696299,-1.335100412,-0.846260369,0,0,0,0,0,0,0,0,0,0,0,0,0.075117122,-0.41156598,1.867463417,-0.616862144,-1.062190616,-0.269915105,0.250859883,0.189681977,0.122176464,0.267082758,0.163478451,0.122349994
1704447354.8508,0,0,0,0,0,0,0.6523453,0.880776525,-1.92797637,0.953013957,-1.254586816,-1.012900233,0,0,0,0,0,0,0,0,0,0,0,0,0.07703513,-0.41206985,1.868666101,-0.614072749,-1.062512325,-0.270236815,0.250859883,0.189681977,0.122176464,0.266421203,0.164495519,0.122363868
1704447354.86216,0,0,0,0,0,0,0.508049607,0.920219243,-1.912792087,0.556427419,-1.202755094,-1.058888435,0,0,0,0,0,0,0,0,0,0,0,0,0.078447138,-0.412720727,1.869773443,-0.6104892,-1.062856406,-0.270740152,0.24885982,0.192298527,0.122176464,0.265923943,0.165525363,0.122448982
1704447354.87299,0,0,0,0,0,0,0.520382822,0.926960349,-1.761712909,1.427466393,-1.007671833,-0.310809404,0,0,0,0,0,0,0,0,0,0,0,0,0.080399235,-0.413350298,1.871005422,-0.60717463,-1.063396495,-0.272212348,0.24885982,0.192298527,0.122176464,0.265224906,0.166659554,0.122508455
1704447354.88384,0,0,0,0,0,0,0.857533991,0.786212444,-1.66757524,1.809635758,-0.339724869,-0.864763916,0,0,0,0,0,0,0,0,0,0,0,0,0.082032552,-0.41372101,1.872035,-0.604345287,-1.064568818,-0.273654716,0.24885982,0.192298527,0.122176464,0.264499774,0.167679704,0.122678631
1704447354.89518,0,0,0,0,0,0,0.4569498,0.78048408,-1.916338086,0.424838811,-0.742451072,-0.840901673,0,0,0,0,0,0,0,0,0,0,0,0,0.083729252,-0.414214228,1.873539153,-0.601189974,-1.065105179,-0.274179891,0.246150655,0.195754408,0.122176464,0.263743699,0.168703281,0.122716615
